;FLAVOR:Marlin
;TIME:373
;Filament used: 0.340607m
;Layer height: 0.2
;MINX:117.484
;MINY:118.999
;MINZ:0.36
;MAXX:131.496
;MAXY:133.012
;MAXZ:11.06
;Generated with Cura_SteamEngine 4.2.1
M140 S125
M105
M190 S125
M104 S255
M105
M109 S255
M82 ;absolute extrusion mode
G28 ;Home
G1 Z15.0 F6000 ;Move the platform down 15mm
;Prime the extruder
G92 E0
M141 S28
G92 E0
G92 E0
G1 F1500 E-6.5
;LAYER_COUNT:49
;LAYER:-6
M107
G0 F4800 X118.629 Y120.029 Z0.36
;TYPE:SUPPORT-INTERFACE
G1 F1500 E0
G1 F787.5 X118.743 Y119.939 E0.01739
G1 X118.887 Y119.84 E0.03831
G1 X119 Y119.782 E0.05352
G1 X119.215 Y119.695 E0.08129
G1 X119.628 Y119.621 E0.13153
G1 X119.83 Y119.612 E0.15574
G1 X129.566 Y119.612 E1.3215
G1 X129.784 Y119.623 E1.34763
G1 X130.068 Y119.663 E1.38197
G1 X130.178 Y119.696 E1.39573
G1 X130.379 Y119.773 E1.4215
G1 X130.49 Y119.834 E1.43666
G1 X130.643 Y119.931 E1.45835
G1 X130.752 Y120.023 E1.47543
G1 X130.882 Y120.15 E1.49719
G1 X130.969 Y120.259 E1.51389
G1 X131.068 Y120.403 E1.53482
G1 X131.125 Y120.514 E1.54976
G1 X131.203 Y120.695 E1.57336
G1 X131.213 Y120.731 E1.57783
G1 X131.287 Y121.144 E1.62807
G1 X131.296 Y121.346 E1.65228
G1 X131.296 Y131.082 E2.81803
G1 X131.275 Y131.402 E2.85643
G1 X131.245 Y131.584 E2.87852
G1 X131.213 Y131.69 E2.89178
G1 X131.135 Y131.894 E2.91793
G1 X131.076 Y132.003 E2.93277
G1 X130.977 Y132.158 E2.95479
G1 X130.887 Y132.266 E2.97162
G1 X130.754 Y132.401 E2.99431
G1 X130.65 Y132.484 E3.01025
G1 X130.501 Y132.586 E3.03187
G1 X130.392 Y132.642 E3.04654
G1 X130.177 Y132.729 E3.07431
G1 X129.763 Y132.803 E3.12467
G1 X129.563 Y132.812 E3.14864
G1 X119.826 Y132.812 E4.31451
G1 X119.506 Y132.791 E4.35291
G1 X119.303 Y132.755 E4.3776
G1 X119.214 Y132.728 E4.38873
G1 X119.013 Y132.651 E4.41451
G1 X118.902 Y132.59 E4.42967
G1 X118.743 Y132.489 E4.45223
G1 X118.65 Y132.41 E4.46684
G1 X118.495 Y132.256 E4.493
G1 X118.432 Y132.177 E4.5051
G1 X118.322 Y132.017 E4.52835
G1 X118.266 Y131.908 E4.54302
G1 X118.178 Y131.686 E4.57161
G1 X118.105 Y131.28 E4.621
G1 X118.096 Y131.071 E4.64605
G1 X118.096 Y121.336 E5.81169
G1 X118.116 Y121.028 E5.84864
G1 X118.153 Y120.821 E5.87382
G1 X118.18 Y120.731 E5.88507
G1 X118.257 Y120.529 E5.91096
G1 X118.321 Y120.413 E5.92682
G1 X118.415 Y120.265 E5.94781
G1 X118.507 Y120.156 E5.96489
G1 X118.629 Y120.029 E5.98598
G0 F4800 X118.4 Y120.288
G1 F787.5 X118.4 Y132.13 E7.4039
G0 F4800 X120 Y132.812
G1 F787.5 X120 Y119.612 E8.98442
G0 F4800 X121.6 Y119.612
G1 F787.5 X121.6 Y132.812 E10.56494
G0 F4800 X123.2 Y132.812
G1 F787.5 X123.2 Y119.612 E12.14546
G0 F4800 X124.8 Y119.612
G1 F787.5 X124.8 Y132.812 E13.72598
G0 F4800 X126.4 Y132.812
G1 F787.5 X126.4 Y119.612 E15.30651
G0 F4800 X128 Y119.612
G1 F787.5 X128 Y132.812 E16.88703
G0 F4800 X129.6 Y132.811
G1 F787.5 X129.6 Y119.614 E18.46719
G0 F4800 X131.2 Y120.689
G1 F787.5 X131.2 Y131.724 E19.78848
G0 F600 X131.2 Y131.724 Z0.61
G0 F4800 X131.295 Y121.396
;TIME_ELAPSED:17.205514
;LAYER:-5
M140 S125
;TYPE:SUPPORT
G1 F787.5 X129.511 Y119.612 E19.99827
G1 X129.565 Y119.612 E20.00276
G1 X129.783 Y119.623 E20.02091
G1 X130.067 Y119.662 E20.04474
G1 X130.176 Y119.696 E20.05424
G1 X130.378 Y119.773 E20.07221
G1 X130.488 Y119.834 E20.08267
G1 X130.642 Y119.93 E20.09776
G1 X130.751 Y120.022 E20.10962
G1 X130.881 Y120.15 E20.12479
G1 X130.968 Y120.259 E20.13639
G1 X131.067 Y120.402 E20.15085
G1 X131.124 Y120.513 E20.16123
G1 X131.202 Y120.694 E20.17761
G1 X131.212 Y120.731 E20.1808
G1 X131.286 Y121.143 E20.21561
G1 X131.294 Y121.345 E20.23242
G0 F4800 X129.511 Y119.612
G1 F787.5 X128.097 Y119.612 E20.34999
G1 X131.295 Y122.81 E20.72605
G1 X131.295 Y124.224 E20.84363
G1 X126.683 Y119.612 E21.38596
G1 X125.268 Y119.612 E21.50362
G1 X131.295 Y125.638 E22.21229
G1 X131.295 Y127.052 E22.32986
G1 X123.854 Y119.612 E23.20481
G1 X122.44 Y119.612 E23.32238
G1 X131.295 Y128.467 E24.36366
G1 X131.295 Y129.881 E24.48124
G1 X121.026 Y119.612 E25.68879
G1 X119.829 Y119.612 E25.78833
G1 X119.626 Y119.621 E25.80522
G1 X119.622 Y119.622 E25.80556
G1 X131.282 Y131.282 E27.17669
G1 X131.275 Y131.4 E27.18652
G1 X131.245 Y131.583 E27.20194
G1 X131.212 Y131.689 E27.21117
G1 X131.135 Y131.893 E27.2293
G1 X131.075 Y132.001 E27.23957
G1 X130.976 Y132.157 E27.25494
G1 X130.886 Y132.265 E27.26663
G1 X130.869 Y132.284 E27.26875
G1 X118.621 Y120.035 E28.70908
G1 X118.506 Y120.155 E28.7229
G1 X118.414 Y120.264 E28.73476
G1 X118.32 Y120.412 E28.74934
G1 X118.257 Y120.528 E28.76031
G1 X118.18 Y120.729 E28.77821
G1 X118.153 Y120.82 E28.7861
G1 X118.128 Y120.956 E28.7976
G1 X129.941 Y132.769 E30.18672
G1 X129.763 Y132.802 E30.20177
G1 X129.563 Y132.811 E30.21842
G1 X128.568 Y132.811 E30.30115
G1 X118.095 Y122.337 E31.53276
G1 X118.095 Y123.752 E31.65041
G1 X127.154 Y132.811 E32.71568
G1 X125.74 Y132.811 E32.83326
G1 X118.095 Y125.166 E33.73225
G1 X118.095 Y126.58 E33.84983
G1 X124.326 Y132.811 E34.58254
G1 X122.912 Y132.811 E34.70012
G1 X118.095 Y127.994 E35.26656
G1 X118.095 Y129.409 E35.38422
G1 X121.497 Y132.811 E35.78427
G1 X120.083 Y132.811 E35.90184
G1 X118.095 Y130.823 E36.13562
G0 F4800 X118.096 Y131.07
G1 F787.5 X118.104 Y131.279 E36.15301
G1 X118.178 Y131.685 E36.18732
G1 X118.265 Y131.907 E36.20715
G1 X118.322 Y132.016 E36.21738
G1 X118.431 Y132.176 E36.23347
G1 X118.494 Y132.255 E36.24188
G1 X118.65 Y132.409 E36.2601
G1 X118.743 Y132.487 E36.2702
G1 X118.902 Y132.588 E36.28586
G1 X119.013 Y132.65 E36.29643
G1 X119.213 Y132.726 E36.31422
G1 X119.302 Y132.754 E36.32198
G1 X119.505 Y132.789 E36.33911
G1 X119.826 Y132.811 E36.36586
G1 X120.083 Y132.811 E36.38723
G0 F4800 X129.783 Y119.623
G0 F600 X129.783 Y119.623 Z0.81
G0 F4800 X129.555 Y119.411
;TIME_ELAPSED:32.780230
;LAYER:-4
;TYPE:SUPPORT-INTERFACE
G1 F1050 X119.82 Y119.411 E36.71102
G1 X119.181 Y119.497 E36.73246
G1 X118.917 Y119.6 E36.74189
G1 X130.456 Y119.6 E37.12568
G0 F4800 X130.249 Y119.509
G1 F1050 X129.555 Y119.411 E37.14899
G0 F4800 X118.917 Y119.6
G1 F1050 X118.904 Y119.605 E37.14945
G1 X118.606 Y119.791 E37.16114
G1 X118.384 Y120 E37.17128
G1 X131.002 Y120 E37.59095
G1 X131.117 Y120.122 E37.59653
G1 X131.29 Y120.4 E37.60742
G1 X118.11 Y120.4 E38.04579
G1 X117.95 Y120.799 E38.06009
G1 X117.95 Y120.8 E38.06012
G1 X131.425 Y120.8 E38.5083
G1 X131.479 Y121.2 E38.52172
G1 X117.91 Y121.2 E38.97303
G1 X117.895 Y121.346 E38.97791
G1 X117.895 Y121.6 E38.98636
G1 X131.496 Y121.6 E39.43873
G1 X131.496 Y122 E39.45204
G1 X117.895 Y122 E39.90441
G1 X117.895 Y122.4 E39.91771
G1 X131.496 Y122.4 E40.37008
G1 X131.496 Y122.8 E40.38339
G1 X117.895 Y122.8 E40.83576
G1 X117.895 Y123.2 E40.84906
G1 X131.496 Y123.2 E41.30143
G1 X131.496 Y123.6 E41.31474
G1 X117.895 Y123.6 E41.76711
G1 X117.895 Y124 E41.78041
G1 X131.496 Y124 E42.23278
G1 X131.496 Y124.4 E42.24609
G1 X117.895 Y124.4 E42.69846
G1 X117.895 Y124.8 E42.71176
G1 X131.496 Y124.8 E43.16413
G1 X131.496 Y125.2 E43.17744
G1 X117.895 Y125.2 E43.62981
G1 X117.895 Y125.6 E43.64311
G1 X131.496 Y125.6 E44.09548
G1 X131.496 Y126 E44.10879
G1 X117.895 Y126 E44.56116
G1 X117.895 Y126.4 E44.57446
G1 X131.496 Y126.4 E45.02683
G1 X131.496 Y126.8 E45.04014
G1 X117.895 Y126.8 E45.49251
G1 X117.895 Y127.2 E45.50581
G1 X131.496 Y127.2 E45.95818
G1 X131.496 Y127.6 E45.97149
G1 X117.895 Y127.6 E46.42386
G1 X117.895 Y128 E46.43716
G1 X131.496 Y128 E46.88953
G1 X131.496 Y128.4 E46.90284
G1 X117.895 Y128.4 E47.35521
G1 X117.895 Y128.8 E47.36851
G1 X131.496 Y128.8 E47.82088
G1 X131.496 Y129.2 E47.83419
G1 X117.895 Y129.2 E48.28656
G1 X117.895 Y129.6 E48.29986
G1 X131.496 Y129.6 E48.75224
G1 X131.496 Y130 E48.76554
G1 X117.895 Y130 E49.21791
G1 X117.895 Y130.4 E49.23121
G1 X131.496 Y130.4 E49.68359
G1 X131.496 Y130.8 E49.69689
G1 X117.895 Y130.8 E50.14926
G1 X117.895 Y131.088 E50.15884
G1 X117.91 Y131.2 E50.1626
G1 X131.483 Y131.2 E50.61404
G1 X131.444 Y131.6 E50.6274
G1 X117.963 Y131.6 E51.07578
G1 X117.981 Y131.729 E51.08012
G1 X118.087 Y132 E51.0898
G1 X131.288 Y132 E51.52886
G1 X131.243 Y132.113 E51.53291
G1 X131.041 Y132.392 E51.54436
G1 X131.032 Y132.4 E51.54476
G1 X118.367 Y132.4 E51.966
G1 X118.514 Y132.558 E51.97318
G1 X118.805 Y132.766 E51.98508
G1 X118.89 Y132.8 E51.98812
G1 X130.514 Y132.8 E52.37474
G1 X130.486 Y132.818 E52.37585
G1 X130.209 Y132.926 E52.38574
G1 X129.57 Y133.012 E52.40718
G1 X119.835 Y133.012 E52.73097
G1 X119.289 Y132.959 E52.74921
G0 F600 X119.289 Y132.959 Z1.01
G0 F4800 X117.999 Y120.675
;TIME_ELAPSED:61.304796
;LAYER:-3
;TYPE:SUPPORT-INTERFACE
G1 F1050 X117.999 Y131.774 E53.11837
G1 X117.981 Y131.729 E53.11998
G1 X117.895 Y131.088 E53.14149
G1 X117.895 Y121.345 E53.46554
G1 X117.95 Y120.798 E53.48383
G0 F4800 X117.999 Y131.774
G1 F1050 X118.088 Y132.001 E53.49194
G1 X118.265 Y132.289 E53.50318
G1 X118.399 Y132.433 E53.50972
G1 X118.399 Y119.984 E53.92378
G1 X118.606 Y119.79 E53.93322
G1 X118.799 Y119.67 E53.94077
G1 X118.799 Y132.761 E54.37618
G1 X118.805 Y132.766 E54.37644
G1 X119.199 Y132.922 E54.39054
G1 X119.199 Y119.494 E54.83715
G1 X119.599 Y119.44 E54.85058
G1 X119.599 Y132.988 E55.30119
G1 X119.835 Y133.011 E55.30907
G1 X119.999 Y133.011 E55.31453
G1 X119.999 Y119.411 E55.76687
G1 X120.399 Y119.411 E55.78017
G1 X120.399 Y133.011 E56.23251
G1 X120.799 Y133.011 E56.24581
G1 X120.799 Y119.411 E56.69815
G1 X121.199 Y119.411 E56.71145
G1 X121.199 Y133.011 E57.16379
G1 X121.599 Y133.011 E57.1771
G1 X121.599 Y119.411 E57.62943
G1 X121.999 Y119.411 E57.64274
G1 X121.999 Y133.011 E58.09508
G1 X122.399 Y133.011 E58.10838
G1 X122.399 Y119.411 E58.56072
G1 X122.799 Y119.411 E58.57402
G1 X122.799 Y133.011 E59.02636
G1 X123.199 Y133.011 E59.03966
G1 X123.199 Y119.411 E59.492
G1 X123.599 Y119.411 E59.5053
G1 X123.599 Y133.011 E59.95764
G1 X123.999 Y133.011 E59.97095
G1 X123.999 Y119.411 E60.42328
G1 X124.399 Y119.411 E60.43659
G1 X124.399 Y133.011 E60.88893
G1 X124.799 Y133.011 E60.90223
G1 X124.799 Y119.411 E61.35457
G1 X125.199 Y119.411 E61.36787
G1 X125.199 Y133.011 E61.82021
G1 X125.599 Y133.011 E61.83351
G1 X125.599 Y119.411 E62.28585
G1 X125.999 Y119.411 E62.29916
G1 X125.999 Y133.011 E62.75149
G1 X126.399 Y133.011 E62.7648
G1 X126.399 Y119.411 E63.21714
G1 X126.799 Y119.411 E63.23044
G1 X126.799 Y133.011 E63.68278
G1 X127.199 Y133.011 E63.69608
G1 X127.199 Y119.411 E64.14842
G1 X127.599 Y119.411 E64.16172
G1 X127.599 Y133.011 E64.61406
G1 X127.999 Y133.011 E64.62737
G1 X127.999 Y119.411 E65.0797
G1 X128.399 Y119.411 E65.09301
G1 X128.399 Y133.011 E65.54535
G1 X128.799 Y133.011 E65.55865
G1 X128.799 Y119.411 E66.01099
G1 X129.199 Y119.411 E66.02429
G1 X129.199 Y133.011 E66.47663
G1 X129.57 Y133.011 E66.48897
G1 X129.599 Y133.008 E66.48994
G1 X129.599 Y119.418 E66.94194
G1 X129.999 Y119.474 E66.95538
G1 X129.999 Y132.954 E67.40372
G1 X130.209 Y132.925 E67.41077
G1 X130.399 Y132.851 E67.41756
G1 X130.399 Y119.576 E67.85909
G1 X130.585 Y119.657 E67.86583
G1 X130.799 Y119.811 E67.8746
G1 X130.799 Y132.618 E68.30056
G1 X131.041 Y132.391 E68.3116
G1 X131.199 Y132.172 E68.32058
G1 X131.199 Y120.256 E68.71691
G1 X131.301 Y120.42 E68.72333
G1 X131.409 Y120.697 E68.73322
G1 X131.495 Y121.327 E68.75437
G1 X131.495 Y131.071 E69.07846
G1 X131.442 Y131.617 E69.0967
G1 X131.242 Y132.112 E69.11446
G0 F600 X131.242 Y132.112 Z1.61
G0 F4800 X121.096 Y129.812
;TIME_ELAPSED:89.864697
;LAYER:0
M106 S255
;TYPE:WALL-INNER
;MESH:Body3.stl
G1 F1050 X121.096 Y122.612 E69.47367
G1 X128.296 Y122.612 E69.83288
G1 X128.296 Y129.812 E70.19209
G1 X121.096 Y129.812 E70.5513
G0 F2400 X120.696 Y130.212
G1 F1050 X120.696 Y122.212 E70.95042
G1 X128.696 Y122.212 E71.34954
G1 X128.696 Y130.212 E71.74866
G1 X120.696 Y130.212 E72.14778
G0 F2400 X120.296 Y130.612
G1 F1050 X120.296 Y121.812 E72.58682
G1 X129.096 Y121.812 E73.02585
G1 X129.096 Y130.612 E73.46488
G1 X120.296 Y130.612 E73.90392
G0 F2400 X119.896 Y131.012
;TYPE:WALL-OUTER
G1 F1050 X119.896 Y121.412 E74.38286
G1 X129.496 Y121.412 E74.86181
G1 X129.496 Y131.012 E75.34076
G1 X119.896 Y131.012 E75.8197
G0 F2400 X119.896 Y130.812
G0 X120.366 Y130.542
G0 X121.486 Y129.422
;TYPE:SKIN
G1 F1050 X121.486 Y123.002 E76.14
G1 X127.906 Y123.002 E76.46029
G1 X127.906 Y129.422 E76.78059
G1 X121.486 Y129.422 E77.10088
G0 F2400 X121.886 Y129.24
G1 F1050 X121.665 Y129.019 E77.11648
G0 F2400 X121.665 Y128.453
G1 F1050 X122.452 Y129.24 E77.172
G0 F2400 X123.018 Y129.24
G1 F1050 X121.665 Y127.888 E77.26743
G0 F2400 X121.665 Y127.322
G1 F1050 X123.583 Y129.24 E77.40275
G0 F2400 X124.149 Y129.24
G1 F1050 X121.665 Y126.756 E77.57801
G0 F2400 X121.665 Y126.19
G1 F1050 X124.715 Y129.24 E77.79321
G0 F2400 X125.28 Y129.24
G1 F1050 X121.665 Y125.625 E78.04827
G0 F2400 X121.665 Y125.059
G1 F1050 X125.846 Y129.24 E78.34326
G0 F2400 X126.412 Y129.24
G1 F1050 X121.665 Y124.493 E78.67818
G0 F2400 X121.665 Y123.928
G1 F1050 X126.977 Y129.24 E79.05297
G0 F2400 X127.543 Y129.24
G1 F1050 X121.665 Y123.362 E79.4677
G0 F2400 X122.05 Y123.181
G1 F1050 X127.726 Y128.857 E79.86817
G0 F2400 X127.726 Y128.291
G1 F1050 X122.615 Y123.181 E80.22874
G0 F2400 X123.181 Y123.181
G1 F1050 X127.726 Y127.726 E80.54942
G0 F2400 X127.726 Y127.16
G1 F1050 X123.747 Y123.181 E80.83016
G0 F2400 X124.312 Y123.181
G1 F1050 X127.726 Y126.594 E81.071
G0 F2400 X127.726 Y126.029
G1 F1050 X124.878 Y123.181 E81.27194
G0 F2400 X125.444 Y123.181
G1 F1050 X127.726 Y125.463 E81.43295
G0 F2400 X127.726 Y124.897
G1 F1050 X126.009 Y123.181 E81.55406
G0 F2400 X126.575 Y123.181
G1 F1050 X127.726 Y124.331 E81.63523
G0 F2400 X127.726 Y123.766
G1 F1050 X127.141 Y123.181 E81.67651
G1 X127.071 Y123.111
;MESH:NONMESH
G0 F600 X127.071 Y123.111 Z1.66
G0 F2400 X121.234 Y129.75
;TIME_ELAPSED:105.054172
;LAYER:1
;TYPE:WALL-INNER
;MESH:Body3.stl
G1 F2025 X121.034 Y129.75 E81.68316
G1 X121.034 Y129.55 E81.68747
G1 X121.034 Y122.55 E81.92029
G1 X128.033 Y122.549 E82.15307
G1 X128.233 Y122.549 E82.15973
G1 X128.233 Y122.749 E82.16403
G1 X128.233 Y129.749 E82.39685
G1 X121.234 Y129.75 E82.62964
G0 F3600 X120.834 Y130.15
G1 F2025 X120.634 Y130.15 E82.63629
G1 X120.634 Y129.95 E82.6406
G1 X120.634 Y122.15 E82.90003
G1 X128.433 Y122.149 E83.15943
G1 X128.633 Y122.149 E83.16608
G1 X128.633 Y122.349 E83.17039
G1 X128.633 Y130.149 E83.42981
G1 X120.834 Y130.15 E83.68921
G0 F3600 X120.434 Y130.55
G1 F2025 X120.234 Y130.55 E83.69586
G1 X120.234 Y130.35 E83.70017
G1 X120.234 Y121.75 E83.98621
G1 X128.833 Y121.749 E84.27221
G1 X129.033 Y121.749 E84.27886
G1 X129.033 Y121.949 E84.28317
G1 X129.033 Y130.549 E84.56921
G1 X120.434 Y130.55 E84.85521
G0 F3600 X120.034 Y130.95
;TYPE:WALL-OUTER
G1 F1275 X119.834 Y130.95 E84.86186
G1 X119.834 Y130.75 E84.86617
G1 X119.834 Y121.35 E85.17882
G1 X129.233 Y121.349 E85.49143
G1 X129.433 Y121.349 E85.49808
G1 X129.433 Y121.549 E85.50239
G1 X129.433 Y130.949 E85.81503
G1 X120.034 Y130.95 E86.12764
G0 F3600 X119.834 Y130.95
G0 X120.304 Y130.48
G0 X121.424 Y129.36
;TYPE:SKIN
G1 F1425 X121.424 Y122.94 E86.34117
G1 X127.843 Y122.939 E86.55467
G1 X127.843 Y129.359 E86.7682
G1 X121.424 Y129.36 E86.9817
G0 F3600 X127.662 Y128.593
G1 F1425 X127.076 Y129.178 E87.00924
G0 F3600 X126.511 Y129.178
G1 F1425 X127.662 Y128.027 E87.06338
G0 F3600 X127.662 Y127.461
G1 F1425 X125.945 Y129.178 E87.14414
G0 F3600 X125.379 Y129.179
G1 F1425 X127.662 Y126.895 E87.25155
G0 F3600 X127.662 Y126.33
G1 F1425 X124.813 Y129.179 E87.38556
G0 F3600 X124.247 Y129.179
G1 F1425 X127.662 Y125.764 E87.54619
G0 F3600 X127.662 Y125.198
G1 F1425 X123.682 Y129.179 E87.73342
G0 F3600 X123.115 Y129.179
G1 F1425 X127.662 Y124.633 E87.94727
G0 F3600 X127.662 Y124.067
G1 F1425 X122.55 Y129.179 E88.18772
G0 F3600 X121.984 Y129.179
G1 F1425 X127.662 Y123.501 E88.4548
G0 F3600 X127.48 Y123.118
G1 F1425 X121.603 Y128.994 E88.73121
G0 F3600 X121.603 Y128.428
G1 F1425 X126.914 Y123.118 E88.981
G0 F3600 X126.348 Y123.118
G1 F1425 X121.603 Y127.863 E89.20419
G0 F3600 X121.603 Y127.297
G1 F1425 X125.782 Y123.118 E89.40076
G0 F3600 X125.217 Y123.118
G1 F1425 X121.603 Y126.731 E89.57073
G0 F3600 X121.603 Y126.166
G1 F1425 X124.651 Y123.118 E89.7141
G0 F3600 X124.085 Y123.118
G1 F1425 X121.603 Y125.6 E89.83084
G0 F3600 X121.603 Y125.034
G1 F1425 X123.52 Y123.118 E89.92099
G0 F3600 X122.954 Y123.118
