;FLAVOR:Marlin
;TIME:371
;Filament used: 0.342345m
;Layer height: 0.2
;MINX:118.199
;MINY:118.199
;MINZ:0.36
;MAXX:131.8
;MAXY:131.8
;MAXZ:11.06
;Generated with Cura_SteamEngine 4.2.1
M140 S125
M105
M190 S125
M104 S255
M105
M109 S255
M82 ;absolute extrusion mode
G28 ;Home
G1 Z15.0 F6000 ;Move the platform down 15mm
;Prime the extruder
G92 E0
M141 S28
G92 E0
G92 E0
G1 F1500 E-6.5
;LAYER_COUNT:49
;LAYER:-6
M107
G0 F4800 X118.933 Y118.817 Z0.36
;TYPE:SUPPORT-INTERFACE
G1 F1500 E0
G1 F787.5 X119.047 Y118.727 E0.01739
G1 X119.191 Y118.628 E0.03831
G1 X119.304 Y118.57 E0.05352
G1 X119.519 Y118.483 E0.08129
G1 X119.932 Y118.409 E0.13153
G1 X120.134 Y118.4 E0.15574
G1 X129.87 Y118.4 E1.3215
G1 X130.088 Y118.411 E1.34763
G1 X130.372 Y118.451 E1.38197
G1 X130.482 Y118.484 E1.39573
G1 X130.683 Y118.561 E1.4215
G1 X130.794 Y118.622 E1.43666
G1 X130.947 Y118.719 E1.45835
G1 X131.056 Y118.811 E1.47543
G1 X131.186 Y118.938 E1.49719
G1 X131.273 Y119.047 E1.51389
G1 X131.372 Y119.191 E1.53482
G1 X131.429 Y119.302 E1.54976
G1 X131.507 Y119.483 E1.57336
G1 X131.517 Y119.519 E1.57783
G1 X131.591 Y119.932 E1.62807
G1 X131.6 Y120.134 E1.65228
G1 X131.6 Y129.87 E2.81803
G1 X131.579 Y130.19 E2.85643
G1 X131.549 Y130.372 E2.87852
G1 X131.517 Y130.478 E2.89178
G1 X131.439 Y130.682 E2.91793
G1 X131.38 Y130.791 E2.93277
G1 X131.281 Y130.946 E2.95479
G1 X131.191 Y131.054 E2.97162
G1 X131.058 Y131.189 E2.99431
G1 X130.954 Y131.272 E3.01025
G1 X130.805 Y131.374 E3.03187
G1 X130.696 Y131.43 E3.04654
G1 X130.481 Y131.517 E3.07431
G1 X130.067 Y131.591 E3.12467
G1 X129.867 Y131.6 E3.14864
G1 X120.13 Y131.6 E4.31451
G1 X119.81 Y131.579 E4.35291
G1 X119.607 Y131.543 E4.3776
G1 X119.518 Y131.516 E4.38873
G1 X119.317 Y131.439 E4.41451
G1 X119.206 Y131.378 E4.42967
G1 X119.047 Y131.277 E4.45223
G1 X118.954 Y131.198 E4.46684
G1 X118.799 Y131.044 E4.493
G1 X118.736 Y130.965 E4.5051
G1 X118.626 Y130.805 E4.52835
G1 X118.57 Y130.696 E4.54302
G1 X118.482 Y130.474 E4.57161
G1 X118.409 Y130.068 E4.621
G1 X118.4 Y129.859 E4.64605
G1 X118.4 Y120.124 E5.81169
G1 X118.42 Y119.816 E5.84864
G1 X118.457 Y119.609 E5.87382
G1 X118.484 Y119.519 E5.88507
G1 X118.561 Y119.317 E5.91096
G1 X118.625 Y119.201 E5.92682
G1 X118.719 Y119.053 E5.94781
G1 X118.811 Y118.944 E5.96489
G1 X118.933 Y118.817 E5.98598
G0 F4800 X120 Y118.405
G1 F787.5 X120 Y131.591 E7.56482
G0 F4800 X121.6 Y131.6
G1 F787.5 X121.6 Y118.4 E9.14535
G0 F4800 X123.2 Y118.4
G1 F787.5 X123.2 Y131.6 E10.72587
G0 F4800 X124.8 Y131.6
G1 F787.5 X124.8 Y118.4 E12.30639
G0 F4800 X126.4 Y118.4
G1 F787.5 X126.4 Y131.6 E13.88691
G0 F4800 X128 Y131.6
G1 F787.5 X128 Y118.4 E15.46743
G0 F4800 X129.6 Y118.4
G1 F787.5 X129.6 Y131.6 E17.04795
G0 F4800 X131.2 Y131.044
G1 F787.5 X131.2 Y118.956 E18.49533
G0 F600 X131.2 Y118.956 Z0.61
G0 F4800 X130.087 Y118.411
;TIME_ELAPSED:16.234213
;LAYER:-5
M140 S125
;TYPE:SUPPORT
G1 F787.5 X129.869 Y118.4 E18.51348
G1 X129.713 Y118.4 E18.52645
G1 X131.599 Y120.285 E18.74817
G1 X131.599 Y121.7 E18.86583
G1 X128.299 Y118.4 E19.25388
G1 X126.885 Y118.4 E19.37146
G1 X131.599 Y123.114 E19.92579
G1 X131.599 Y124.528 E20.04336
G1 X125.471 Y118.4 E20.76397
G1 X124.056 Y118.4 E20.88163
G1 X131.599 Y125.942 E21.76857
G1 X131.599 Y127.357 E21.88622
G1 X122.642 Y118.4 E22.9395
G1 X121.228 Y118.4 E23.05707
G1 X131.599 Y128.771 E24.27662
G1 X131.599 Y129.87 E24.36801
G1 X131.58 Y130.166 E24.39267
G1 X119.839 Y118.425 E25.77332
G1 X119.518 Y118.482 E25.80043
G1 X119.303 Y118.569 E25.81971
G1 X119.19 Y118.627 E25.83028
G1 X119.046 Y118.726 E25.84481
G1 X118.932 Y118.816 E25.85688
G1 X118.875 Y118.875 E25.8637
G1 X131.123 Y131.123 E27.30398
G1 X131.057 Y131.188 E27.31168
G1 X130.954 Y131.27 E27.32262
G1 X130.804 Y131.373 E27.33775
G1 X130.695 Y131.429 E27.34794
G1 X130.481 Y131.516 E27.36715
G1 X130.159 Y131.573 E27.39434
G1 X118.418 Y119.832 E28.775
G1 X118.399 Y120.123 E28.79924
G1 X118.399 Y121.227 E28.89104
G1 X128.77 Y131.598 E30.11059
G1 X127.356 Y131.598 E30.22817
G1 X118.399 Y122.642 E31.28138
G1 X118.399 Y124.056 E31.39896
G1 X125.942 Y131.598 E32.2859
G1 X124.527 Y131.598 E32.40355
G1 X118.399 Y125.47 E33.12416
G1 X118.399 Y126.884 E33.24173
G1 X123.113 Y131.598 E33.79607
G1 X121.699 Y131.598 E33.91364
G1 X118.399 Y128.298 E34.30169
G1 X118.399 Y129.713 E34.41935
G1 X120.285 Y131.598 E34.64107
G1 X120.129 Y131.598 E34.65404
G1 X119.81 Y131.577 E34.68063
G1 X119.606 Y131.542 E34.69784
G1 X119.518 Y131.514 E34.70552
G1 X119.317 Y131.438 E34.72338
G1 X119.206 Y131.376 E34.73396
G1 X119.047 Y131.275 E34.74962
G1 X118.954 Y131.197 E34.75971
G1 X118.798 Y131.043 E34.77794
G1 X118.735 Y130.964 E34.78634
G1 X118.626 Y130.804 E34.80244
G1 X118.569 Y130.695 E34.81267
G1 X118.482 Y130.473 E34.83249
G1 X118.408 Y130.067 E34.86681
G1 X118.4 Y129.858 E34.8842
G0 F4800 X130.087 Y118.411
G1 F787.5 X130.371 Y118.45 E34.90803
G1 X130.481 Y118.484 E34.91761
G1 X130.682 Y118.561 E34.93551
G1 X130.792 Y118.622 E34.94596
G1 X130.946 Y118.718 E34.96105
G1 X131.055 Y118.81 E34.97291
G1 X131.185 Y118.938 E34.98808
G1 X131.272 Y119.046 E34.99962
G1 X131.371 Y119.19 E35.01415
G1 X131.428 Y119.301 E35.02452
G1 X131.506 Y119.482 E35.04091
G1 X131.516 Y119.519 E35.0441
G1 X131.59 Y119.931 E35.0789
G1 X131.598 Y120.133 E35.09571
G0 F4800 X130.087 Y118.411
G0 F600 X130.087 Y118.411 Z0.81
G0 F4800 X129.86 Y118.199
;TIME_ELAPSED:31.795019
;LAYER:-4
;TYPE:SUPPORT-INTERFACE
G1 F1050 X120.125 Y118.199 E35.4195
G1 X119.486 Y118.285 E35.44094
G1 X119.209 Y118.393 E35.45083
G1 X119.198 Y118.4 E35.45127
G1 X130.788 Y118.4 E35.83675
G1 X130.89 Y118.445 E35.84046
G1 X131.18 Y118.653 E35.85233
G1 X131.318 Y118.8 E35.85904
G1 X118.676 Y118.8 E36.27951
G1 X118.65 Y118.824 E36.28069
G1 X118.445 Y119.11 E36.29239
G1 X118.409 Y119.2 E36.29561
G1 X131.602 Y119.2 E36.73442
G1 X131.606 Y119.208 E36.73471
G1 X131.714 Y119.485 E36.7446
G1 X131.73 Y119.6 E36.74846
G1 X118.253 Y119.6 E37.19671
G1 X118.213 Y120 E37.21008
G1 X131.785 Y120 E37.66149
G1 X131.8 Y120.115 E37.66534
G1 X131.8 Y120.4 E37.67482
G1 X118.199 Y120.4 E38.1272
G1 X118.199 Y120.8 E38.1405
G1 X131.8 Y120.8 E38.59287
G1 X131.8 Y121.2 E38.60617
G1 X118.199 Y121.2 E39.05855
G1 X118.199 Y121.6 E39.07185
G1 X131.8 Y121.6 E39.52422
G1 X131.8 Y122 E39.53752
G1 X118.199 Y122 E39.9899
G1 X118.199 Y122.4 E40.0032
G1 X131.8 Y122.4 E40.45557
G1 X131.8 Y122.8 E40.46887
G1 X118.199 Y122.8 E40.92125
G1 X118.199 Y123.2 E40.93455
G1 X131.8 Y123.2 E41.38692
G1 X131.8 Y123.6 E41.40023
G1 X118.199 Y123.6 E41.8526
G1 X118.199 Y124 E41.8659
G1 X131.8 Y124 E42.31827
G1 X131.8 Y124.4 E42.33158
G1 X118.199 Y124.4 E42.78395
G1 X118.199 Y124.8 E42.79725
G1 X131.8 Y124.8 E43.24962
G1 X131.8 Y125.2 E43.26293
G1 X118.199 Y125.2 E43.7153
G1 X118.199 Y125.6 E43.7286
G1 X131.8 Y125.6 E44.18097
G1 X131.8 Y126 E44.19428
G1 X118.199 Y126 E44.64665
G1 X118.199 Y126.4 E44.65995
G1 X131.8 Y126.4 E45.11232
G1 X131.8 Y126.8 E45.12563
G1 X118.199 Y126.8 E45.578
G1 X118.199 Y127.2 E45.5913
G1 X131.8 Y127.2 E46.04367
G1 X131.8 Y127.6 E46.05698
G1 X118.199 Y127.6 E46.50935
G1 X118.199 Y128 E46.52265
G1 X131.8 Y128 E46.97502
G1 X131.8 Y128.4 E46.98833
G1 X118.199 Y128.4 E47.4407
G1 X118.199 Y128.8 E47.454
G1 X131.8 Y128.8 E47.90637
G1 X131.8 Y129.2 E47.91968
G1 X118.199 Y129.2 E48.37205
G1 X118.199 Y129.6 E48.38535
G1 X131.8 Y129.6 E48.83772
G1 X131.8 Y129.859 E48.84634
G1 X131.786 Y130 E48.85105
G1 X118.215 Y130 E49.30242
G1 X118.269 Y130.4 E49.31585
G1 X131.747 Y130.4 E49.76413
G1 X131.747 Y130.405 E49.7643
G1 X131.587 Y130.8 E49.77847
G1 X118.398 Y130.8 E50.21714
G1 X118.569 Y131.077 E50.22796
G1 X118.682 Y131.2 E50.23352
G1 X131.324 Y131.2 E50.65399
G1 X131.089 Y131.421 E50.66472
G1 X130.799 Y131.6 E50.67606
G1 X119.224 Y131.6 E51.06105
G0 F4800 X119.593 Y131.747
G1 F1050 X120.139 Y131.8 E51.07929
G1 X129.874 Y131.8 E51.40308
G1 X130.513 Y131.714 E51.42452
G1 X130.79 Y131.606 E51.43441
G1 X130.799 Y131.6 E51.43477
G0 F4800 X130.554 Y118.297
G1 F1050 X129.86 Y118.199 E51.45808
G0 F600 X129.86 Y118.199 Z1.01
G0 F4800 X129.859 Y118.199
;TIME_ELAPSED:60.186419
;LAYER:-3
;TYPE:SUPPORT-INTERFACE
G1 F1050 X129.599 Y118.199 E51.46673
G1 X129.599 Y131.799 E51.91907
G1 X129.199 Y131.799 E51.93237
G1 X129.199 Y118.199 E52.38471
G1 X128.799 Y118.199 E52.39801
G1 X128.799 Y131.799 E52.85035
G1 X128.399 Y131.799 E52.86366
G1 X128.399 Y118.199 E53.31599
G1 X127.999 Y118.199 E53.3293
G1 X127.999 Y131.799 E53.78164
G1 X127.599 Y131.799 E53.79494
G1 X127.599 Y118.199 E54.24728
G1 X127.199 Y118.199 E54.26058
G1 X127.199 Y131.799 E54.71292
G1 X126.799 Y131.799 E54.72622
G1 X126.799 Y118.199 E55.17856
G1 X126.399 Y118.199 E55.19187
G1 X126.399 Y131.799 E55.6442
G1 X125.999 Y131.799 E55.65751
G1 X125.999 Y118.199 E56.10985
G1 X125.599 Y118.199 E56.12315
G1 X125.599 Y131.799 E56.57549
G1 X125.199 Y131.799 E56.58879
G1 X125.199 Y118.199 E57.04113
G1 X124.799 Y118.199 E57.05443
G1 X124.799 Y131.799 E57.50677
G1 X124.399 Y131.799 E57.52007
G1 X124.399 Y118.199 E57.97241
G1 X123.999 Y118.199 E57.98572
G1 X123.999 Y131.799 E58.43805
G1 X123.599 Y131.799 E58.45136
G1 X123.599 Y118.199 E58.9037
G1 X123.199 Y118.199 E58.917
G1 X123.199 Y131.799 E59.36934
G1 X122.799 Y131.799 E59.38264
G1 X122.799 Y118.199 E59.83498
G1 X122.399 Y118.199 E59.84828
G1 X122.399 Y131.799 E60.30062
G1 X121.999 Y131.799 E60.31393
G1 X121.999 Y118.199 E60.76626
G1 X121.599 Y118.199 E60.77957
G1 X121.599 Y131.799 E61.23191
G1 X121.199 Y131.799 E61.24521
G1 X121.199 Y118.199 E61.69755
G1 X120.799 Y118.199 E61.71085
G1 X120.799 Y131.799 E62.16319
G1 X120.399 Y131.799 E62.17649
G1 X120.399 Y118.199 E62.62883
G1 X120.124 Y118.199 E62.63798
G1 X119.999 Y118.215 E62.64217
G1 X119.999 Y131.785 E63.09351
G1 X119.599 Y131.746 E63.10688
G1 X119.599 Y118.269 E63.55512
G1 X119.485 Y118.285 E63.55895
G1 X119.208 Y118.393 E63.56884
G1 X119.199 Y118.398 E63.56918
G1 X119.199 Y131.588 E64.00788
G1 X119.109 Y131.553 E64.0111
G1 X118.818 Y131.346 E64.02297
G1 X118.799 Y131.325 E64.02392
G1 X118.799 Y118.682 E64.44442
G1 X118.649 Y118.823 E64.45127
G1 X118.445 Y119.109 E64.46296
G1 X118.399 Y119.223 E64.46704
G1 X118.399 Y130.799 E64.85206
G1 X118.392 Y130.788 E64.8525
G1 X118.285 Y130.516 E64.86222
G1 X118.199 Y129.875 E64.88373
G1 X118.199 Y120.133 E65.20775
G1 X118.254 Y119.586 E65.22603
G0 F4800 X129.859 Y118.199
G1 F1050 X129.999 Y118.219 E65.23074
G1 X129.999 Y131.783 E65.68188
G1 X130.399 Y131.729 E65.6953
G1 X130.399 Y118.276 E66.14275
G1 X130.553 Y118.297 E66.14792
G1 X130.799 Y118.406 E66.15687
G1 X130.799 Y131.6 E66.5957
G1 X131.088 Y131.42 E66.60703
G1 X131.199 Y131.316 E66.61209
G1 X131.2 Y118.675 E67.03253
G1 X131.42 Y118.91 E67.04324
G1 X131.599 Y119.199 E67.05454
G1 X131.599 Y130.769 E67.43936
G0 F4800 X131.746 Y130.405
G1 F1050 X131.799 Y129.859 E67.45761
G1 X131.799 Y120.115 E67.78169
G1 X131.713 Y119.485 E67.80284
G1 X131.605 Y119.208 E67.81273
G1 X131.599 Y119.199 E67.81309
G0 F4800 X129.859 Y118.199
G0 F600 X129.859 Y118.199 Z1.61
G0 F4800 X121.4 Y128.6
;TIME_ELAPSED:88.829178
;LAYER:0
M106 S255
;TYPE:WALL-INNER
;MESH:C.stl
G1 F1050 X121.4 Y121.4 E68.1723
G1 X128.6 Y121.4 E68.53151
G1 X128.6 Y128.6 E68.89072
G1 X121.4 Y128.6 E69.24993
G0 F2400 X121 Y129
G1 F1050 X121 Y121 E69.64905
G1 X129 Y121 E70.04817
G1 X129 Y129 E70.44729
G1 X121 Y129 E70.84642
G0 F2400 X120.6 Y129.4
G1 F1050 X120.6 Y120.6 E71.28545
G1 X129.4 Y120.6 E71.72448
G1 X129.4 Y129.4 E72.16352
G1 X120.6 Y129.4 E72.60255
G0 F2400 X120.2 Y129.8
;TYPE:WALL-OUTER
G1 F1050 X120.2 Y120.2 E73.0815
G1 X129.8 Y120.2 E73.56044
G1 X129.8 Y129.8 E74.03939
G1 X120.2 Y129.8 E74.51833
G0 F2400 X120.2 Y129.6
G0 X120.67 Y129.33
G0 X121.79 Y128.21
;TYPE:SKIN
G1 F1050 X121.79 Y121.79 E74.83863
G1 X128.21 Y121.79 E75.15892
G1 X128.21 Y128.21 E75.47922
G1 X121.79 Y128.21 E75.79951
G0 F2400 X122.372 Y128.029
G1 F1050 X121.969 Y127.626 E75.82795
G0 F2400 X121.969 Y127.06
G1 F1050 X122.938 Y128.029 E75.89632
G0 F2400 X123.503 Y128.029
G1 F1050 X121.969 Y126.495 E76.00455
G0 F2400 X121.969 Y125.929
G1 F1050 X124.069 Y128.029 E76.15272
G0 F2400 X124.635 Y128.029
G1 F1050 X121.969 Y125.363 E76.34082
G0 F2400 X121.969 Y124.797
G1 F1050 X125.201 Y128.029 E76.56885
G0 F2400 X125.766 Y128.029
G1 F1050 X121.969 Y124.232 E76.83675
G0 F2400 X121.969 Y123.666
G1 F1050 X126.332 Y128.029 E77.14458
G0 F2400 X126.898 Y128.029
G1 F1050 X121.969 Y123.1 E77.49235
G0 F2400 X121.969 Y122.535
G1 F1050 X127.463 Y128.029 E77.87998
G0 F2400 X128.029 Y128.029
G1 F1050 X121.969 Y121.969 E78.30755
G0 F2400 X122.535 Y121.969
G1 F1050 X128.029 Y127.463 E78.69518
G0 F2400 X128.029 Y126.898
G1 F1050 X123.1 Y121.969 E79.04295
G0 F2400 X123.666 Y121.969
G1 F1050 X128.029 Y126.332 E79.35078
G0 F2400 X128.029 Y125.766
G1 F1050 X124.232 Y121.969 E79.61868
G0 F2400 X124.797 Y121.969
G1 F1050 X128.029 Y125.201 E79.84671
G0 F2400 X128.029 Y124.635
G1 F1050 X125.363 Y121.969 E80.03481
G0 F2400 X125.929 Y121.969
G1 F1050 X128.029 Y124.069 E80.18298
G0 F2400 X128.029 Y123.503
G1 F1050 X126.495 Y121.969 E80.29121
G0 F2400 X127.06 Y121.969
G1 F1050 X128.029 Y122.938 E80.35958
G0 F2400 X128.029 Y122.372
G1 F1050 X127.626 Y121.969 E80.38801
;MESH:NONMESH
G0 F600 X127.626 Y121.969 Z1.66
G0 F2400 X121.4 Y128.6
;TIME_ELAPSED:104.041599
;LAYER:1
;TYPE:WALL-INNER
;MESH:C.stl
G1 F2025 X121.4 Y121.4 E80.62749
G1 X128.6 Y121.4 E80.86696
G1 X128.6 Y128.6 E81.10643
G1 X121.4 Y128.6 E81.34591
G0 F3600 X121 Y129
G1 F2025 X121 Y121 E81.61199
G1 X129 Y121 E81.87807
G1 X129 Y129 E82.14415
G1 X121 Y129 E82.41023
G0 F3600 X120.6 Y129.4
G1 F2025 X120.6 Y120.6 E82.70292
G1 X129.4 Y120.6 E82.99561
G1 X129.4 Y129.4 E83.2883
G1 X120.6 Y129.4 E83.58099
G0 F3600 X120.2 Y129.8
;TYPE:WALL-OUTER
G1 F1275 X120.2 Y120.2 E83.90029
G1 X129.8 Y120.2 E84.21958
G1 X129.8 Y129.8 E84.53888
G1 X120.2 Y129.8 E84.85818
G0 F3600 X120.2 Y129.6
G0 X120.67 Y129.33
G0 X121.79 Y128.21
;TYPE:SKIN
G1 F1425 X121.79 Y121.79 E85.07171
G1 X128.21 Y121.79 E85.28524
G1 X128.21 Y128.21 E85.49877
G1 X121.79 Y128.21 E85.7123
G0 F3600 X121.969 Y122.406
G1 F1425 X122.406 Y121.969 E85.73285
G0 F3600 X122.972 Y121.969
G1 F1425 X121.969 Y122.972 E85.78003
G0 F3600 X121.969 Y123.537
G1 F1425 X123.537 Y121.969 E85.85378
G0 F3600 X124.103 Y121.969
G1 F1425 X121.969 Y124.103 E85.95416
G0 F3600 X121.969 Y124.669
G1 F1425 X124.669 Y121.969 E86.08116
G0 F3600 X125.234 Y121.969
G1 F1425 X121.969 Y125.234 E86.23474
G0 F3600 X121.969 Y125.8
G1 F1425 X125.8 Y121.969 E86.41494
G0 F3600 X126.366 Y121.969
G1 F1425 X121.969 Y126.366 E86.62176
G0 F3600 X121.969 Y126.932
G1 F1425 X126.932 Y121.969 E86.8552
G0 F3600 X127.497 Y121.969
G1 F1425 X121.969 Y127.497 E87.11522
G0 F3600 X122.003 Y128.029
G1 F1425 X128.029 Y122.003 E87.39867
G0 F3600 X128.029 Y122.569
G1 F1425 X122.569 Y128.029 E87.65549
G0 F3600 X123.134 Y128.029
G1 F1425 X128.029 Y123.134 E87.88573
G0 F3600 X128.029 Y123.7
G1 F1425 X123.7 Y128.029 E88.08936
G0 F3600 X124.266 Y128.029
G1 F1425 X128.029 Y124.266 E88.26636
G0 F3600 X128.029 Y124.831
G1 F1425 X124.831 Y128.029 E88.41678
G0 F3600 X125.397 Y128.029
G1 F1425 X128.029 Y125.397 E88.54058
G0 F3600 X128.029 Y125.963
G1 F1425 X125.963 Y128.029 E88.63776
G0 F3600 X126.528 Y128.029
G1 F1425 X128.029 Y126.528 E88.70836
G0 F3600 X128.029 Y127.094
G1 F1425 X127.094 Y128.029 E88.75234
G0 F3600 X127.66 Y128.029
G1 F1425 X128.029 Y127.66 E88.7697
;MESH:NONMESH
G0 F600 X128.029 Y127.66 Z1.86
G0 F3600 X121.4 Y128.6
;TIME_ELAPSED:114.481925
;LAYER:2
;TYPE:WALL-INNER
;MESH:C.stl
G1 F3000 X121.4 Y121.4 E89.00917
G1 X128.6 Y121.4 E89.24864
G1 X128.6 Y128.6 E89.48812
G1 X121.4 Y128.6 E89.72759
G0 F4800 X121 Y129
G1 F3000 X121 Y121 E89.99367
G1 X129 Y121 E90.25975
G1 X129 Y129 E90.52583
G1 X121 Y129 E90.79191
G0 F4800 X120.6 Y129.4
G1 F3000 X120.6 Y120.6 E91.0846
G1 X129.4 Y120.6 E91.37729
G1 X129.4 Y129.4 E91.66998
G1 X120.6 Y129.4 E91.96267
G0 F4800 X120.2 Y129.8
;TYPE:WALL-OUTER
G1 F1500 X120.2 Y120.2 E92.28197
G1 X129.8 Y120.2 E92.60127
G1 X129.8 Y129.8 E92.92056
G1 X120.2 Y129.8 E93.23986
G0 F4800 X120.2 Y129.6
G0 X120.67 Y129.33
G0 X121.79 Y128.21
;TYPE:SKIN
G1 F1800 X121.79 Y121.79 E93.45339
G1 X128.21 Y121.79 E93.66692
