;Generated with Cura_SteamEngine 15.01
; Default start code
G28 ; Home extruder
G1 Z15 F100
M107 ; Turn off fan
G90 ; Absolute positioning
M82 ; Extruder in absolute mode
M190 S115
; Activate all used extruder
M104 T0 S245
G92 E0 ; Reset extruder position
; Wait for all used extruders to reach temperature
M109 T0 S215
;Layer count: 100
;LAYER:0
M107
G0 F9000 X97.400 Y97.400 Z0.300
;TYPE:SKIRT
G1 F1800 X122.600 Y97.400 E1.25723
G1 X122.600 Y122.600 E2.51447
G1 X97.400 Y122.600 E3.77170
G1 X97.400 Y97.400 E5.02893
G0 F9000 X97.800 Y97.800
G1 F1800 X122.200 Y97.800 E6.24625
G1 X122.200 Y122.200 E7.46357
G1 X97.800 Y122.200 E8.68090
G1 X97.800 Y97.800 E9.89822
G1 F2400 E5.89822
G0 F9000 X100.600 Y100.600
;TYPE:WALL-INNER
G1 F2400 E9.89822
G1 F1800 X119.400 Y100.600 E10.83615
G1 X119.400 Y119.400 E11.77409
G1 X100.600 Y119.400 E12.71202
G1 X100.600 Y100.600 E13.64996
G0 F9000 X100.200 Y100.200
;TYPE:WALL-OUTER
G1 F1800 X119.800 Y100.200 E14.62781
G1 X119.800 Y119.800 E15.60566
G1 X100.200 Y119.800 E16.58350
G1 X100.200 Y100.200 E17.56135
G0 F9000 X100.739 Y101.022
;TYPE:SKIN
G1 F1800 X118.976 Y119.259 E18.84807
G0 F9000 X119.259 Y118.977
G1 F1800 X101.022 Y100.740 E20.13479
G0 F9000 X101.588 Y100.740
G1 F1800 X119.259 Y118.411 E21.38157
G0 F9000 X119.259 Y117.845
G1 F1800 X102.154 Y100.740 E22.58842
G0 F9000 X102.719 Y100.740
G1 F1800 X119.259 Y117.280 E23.75541
G0 F9000 X119.259 Y116.714
G1 F1800 X103.285 Y100.740 E24.88246
G0 F9000 X103.851 Y100.740
G1 F1800 X119.259 Y116.148 E25.96958
G0 F9000 X119.259 Y115.582
G1 F1800 X104.417 Y100.740 E27.01676
G0 F9000 X104.982 Y100.740
G1 F1800 X119.259 Y115.017 E28.02408
G0 F9000 X119.259 Y114.451
G1 F1800 X105.548 Y100.740 E28.99147
G0 F9000 X106.114 Y100.740
G1 F1800 X119.259 Y113.885 E29.91892
G0 F9000 X119.259 Y113.320
G1 F1800 X106.679 Y100.740 E30.80651
G0 F9000 X107.245 Y100.740
G1 F1800 X119.259 Y112.754 E31.65416
G0 F9000 X119.259 Y112.188
G1 F1800 X107.811 Y100.740 E32.46188
G0 F9000 X108.376 Y100.740
G1 F1800 X119.259 Y111.623 E33.22973
G0 F9000 X119.259 Y111.057
G1 F1800 X108.942 Y100.740 E33.95765
G0 F9000 X109.508 Y100.740
G1 F1800 X119.259 Y110.491 E34.64564
G0 F9000 X119.259 Y109.926
G1 F1800 X110.073 Y100.740 E35.29376
G0 F9000 X110.639 Y100.740
G1 F1800 X119.259 Y109.360 E35.90195
G0 F9000 X119.259 Y108.794
G1 F1800 X111.205 Y100.740 E36.47020
G0 F9000 X111.770 Y100.740
G1 F1800 X119.259 Y108.229 E36.99859
G0 F9000 X119.259 Y107.663
G1 F1800 X112.336 Y100.740 E37.48704
G0 F9000 X112.902 Y100.740
G1 F1800 X119.259 Y107.097 E37.93556
G0 F9000 X119.259 Y106.532
G1 F1800 X113.468 Y100.740 E38.34419
G0 F9000 X114.033 Y100.740
G1 F1800 X119.259 Y105.966 E38.71291
G0 F9000 X119.259 Y105.400
G1 F1800 X114.599 Y100.740 E39.04170
G0 F9000 X115.165 Y100.740
G1 F1800 X119.259 Y104.834 E39.33055
G0 F9000 X119.259 Y104.269
G1 F1800 X115.730 Y100.740 E39.57954
G0 F9000 X116.296 Y100.740
G1 F1800 X119.259 Y103.703 E39.78860
G0 F9000 X119.259 Y103.137
G1 F1800 X116.862 Y100.740 E39.95772
G0 F9000 X117.427 Y100.740
G1 F1800 X119.259 Y102.572 E40.08697
G0 F9000 X119.259 Y102.006
G1 F1800 X117.993 Y100.740 E40.17630
G0 F9000 X118.559 Y100.740
G1 F1800 X119.259 Y101.440 E40.22569
G0 F9000 X119.259 Y100.875
G1 F1800 X119.124 Y100.740 E40.23521
G0 F9000 X100.739 Y101.587
G1 F1800 X118.410 Y119.259 E41.48203
G0 F9000 X117.845 Y119.259
G1 F1800 X100.739 Y102.153 E42.68895
G0 F9000 X100.739 Y102.719
G1 F1800 X117.279 Y119.259 E43.85594
G0 F9000 X116.713 Y119.259
G1 F1800 X100.739 Y103.284 E44.98303
G0 F9000 X100.739 Y103.850
G1 F1800 X116.147 Y119.259 E46.07018
G0 F9000 X115.582 Y119.259
G1 F1800 X100.739 Y104.416 E47.11743
G0 F9000 X100.739 Y104.982
G1 F1800 X115.016 Y119.259 E48.12475
G0 F9000 X114.450 Y119.259
G1 F1800 X100.739 Y105.547 E49.09217
G0 F9000 X100.739 Y106.113
G1 F1800 X113.885 Y119.259 E50.01969
G0 F9000 X113.319 Y119.259
G1 F1800 X100.739 Y106.679 E50.90728
G0 F9000 X100.739 Y107.244
G1 F1800 X112.753 Y119.259 E51.75497
G0 F9000 X112.188 Y119.259
G1 F1800 X100.739 Y107.810 E52.56276
G0 F9000 X100.739 Y108.376
G1 F1800 X111.622 Y119.259 E53.33061
G0 F9000 X111.056 Y119.259
G1 F1800 X100.739 Y108.941 E54.05857
G0 F9000 X100.739 Y109.507
G1 F1800 X110.491 Y119.259 E54.74662
G0 F9000 X109.925 Y119.259
G1 F1800 X100.739 Y110.073 E55.39474
G0 F9000 X100.739 Y110.638
G1 F1800 X109.359 Y119.259 E56.00297
G0 F9000 X108.794 Y119.259
G1 F1800 X100.739 Y111.204 E56.57129
G0 F9000 X100.739 Y111.770
G1 F1800 X108.228 Y119.259 E57.09968
G0 F9000 X107.662 Y119.259
G1 F1800 X100.739 Y112.335 E57.58817
G0 F9000 X100.739 Y112.901
G1 F1800 X107.096 Y119.259 E58.03673
G0 F9000 X106.531 Y119.259
G1 F1800 X100.739 Y113.467 E58.44538
G0 F9000 X100.739 Y114.032
G1 F1800 X105.965 Y119.259 E58.81414
G0 F9000 X105.399 Y119.259
G1 F1800 X100.739 Y114.598 E59.14297
G0 F9000 X100.739 Y115.164
G1 F1800 X104.834 Y119.259 E59.43189
G0 F9000 X104.268 Y119.259
G1 F1800 X100.739 Y115.730 E59.68088
G0 F9000 X100.739 Y116.295
G1 F1800 X103.702 Y119.259 E59.88997
G0 F9000 X103.137 Y119.259
G1 F1800 X100.739 Y116.861 E60.05916
G0 F9000 X100.739 Y117.427
G1 F1800 X102.571 Y119.259 E60.18842
G0 F9000 X102.005 Y119.259
G1 F1800 X100.739 Y117.992 E60.27778
G0 F9000 X100.739 Y118.558
G1 F1800 X101.440 Y119.259 E60.32724
G0 F9000 X100.874 Y119.259
G1 F1800 X100.739 Y119.124 E60.33676
;LAYER:1
G0 F9000 X100.600 Y119.400 Z0.500
;TYPE:WALL-INNER
G1 F2220 X100.600 Y100.600 E60.96205
G1 X119.400 Y100.600 E61.58734
G1 X119.400 Y119.400 E62.21263
G1 X100.600 Y119.400 E62.83792
G0 F9000 X100.200 Y119.800
;TYPE:WALL-OUTER
G1 F1980 X100.200 Y100.200 E63.48982
G1 X119.800 Y100.200 E64.14172
G1 X119.800 Y119.800 E64.79362
G1 X100.200 Y119.800 E65.44552
G0 F9000 X100.740 Y119.028
;TYPE:SKIN
G1 F1980 X119.029 Y100.739 E66.30578
G0 F9000 X119.259 Y101.075
G1 F1980 X101.074 Y119.259 E67.16112
G0 F9000 X101.640 Y119.259
G1 F1980 X119.259 Y101.640 E67.98986
G0 F9000 X119.259 Y102.206
G1 F1980 X102.205 Y119.259 E68.79201
G0 F9000 X102.771 Y119.259
G1 F1980 X119.259 Y102.772 E69.56753
G0 F9000 X119.259 Y103.337
G1 F1980 X103.337 Y119.259 E70.31645
G0 F9000 X103.902 Y119.259
G1 F1980 X119.259 Y103.903 E71.03878
G0 F9000 X119.259 Y104.469
G1 F1980 X104.468 Y119.259 E71.73448
G0 F9000 X105.034 Y119.259
G1 F1980 X119.259 Y105.035 E72.40355
G0 F9000 X119.259 Y105.600
G1 F1980 X105.600 Y119.259 E73.04603
G0 F9000 X106.165 Y119.259
G1 F1980 X119.259 Y106.166 E73.66191
G0 F9000 X119.259 Y106.732
G1 F1980 X106.731 Y119.259 E74.25116
G0 F9000 X107.297 Y119.259
G1 F1980 X119.259 Y107.297 E74.81382
G0 F9000 X119.259 Y107.863
G1 F1980 X107.862 Y119.259 E75.34987
G0 F9000 X108.428 Y119.259
G1 F1980 X119.259 Y108.429 E75.85931
G0 F9000 X119.259 Y108.994
G1 F1980 X108.994 Y119.259 E76.34214
G0 F9000 X109.559 Y119.259
G1 F1980 X119.259 Y109.560 E76.79838
G0 F9000 X119.259 Y110.126
G1 F1980 X110.125 Y119.259 E77.22799
G0 F9000 X110.691 Y119.259
G1 F1980 X119.259 Y110.691 E77.63100
G0 F9000 X119.259 Y111.257
G1 F1980 X111.256 Y119.259 E78.00741
G0 F9000 X111.822 Y119.259
G1 F1980 X119.259 Y111.823 E78.35720
G0 F9000 X119.259 Y112.388
G1 F1980 X112.388 Y119.259 E78.68040
G0 F9000 X112.953 Y119.259
G1 F1980 X119.259 Y112.954 E78.97699
G0 F9000 X119.259 Y113.520
G1 F1980 X113.519 Y119.259 E79.24696
G0 F9000 X114.085 Y119.259
G1 F1980 X119.259 Y114.086 E79.49030
G0 F9000 X119.259 Y114.651
G1 F1980 X114.651 Y119.259 E79.70705
G0 F9000 X115.216 Y119.259
G1 F1980 X119.259 Y115.217 E79.89719
G0 F9000 X119.259 Y115.783
G1 F1980 X115.782 Y119.259 E80.06072
G0 F9000 X116.348 Y119.259
G1 F1980 X119.259 Y116.348 E80.19764
G0 F9000 X119.259 Y116.914
G1 F1980 X116.913 Y119.259 E80.30797
G0 F9000 X117.479 Y119.259
G1 F1980 X119.259 Y117.480 E80.39167
G0 F9000 X119.259 Y118.045
G1 F1980 X118.045 Y119.259 E80.44877
G0 F9000 X118.610 Y119.259
G1 F1980 X119.259 Y118.611 E80.47928
G0 F9000 X119.259 Y119.177
G1 F1980 X119.176 Y119.259 E80.48316
G0 F9000 X100.740 Y118.463
G1 F1980 X118.463 Y100.739 E81.31682
G0 F9000 X117.898 Y100.739
G1 F1980 X100.740 Y117.897 E82.12388
G0 F9000 X100.740 Y117.331
G1 F1980 X117.332 Y100.739 E82.90431
G0 F9000 X116.766 Y100.739
G1 F1980 X100.740 Y116.765 E83.65813
G0 F9000 X100.740 Y116.200
G1 F1980 X116.200 Y100.739 E84.38534
G0 F9000 X115.635 Y100.739
G1 F1980 X100.740 Y115.634 E85.08596
G0 F9000 X100.740 Y115.068
G1 F1980 X115.069 Y100.739 E85.75995
G0 F9000 X114.503 Y100.739
G1 F1980 X100.740 Y114.503 E86.40734
G0 F9000 X100.740 Y113.937
G1 F1980 X113.938 Y100.739 E87.02813
G0 F9000 X113.372 Y100.739
G1 F1980 X100.740 Y113.371 E87.62231
G0 F9000 X100.740 Y112.806
G1 F1980 X112.806 Y100.739 E88.18988
G0 F9000 X112.241 Y100.739
G1 F1980 X100.740 Y112.240 E88.73085
G0 F9000 X100.740 Y111.674
G1 F1980 X111.675 Y100.739 E89.24520
G0 F9000 X111.109 Y100.739
G1 F1980 X100.740 Y111.109 E89.73295
G0 F9000 X100.740 Y110.543
G1 F1980 X110.544 Y100.739 E90.19410
G0 F9000 X109.978 Y100.739
G1 F1980 X100.740 Y109.977 E90.62862
G0 F9000 X100.740 Y109.412
G1 F1980 X109.412 Y100.739 E91.03655
G0 F9000 X108.847 Y100.739
G1 F1980 X100.740 Y108.846 E91.41788
G0 F9000 X100.740 Y108.280
G1 F1980 X108.281 Y100.739 E91.77259
G0 F9000 X107.715 Y100.739
G1 F1980 X100.740 Y107.714 E92.10067
G0 F9000 X100.740 Y107.149
G1 F1980 X107.150 Y100.739 E92.40217
G0 F9000 X106.584 Y100.739
G1 F1980 X100.740 Y106.583 E92.67706
G0 F9000 X100.740 Y106.017
G1 F1980 X106.018 Y100.739 E92.92532
G0 F9000 X105.452 Y100.739
G1 F1980 X100.740 Y105.452 E93.14698
G0 F9000 X100.740 Y104.886
G1 F1980 X104.887 Y100.739 E93.34204
G0 F9000 X104.321 Y100.739
G1 F1980 X100.740 Y104.320 E93.51048
G0 F9000 X100.740 Y103.755
G1 F1980 X103.755 Y100.739 E93.65232
G0 F9000 X103.190 Y100.739
G1 F1980 X100.740 Y103.189 E93.76756
G0 F9000 X100.740 Y102.623
G1 F1980 X102.624 Y100.739 E93.85618
G0 F9000 X102.058 Y100.739
G1 F1980 X100.740 Y102.058 E93.91820
G0 F9000 X100.740 Y101.492
G1 F1980 X101.493 Y100.739 E93.95362
G0 F9000 X100.927 Y100.739
G1 F1980 X100.740 Y100.926 E93.96241
;LAYER:2
G0 F9000 X100.600 Y100.600 Z0.700
;TYPE:WALL-INNER
G1 F2700 X119.400 Y100.600 E94.58770
G1 X119.400 Y119.400 E95.21299
G1 X100.600 Y119.400 E95.83829
G1 X100.600 Y100.600 E96.46358
G0 F9000 X100.200 Y100.200
;TYPE:WALL-OUTER
G1 F2220 X119.800 Y100.200 E97.11547
G1 X119.800 Y119.800 E97.76737
G1 X100.200 Y119.800 E98.41927
G1 X100.200 Y100.200 E99.07117
G0 F9000 X100.739 Y101.022
;TYPE:SKIN
G1 F2220 X118.976 Y119.259 E99.92898
G0 F9000 X119.259 Y118.977
G1 F2220 X101.022 Y100.740 E100.78680
G0 F9000 X101.588 Y100.740
G1 F2220 X119.259 Y118.411 E101.61798
G0 F9000 X119.259 Y117.845
G1 F2220 X102.154 Y100.740 E102.42255
G0 F9000 X102.719 Y100.740
G1 F2220 X119.259 Y117.280 E103.20054
G0 F9000 X119.259 Y116.714
G1 F2220 X103.285 Y100.740 E103.95191
G0 F9000 X103.851 Y100.740
G1 F2220 X119.259 Y116.148 E104.67666
G0 F9000 X119.259 Y115.582
G1 F2220 X104.417 Y100.740 E105.37478
G0 F9000 X104.982 Y100.740
G1 F2220 X119.259 Y115.017 E106.04632
G0 F9000 X119.259 Y114.451
G1 F2220 X105.548 Y100.740 E106.69125
G0 F9000 X106.114 Y100.740
G1 F2220 X119.259 Y113.885 E107.30955
G0 F9000 X119.259 Y113.320
G1 F2220 X106.679 Y100.740 E107.90127
G0 F9000 X107.245 Y100.740
G1 F2220 X119.259 Y112.754 E108.46637
G0 F9000 X119.259 Y112.188
G1 F2220 X107.811 Y100.740 E109.00485
G0 F9000 X108.376 Y100.740
G1 F2220 X119.259 Y111.623 E109.51676
G0 F9000 X119.259 Y111.057
G1 F2220 X108.942 Y100.740 E110.00204
G0 F9000 X109.508 Y100.740
G1 F2220 X119.259 Y110.491 E110.46069
G0 F9000 X119.259 Y109.926
G1 F2220 X110.073 Y100.740 E110.89277
G0 F9000 X110.639 Y100.740
G1 F2220 X119.259 Y109.360 E111.29823
G0 F9000 X119.259 Y108.794
G1 F2220 X111.205 Y100.740 E111.67707
G0 F9000 X111.770 Y100.740
G1 F2220 X119.259 Y108.229 E112.02933
G0 F9000 X119.259 Y107.663
G1 F2220 X112.336 Y100.740 E112.35496
G0 F9000 X112.902 Y100.740
G1 F2220 X119.259 Y107.097 E112.65398
G0 F9000 X119.259 Y106.532
G1 F2220 X113.468 Y100.740 E112.92639
G0 F9000 X114.033 Y100.740
G1 F2220 X119.259 Y105.966 E113.17221
G0 F9000 X119.259 Y105.400
G1 F2220 X114.599 Y100.740 E113.39140
G0 F9000 X115.165 Y100.740
G1 F2220 X119.259 Y104.834 E113.58397
G0 F9000 X119.259 Y104.269
G1 F2220 X115.730 Y100.740 E113.74996
G0 F9000 X116.296 Y100.740
G1 F2220 X119.259 Y103.703 E113.88933
G0 F9000 X119.259 Y103.137
G1 F2220 X116.862 Y100.740 E114.00208
G0 F9000 X117.427 Y100.740
G1 F2220 X119.259 Y102.572 E114.08825
G0 F9000 X119.259 Y102.006
G1 F2220 X117.993 Y100.740 E114.14780
G0 F9000 X118.559 Y100.740
G1 F2220 X119.259 Y101.440 E114.18073
G0 F9000 X119.259 Y100.875
G1 F2220 X119.124 Y100.740 E114.18708
G0 F9000 X100.739 Y101.587
G1 F2220 X118.410 Y119.259 E115.01829
G0 F9000 X117.845 Y119.259
G1 F2220 X100.739 Y102.153 E115.82290
G0 F9000 X100.739 Y102.719
G1 F2220 X117.279 Y119.259 E116.60089
G0 F9000 X116.713 Y119.259
G1 F2220 X100.739 Y103.284 E117.35229
G0 F9000 X100.739 Y103.850
G1 F2220 X116.147 Y119.259 E118.07705
G0 F9000 X115.582 Y119.259
G1 F2220 X100.739 Y104.416 E118.77522
G0 F9000 X100.739 Y104.982
G1 F2220 X115.016 Y119.259 E119.44677
G0 F9000 X114.450 Y119.259
G1 F2220 X100.739 Y105.547 E120.09172
G0 F9000 X100.739 Y106.113
G1 F2220 X113.885 Y119.259 E120.71006
G0 F9000 X113.319 Y119.259
G1 F2220 X100.739 Y106.679 E121.30179
G0 F9000 X100.739 Y107.244
G1 F2220 X112.753 Y119.259 E121.86691
G0 F9000 X112.188 Y119.259
G1 F2220 X100.739 Y107.810 E122.40544
G0 F9000 X100.739 Y108.376
G1 F2220 X111.622 Y119.259 E122.91734
G0 F9000 X111.056 Y119.259
G1 F2220 X100.739 Y108.941 E123.40265
G0 F9000 X100.739 Y109.507
G1 F2220 X110.491 Y119.259 E123.86135
G0 F9000 X109.925 Y119.259
G1 F2220 X100.739 Y110.073 E124.29343
G0 F9000 X100.739 Y110.638
G1 F2220 X109.359 Y119.259 E124.69891
G0 F9000 X108.794 Y119.259
G1 F2220 X100.739 Y111.204 E125.07780
G0 F9000 X100.739 Y111.770
G1 F2220 X108.228 Y119.259 E125.43006
G0 F9000 X107.662 Y119.259
G1 F2220 X100.739 Y112.335 E125.75572
G0 F9000 X100.739 Y112.901
G1 F2220 X107.096 Y119.259 E126.05475
G0 F9000 X106.531 Y119.259
G1 F2220 X100.739 Y113.467 E126.32719
G0 F9000 X100.739 Y114.032
G1 F2220 X105.965 Y119.259 E126.57303
G0 F9000 X105.399 Y119.259
G1 F2220 X100.739 Y114.598 E126.79225
G0 F9000 X100.739 Y115.164
G1 F2220 X104.834 Y119.259 E126.98486
G0 F9000 X104.268 Y119.259
G1 F2220 X100.739 Y115.730 E127.15086
G0 F9000 X100.739 Y116.295
G1 F2220 X103.702 Y119.259 E127.29025
G0 F9000 X103.137 Y119.259
G1 F2220 X100.739 Y116.861 E127.40304
G0 F9000 X100.739 Y117.427
G1 F2220 X102.571 Y119.259 E127.48922
G0 F9000 X102.005 Y119.259
G1 F2220 X100.739 Y117.992 E127.54879
G0 F9000 X100.739 Y118.558
G1 F2220 X101.440 Y119.259 E127.58176
G0 F9000 X100.874 Y119.259
G1 F2220 X100.739 Y119.124 E127.58811
;LAYER:3
G0 F9000 X100.600 Y119.400 Z0.900
;TYPE:WALL-INNER
G1 F3120 X100.600 Y100.600 E128.21340
G1 X119.400 Y100.600 E128.83869
G1 X119.400 Y119.400 E129.46398
G1 X100.600 Y119.400 E130.08927
G0 F9000 X100.200 Y119.800
;TYPE:WALL-OUTER
G1 F2400 X100.200 Y100.200 E130.74117
G1 X119.800 Y100.200 E131.39307
G1 X119.800 Y119.800 E132.04497
G1 X100.200 Y119.800 E132.69687
G0 F9000 X100.740 Y118.880
;TYPE:FILL
G1 F4020 X118.880 Y100.739 E133.55014
G0 F9000 X119.259 Y102.246
G1 F4020 X102.245 Y119.259 E134.35040
G0 F9000 X104.130 Y119.259
G1 F4020 X119.259 Y104.131 E135.06200
G0 F9000 X119.259 Y106.016
G1 F4020 X106.015 Y119.259 E135.68494
G0 F9000 X107.900 Y119.259
G1 F4020 X119.259 Y107.901 E136.21921
G0 F9000 X119.259 Y109.786
G1 F4020 X109.786 Y119.259 E136.66479
G0 F9000 X111.671 Y119.259
G1 F4020 X119.259 Y111.671 E137.02170
G0 F9000 X119.259 Y113.557
G1 F4020 X113.556 Y119.259 E137.28993
G0 F9000 X115.441 Y119.259
G1 F4020 X119.259 Y115.442 E137.46949
G0 F9000 X119.259 Y117.327
G1 F4020 X117.326 Y119.259 E137.56039
G0 F9000 X100.740 Y116.995
G1 F4020 X116.995 Y100.739 E138.32500
G0 F9000 X115.110 Y100.739
G1 F4020 X100.740 Y115.109 E139.00092
G0 F9000 X100.740 Y113.224
G1 F4020 X113.225 Y100.739 E139.58818
G0 F9000 X111.340 Y100.739
G1 F4020 X100.740 Y111.339 E140.08677
G0 F9000 X100.740 Y109.454
G1 F4020 X109.455 Y100.739 E140.49670
G0 F9000 X107.570 Y100.739
G1 F4020 X100.740 Y107.569 E140.81796
G0 F9000 X100.740 Y105.684
G1 F4020 X105.684 Y100.739 E141.05053
G0 F9000 X103.799 Y100.739
G1 F4020 X100.740 Y103.799 E141.19444
G0 F9000 X100.740 Y101.913
G1 F4020 X101.914 Y100.739 E141.24966
;LAYER:4
G0 F9000 X100.600 Y100.600 Z1.100
;TYPE:WALL-INNER
G1 F3600 X119.400 Y100.600 E141.87495
G1 X119.400 Y119.400 E142.50025
G1 X100.600 Y119.400 E143.12554
G1 X100.600 Y100.600 E143.75083
G0 F9000 X100.200 Y100.200
;TYPE:WALL-OUTER
G1 F2700 X119.800 Y100.200 E144.40272
G1 X119.800 Y119.800 E145.05462
G1 X100.200 Y119.800 E145.70652
G1 X100.200 Y100.200 E146.35842
G0 F9000 X100.500 Y100.410
G0 X101.681 Y100.740
;TYPE:FILL
G1 F4800 X119.259 Y118.318 E147.18524
G0 F9000 X118.315 Y119.259
G1 F4800 X100.739 Y101.682 E148.01198
G0 F9000 X100.739 Y103.567
G1 F4800 X116.430 Y119.259 E148.75006
G0 F9000 X114.545 Y119.259
G1 F4800 X100.739 Y105.452 E149.39948
G0 F9000 X100.739 Y107.338
G1 F4800 X112.660 Y119.259 E149.96020
G0 F9000 X110.775 Y119.259
G1 F4800 X100.739 Y109.223 E150.43227
G0 F9000 X100.739 Y111.108
G1 F4800 X108.890 Y119.259 E150.81566
G0 F9000 X107.005 Y119.259
G1 F4800 X100.739 Y112.993 E151.11040
G0 F9000 X100.739 Y114.878
G1 F4800 X105.119 Y119.259 E151.31644
G0 F9000 X103.234 Y119.259
G1 F4800 X100.739 Y116.763 E151.43382
G0 F9000 X100.739 Y118.648
G1 F4800 X101.349 Y119.259 E151.46254
G0 F9000 X119.259 Y116.432
G1 F4800 X103.567 Y100.740 E152.20064
G0 F9000 X105.452 Y100.740
G1 F4800 X119.259 Y114.547 E152.85008
G0 F9000 X119.259 Y112.662
G1 F4800 X107.337 Y100.740 E153.41086
G0 F9000 X109.222 Y100.740
G1 F4800 X119.259 Y110.777 E153.88297
G0 F9000 X119.259 Y108.892
G1 F4800 X111.107 Y100.740 E154.26641
G0 F9000 X112.992 Y100.740
G1 F4800 X119.259 Y107.007 E154.56119
G0 F9000 X119.259 Y105.122
G1 F4800 X114.877 Y100.740 E154.76731
G0 F9000 X116.763 Y100.740
G1 F4800 X119.259 Y103.236 E154.88471
G0 F9000 X119.259 Y101.351
G1 F4800 X118.648 Y100.740 E154.91345
;LAYER:5
G0 F9000 X119.400 Y100.600 Z1.300
;TYPE:WALL-INNER
G1 F3600 X119.400 Y119.400 E155.53874
G1 X100.600 Y119.400 E156.16403
G1 X100.600 Y100.600 E156.78932
G1 X119.400 Y100.600 E157.41461
G0 F9000 X119.800 Y100.200
;TYPE:WALL-OUTER
G1 F2700 X119.800 Y119.800 E158.06651
G1 X100.200 Y119.800 E158.71841
G1 X100.200 Y100.200 E159.37031
G1 X119.800 Y100.200 E160.02221
G0 F9000 X118.880 Y100.739
;TYPE:FILL
G1 F4800 X100.740 Y118.880 E160.87548
G0 F9000 X102.245 Y119.259
G1 F4800 X119.259 Y102.246 E161.67574
G0 F9000 X119.259 Y104.131
G1 F4800 X104.130 Y119.259 E162.38734
G0 F9000 X106.015 Y119.259
G1 F4800 X119.259 Y106.016 E163.01028
G0 F9000 X119.259 Y107.901
G1 F4800 X107.900 Y119.259 E163.54455
G0 F9000 X109.786 Y119.259
G1 F4800 X119.259 Y109.786 E163.99013
G0 F9000 X119.259 Y111.671
G1 F4800 X111.671 Y119.259 E164.34704
G0 F9000 X113.556 Y119.259
G1 F4800 X119.259 Y113.557 E164.61527
G0 F9000 X119.259 Y115.442
G1 F4800 X115.441 Y119.259 E164.79483
G0 F9000 X117.326 Y119.259
G1 F4800 X119.259 Y117.327 E164.88573
G0 F9000 X116.995 Y100.739
G1 F4800 X100.740 Y116.995 E165.65034
G0 F9000 X100.740 Y115.109
G1 F4800 X115.110 Y100.739 E166.32626
G0 F9000 X113.225 Y100.739
G1 F4800 X100.740 Y113.224 E166.91352
G0 F9000 X100.740 Y111.339
G1 F4800 X111.340 Y100.739 E167.41211
G0 F9000 X109.455 Y100.739
G1 F4800 X100.740 Y109.454 E167.82204
G0 F9000 X100.740 Y107.569
G1 F4800 X107.570 Y100.739 E168.14330
G0 F9000 X105.684 Y100.739
G1 F4800 X100.740 Y105.684 E168.37587
G0 F9000 X100.740 Y103.799
G1 F4800 X103.799 Y100.739 E168.51978
G0 F9000 X101.914 Y100.739
G1 F4800 X100.740 Y101.913 E168.57500
;LAYER:6
G0 F9000 X100.600 Y100.600 Z1.500
;TYPE:WALL-INNER
G1 F3600 X119.400 Y100.600 E169.20029
G1 X119.400 Y119.400 E169.82559
G1 X100.600 Y119.400 E170.45088
G1 X100.600 Y100.600 E171.07617
G0 F9000 X100.200 Y100.200
;TYPE:WALL-OUTER
G1 F2700 X119.800 Y100.200 E171.72807
G1 X119.800 Y119.800 E172.37996
G1 X100.200 Y119.800 E173.03186
G1 X100.200 Y100.200 E173.68376
G0 F9000 X100.500 Y100.410
G0 X101.681 Y100.740
;TYPE:FILL
G1 F4800 X119.259 Y118.318 E174.51058
G0 F9000 X118.315 Y119.259
G1 F4800 X100.739 Y101.682 E175.33732
G0 F9000 X100.739 Y103.567
G1 F4800 X116.430 Y119.259 E176.07540
G0 F9000 X114.545 Y119.259
G1 F4800 X100.739 Y105.452 E176.72482
G0 F9000 X100.739 Y107.338
G1 F4800 X112.660 Y119.259 E177.28554
G0 F9000 X110.775 Y119.259
G1 F4800 X100.739 Y109.223 E177.75761
G0 F9000 X100.739 Y111.108
G1 F4800 X108.890 Y119.259 E178.14100
G0 F9000 X107.005 Y119.259
G1 F4800 X100.739 Y112.993 E178.43574
G0 F9000 X100.739 Y114.878
G1 F4800 X105.119 Y119.259 E178.64178
G0 F9000 X103.234 Y119.259
G1 F4800 X100.739 Y116.763 E178.75916
G0 F9000 X100.739 Y118.648
G1 F4800 X101.349 Y119.259 E178.78788
G0 F9000 X119.259 Y116.432
G1 F4800 X103.567 Y100.740 E179.52598
G0 F9000 X105.452 Y100.740
G1 F4800 X119.259 Y114.547 E180.17542
G0 F9000 X119.259 Y112.662
G1 F4800 X107.337 Y100.740 E180.73620
G0 F9000 X109.222 Y100.740
G1 F4800 X119.259 Y110.777 E181.20831
G0 F9000 X119.259 Y108.892
G1 F4800 X111.107 Y100.740 E181.59175
G0 F9000 X112.992 Y100.740
G1 F4800 X119.259 Y107.007 E181.88653
G0 F9000 X119.259 Y105.122
G1 F4800 X114.877 Y100.740 E182.09265
G0 F9000 X116.763 Y100.740
G1 F4800 X119.259 Y103.236 E182.21005
G0 F9000 X119.259 Y101.351
G1 F4800 X118.648 Y100.740 E182.23879
;LAYER:7
G0 F9000 X119.400 Y100.600 Z1.700
;TYPE:WALL-INNER
G1 F3600 X119.400 Y119.400 E182.86408
G1 X100.600 Y119.400 E183.48937
G1 X100.600 Y100.600 E184.11466
G1 X119.400 Y100.600 E184.73995
G0 F9000 X119.800 Y100.200
;TYPE:WALL-OUTER
G1 F2700 X119.800 Y119.800 E185.39185
G1 X100.200 Y119.800 E186.04375
G1 X100.200 Y100.200 E186.69565
G1 X119.800 Y100.200 E187.34755
G0 F9000 X118.880 Y100.739
;TYPE:FILL
G1 F4800 X100.740 Y118.880 E188.20082
G0 F9000 X102.245 Y119.259
G1 F4800 X119.259 Y102.246 E189.00108
G0 F9000 X119.259 Y104.131
G1 F4800 X104.130 Y119.259 E189.71268
G0 F9000 X106.015 Y119.259
G1 F4800 X119.259 Y106.016 E190.33562
G0 F9000 X119.259 Y107.901
G1 F4800 X107.900 Y119.259 E190.86989
G0 F9000 X109.786 Y119.259
G1 F4800 X119.259 Y109.786 E191.31547
G0 F9000 X119.259 Y111.671
G1 F4800 X111.671 Y119.259 E191.67238
G0 F9000 X113.556 Y119.259
G1 F4800 X119.259 Y113.557 E191.94061
G0 F9000 X119.259 Y115.442
G1 F4800 X115.441 Y119.259 E192.12017
G0 F9000 X117.326 Y119.259
G1 F4800 X119.259 Y117.327 E192.21107
G0 F9000 X116.995 Y100.739
G1 F4800 X100.740 Y116.995 E192.97568
G0 F9000 X100.740 Y115.109
G1 F4800 X115.110 Y100.739 E193.65160
G0 F9000 X113.225 Y100.739
G1 F4800 X100.740 Y113.224 E194.23886
G0 F9000 X100.740 Y111.339
G1 F4800 X111.340 Y100.739 E194.73745
G0 F9000 X109.455 Y100.739
G1 F4800 X100.740 Y109.454 E195.14738
G0 F9000 X100.740 Y107.569
G1 F4800 X107.570 Y100.739 E195.46864
G0 F9000 X105.684 Y100.739
G1 F4800 X100.740 Y105.684 E195.70121
G0 F9000 X100.740 Y103.799
G1 F4800 X103.799 Y100.739 E195.84512
G0 F9000 X101.914 Y100.739
G1 F4800 X100.740 Y101.913 E195.90034
;LAYER:8
G0 F9000 X100.600 Y100.600 Z1.900
;TYPE:WALL-INNER
G1 F3600 X119.400 Y100.600 E196.52564
G1 X119.400 Y119.400 E197.15093
G1 X100.600 Y119.400 E197.77622
G1 X100.600 Y100.600 E198.40151
G0 F9000 X100.200 Y100.200
;TYPE:WALL-OUTER
G1 F2700 X119.800 Y100.200 E199.05341
G1 X119.800 Y119.800 E199.70530
G1 X100.200 Y119.800 E200.35720
G1 X100.200 Y100.200 E201.00910
G0 F9000 X100.500 Y100.410
G0 X101.681 Y100.740
;TYPE:FILL
G1 F4800 X119.259 Y118.318 E201.83592
G0 F9000 X118.315 Y119.259
G1 F4800 X100.739 Y101.682 E202.66266
G0 F9000 X100.739 Y103.567
G1 F4800 X116.430 Y119.259 E203.40074
G0 F9000 X114.545 Y119.259
G1 F4800 X100.739 Y105.452 E204.05016
G0 F9000 X100.739 Y107.338
G1 F4800 X112.660 Y119.259 E204.61088
G0 F9000 X110.775 Y119.259
G1 F4800 X100.739 Y109.223 E205.08295
G0 F9000 X100.739 Y111.108
G1 F4800 X108.890 Y119.259 E205.46634
G0 F9000 X107.005 Y119.259
G1 F4800 X100.739 Y112.993 E205.76108
G0 F9000 X100.739 Y114.878
G1 F4800 X105.119 Y119.259 E205.96712
G0 F9000 X103.234 Y119.259
G1 F4800 X100.739 Y116.763 E206.08450
G0 F9000 X100.739 Y118.648
G1 F4800 X101.349 Y119.259 E206.11322
G0 F9000 X119.259 Y116.432
G1 F4800 X103.567 Y100.740 E206.85132
G0 F9000 X105.452 Y100.740
G1 F4800 X119.259 Y114.547 E207.50076
G0 F9000 X119.259 Y112.662
G1 F4800 X107.337 Y100.740 E208.06154
G0 F9000 X109.222 Y100.740
G1 F4800 X119.259 Y110.777 E208.53365
G0 F9000 X119.259 Y108.892
G1 F4800 X111.107 Y100.740 E208.91709
G0 F9000 X112.992 Y100.740
G1 F4800 X119.259 Y107.007 E209.21187
G0 F9000 X119.259 Y105.122
G1 F4800 X114.877 Y100.740 E209.41799
G0 F9000 X116.763 Y100.740
G1 F4800 X119.259 Y103.236 E209.53539
G0 F9000 X119.259 Y101.351
G1 F4800 X118.648 Y100.740 E209.56413
;LAYER:9
G0 F9000 X119.400 Y100.600 Z2.100
;TYPE:WALL-INNER
G1 F3600 X119.400 Y119.400 E210.18942
G1 X100.600 Y119.400 E210.81471
G1 X100.600 Y100.600 E211.44000
G1 X119.400 Y100.600 E212.06529
G0 F9000 X119.800 Y100.200
;TYPE:WALL-OUTER
G1 F2700 X119.800 Y119.800 E212.71719
G1 X100.200 Y119.800 E213.36909
G1 X100.200 Y100.200 E214.02099
G1 X119.800 Y100.200 E214.67289
G0 F9000 X118.880 Y100.739
;TYPE:FILL
G1 F4800 X100.740 Y118.880 E215.52616
G0 F9000 X102.245 Y119.259
G1 F4800 X119.259 Y102.246 E216.32643
G0 F9000 X119.259 Y104.131
G1 F4800 X104.130 Y119.259 E217.03802
G0 F9000 X106.015 Y119.259
G1 F4800 X119.259 Y106.016 E217.66096
G0 F9000 X119.259 Y107.901
G1 F4800 X107.900 Y119.259 E218.19523
G0 F9000 X109.786 Y119.259
G1 F4800 X119.259 Y109.786 E218.64081
G0 F9000 X119.259 Y111.671
G1 F4800 X111.671 Y119.259 E218.99772
G0 F9000 X113.556 Y119.259
G1 F4800 X119.259 Y113.557 E219.26595
G0 F9000 X119.259 Y115.442
G1 F4800 X115.441 Y119.259 E219.44551
G0 F9000 X117.326 Y119.259
G1 F4800 X119.259 Y117.327 E219.53641
G0 F9000 X116.995 Y100.739
G1 F4800 X100.740 Y116.995 E220.30102
G0 F9000 X100.740 Y115.109
G1 F4800 X115.110 Y100.739 E220.97694
G0 F9000 X113.225 Y100.739
G1 F4800 X100.740 Y113.224 E221.56420
G0 F9000 X100.740 Y111.339
G1 F4800 X111.340 Y100.739 E222.06279
G0 F9000 X109.455 Y100.739
G1 F4800 X100.740 Y109.454 E222.47272
G0 F9000 X100.740 Y107.569
G1 F4800 X107.570 Y100.739 E222.79398
G0 F9000 X105.684 Y100.739
G1 F4800 X100.740 Y105.684 E223.02655
G0 F9000 X100.740 Y103.799
G1 F4800 X103.799 Y100.739 E223.17046
G0 F9000 X101.914 Y100.739
G1 F4800 X100.740 Y101.913 E223.22569
;LAYER:10
G0 F9000 X100.600 Y100.600 Z2.300
;TYPE:WALL-INNER
G1 F3600 X119.400 Y100.600 E223.85098
G1 X119.400 Y119.400 E224.47627
G1 X100.600 Y119.400 E225.10156
G1 X100.600 Y100.600 E225.72685
G0 F9000 X100.200 Y100.200
;TYPE:WALL-OUTER
G1 F2700 X119.800 Y100.200 E226.37875
G1 X119.800 Y119.800 E227.03064
G1 X100.200 Y119.800 E227.68254
G1 X100.200 Y100.200 E228.33444
G0 F9000 X100.500 Y100.410
G0 X101.681 Y100.740
;TYPE:FILL
G1 F4800 X119.259 Y118.318 E229.16126
G0 F9000 X118.315 Y119.259
G1 F4800 X100.739 Y101.682 E229.98800
G0 F9000 X100.739 Y103.567
G1 F4800 X116.430 Y119.259 E230.72608
G0 F9000 X114.545 Y119.259
G1 F4800 X100.739 Y105.452 E231.37550
G0 F9000 X100.739 Y107.338
G1 F4800 X112.660 Y119.259 E231.93622
G0 F9000 X110.775 Y119.259
G1 F4800 X100.739 Y109.223 E232.40829
G0 F9000 X100.739 Y111.108
G1 F4800 X108.890 Y119.259 E232.79169
G0 F9000 X107.005 Y119.259
G1 F4800 X100.739 Y112.993 E233.08642
G0 F9000 X100.739 Y114.878
G1 F4800 X105.119 Y119.259 E233.29246
G0 F9000 X103.234 Y119.259
G1 F4800 X100.739 Y116.763 E233.40984
G0 F9000 X100.739 Y118.648
G1 F4800 X101.349 Y119.259 E233.43856
G0 F9000 X119.259 Y116.432
G1 F4800 X103.567 Y100.740 E234.17666
G0 F9000 X105.452 Y100.740
G1 F4800 X119.259 Y114.547 E234.82610
G0 F9000 X119.259 Y112.662
G1 F4800 X107.337 Y100.740 E235.38688
G0 F9000 X109.222 Y100.740
G1 F4800 X119.259 Y110.777 E235.85899
G0 F9000 X119.259 Y108.892
G1 F4800 X111.107 Y100.740 E236.24243
G0 F9000 X112.992 Y100.740
G1 F4800 X119.259 Y107.007 E236.53721
G0 F9000 X119.259 Y105.122
G1 F4800 X114.877 Y100.740 E236.74333
G0 F9000 X116.763 Y100.740
G1 F4800 X119.259 Y103.236 E236.86073
G0 F9000 X119.259 Y101.351
G1 F4800 X118.648 Y100.740 E236.88947
;LAYER:11
G0 F9000 X119.400 Y100.600 Z2.500
;TYPE:WALL-INNER
G1 F3600 X119.400 Y119.400 E237.51476
G1 X100.600 Y119.400 E238.14005
G1 X100.600 Y100.600 E238.76534
G1 X119.400 Y100.600 E239.39063
G0 F9000 X119.800 Y100.200
;TYPE:WALL-OUTER
G1 F2700 X119.800 Y119.800 E240.04253
G1 X100.200 Y119.800 E240.69443
G1 X100.200 Y100.200 E241.34633
G1 X119.800 Y100.200 E241.99823
G0 F9000 X118.880 Y100.739
;TYPE:FILL
G1 F4800 X100.740 Y118.880 E242.85150
G0 F9000 X102.245 Y119.259
G1 F4800 X119.259 Y102.246 E243.65177
G0 F9000 X119.259 Y104.131
G1 F4800 X104.130 Y119.259 E244.36336
G0 F9000 X106.015 Y119.259
G1 F4800 X119.259 Y106.016 E244.98630
G0 F9000 X119.259 Y107.901
G1 F4800 X107.900 Y119.259 E245.52057
G0 F9000 X109.786 Y119.259
G1 F4800 X119.259 Y109.786 E245.96615
G0 F9000 X119.259 Y111.671
G1 F4800 X111.671 Y119.259 E246.32306
G0 F9000 X113.556 Y119.259
G1 F4800 X119.259 Y113.557 E246.59129
G0 F9000 X119.259 Y115.442
G1 F4800 X115.441 Y119.259 E246.77086
G0 F9000 X117.326 Y119.259
G1 F4800 X119.259 Y117.327 E246.86175
G0 F9000 X116.995 Y100.739
G1 F4800 X100.740 Y116.995 E247.62636
G0 F9000 X100.740 Y115.109
G1 F4800 X115.110 Y100.739 E248.30228
G0 F9000 X113.225 Y100.739
G1 F4800 X100.740 Y113.224 E248.88954
G0 F9000 X100.740 Y111.339
G1 F4800 X111.340 Y100.739 E249.38813
G0 F9000 X109.455 Y100.739
G1 F4800 X100.740 Y109.454 E249.79806
G0 F9000 X100.740 Y107.569
G1 F4800 X107.570 Y100.739 E250.11932
G0 F9000 X105.684 Y100.739
G1 F4800 X100.740 Y105.684 E250.35189
G0 F9000 X100.740 Y103.799
G1 F4800 X103.799 Y100.739 E250.49580
G0 F9000 X101.914 Y100.739
G1 F4800 X100.740 Y101.913 E250.55103
;LAYER:12
G0 F9000 X100.600 Y100.600 Z2.700
;TYPE:WALL-INNER
G1 F3600 X119.400 Y100.600 E251.17632
G1 X119.400 Y119.400 E251.80161
G1 X100.600 Y119.400 E252.42690
G1 X100.600 Y100.600 E253.05219
G0 F9000 X100.200 Y100.200
;TYPE:WALL-OUTER
G1 F2700 X119.800 Y100.200 E253.70409
G1 X119.800 Y119.800 E254.35598
G1 X100.200 Y119.800 E255.00788
G1 X100.200 Y100.200 E255.65978
G0 F9000 X100.500 Y100.410
G0 X101.681 Y100.740
;TYPE:FILL
G1 F4800 X119.259 Y118.318 E256.48660
G0 F9000 X118.315 Y119.259
G1 F4800 X100.739 Y101.682 E257.31334
G0 F9000 X100.739 Y103.567
G1 F4800 X116.430 Y119.259 E258.05142
G0 F9000 X114.545 Y119.259
G1 F4800 X100.739 Y105.452 E258.70084
G0 F9000 X100.739 Y107.338
G1 F4800 X112.660 Y119.259 E259.26156
G0 F9000 X110.775 Y119.259
G1 F4800 X100.739 Y109.223 E259.73363
G0 F9000 X100.739 Y111.108
G1 F4800 X108.890 Y119.259 E260.11703
G0 F9000 X107.005 Y119.259
G1 F4800 X100.739 Y112.993 E260.41176
G0 F9000 X100.739 Y114.878
G1 F4800 X105.119 Y119.259 E260.61780
G0 F9000 X103.234 Y119.259
G1 F4800 X100.739 Y116.763 E260.73518
G0 F9000 X100.739 Y118.648
G1 F4800 X101.349 Y119.259 E260.76390
G0 F9000 X119.259 Y116.432
G1 F4800 X103.567 Y100.740 E261.50200
G0 F9000 X105.452 Y100.740
G1 F4800 X119.259 Y114.547 E262.15144
G0 F9000 X119.259 Y112.662
G1 F4800 X107.337 Y100.740 E262.71222
G0 F9000 X109.222 Y100.740
G1 F4800 X119.259 Y110.777 E263.18433
G0 F9000 X119.259 Y108.892
G1 F4800 X111.107 Y100.740 E263.56777
G0 F9000 X112.992 Y100.740
G1 F4800 X119.259 Y107.007 E263.86255
G0 F9000 X119.259 Y105.122
G1 F4800 X114.877 Y100.740 E264.06867
G0 F9000 X116.763 Y100.740
G1 F4800 X119.259 Y103.236 E264.18607
G0 F9000 X119.259 Y101.351
G1 F4800 X118.648 Y100.740 E264.21481
;LAYER:13
G0 F9000 X119.400 Y100.600 Z2.900
;TYPE:WALL-INNER
G1 F3600 X119.400 Y119.400 E264.84010
G1 X100.600 Y119.400 E265.46539
G1 X100.600 Y100.600 E266.09068
G1 X119.400 Y100.600 E266.71597
G0 F9000 X119.800 Y100.200
;TYPE:WALL-OUTER
G1 F2700 X119.800 Y119.800 E267.36787
G1 X100.200 Y119.800 E268.01977
G1 X100.200 Y100.200 E268.67167
G1 X119.800 Y100.200 E269.32357
G0 F9000 X118.880 Y100.739
;TYPE:FILL
G1 F4800 X100.740 Y118.880 E270.17684
G0 F9000 X102.245 Y119.259
G1 F4800 X119.259 Y102.246 E270.97711
G0 F9000 X119.259 Y104.131
G1 F4800 X104.130 Y119.259 E271.68870
G0 F9000 X106.015 Y119.259
G1 F4800 X119.259 Y106.016 E272.31164
G0 F9000 X119.259 Y107.901
G1 F4800 X107.900 Y119.259 E272.84591
G0 F9000 X109.786 Y119.259
G1 F4800 X119.259 Y109.786 E273.29149
G0 F9000 X119.259 Y111.671
G1 F4800 X111.671 Y119.259 E273.64840
G0 F9000 X113.556 Y119.259
G1 F4800 X119.259 Y113.557 E273.91663
G0 F9000 X119.259 Y115.442
G1 F4800 X115.441 Y119.259 E274.09620
G0 F9000 X117.326 Y119.259
G1 F4800 X119.259 Y117.327 E274.18709
G0 F9000 X116.995 Y100.739
G1 F4800 X100.740 Y116.995 E274.95170
G0 F9000 X100.740 Y115.109
G1 F4800 X115.110 Y100.739 E275.62762
G0 F9000 X113.225 Y100.739
G1 F4800 X100.740 Y113.224 E276.21488
G0 F9000 X100.740 Y111.339
G1 F4800 X111.340 Y100.739 E276.71347
G0 F9000 X109.455 Y100.739
G1 F4800 X100.740 Y109.454 E277.12340
G0 F9000 X100.740 Y107.569
G1 F4800 X107.570 Y100.739 E277.44466
G0 F9000 X105.684 Y100.739
G1 F4800 X100.740 Y105.684 E277.67723
G0 F9000 X100.740 Y103.799
G1 F4800 X103.799 Y100.739 E277.82114
G0 F9000 X101.914 Y100.739
G1 F4800 X100.740 Y101.913 E277.87637
;LAYER:14
G0 F9000 X100.600 Y100.600 Z3.100
;TYPE:WALL-INNER
G1 F3600 X119.400 Y100.600 E278.50166
G1 X119.400 Y119.400 E279.12695
G1 X100.600 Y119.400 E279.75224
G1 X100.600 Y100.600 E280.37753
G0 F9000 X100.200 Y100.200
;TYPE:WALL-OUTER
G1 F2700 X119.800 Y100.200 E281.02943
G1 X119.800 Y119.800 E281.68133
G1 X100.200 Y119.800 E282.33322
G1 X100.200 Y100.200 E282.98512
G0 F9000 X100.500 Y100.410
G0 X101.681 Y100.740
;TYPE:FILL
G1 F4800 X119.259 Y118.318 E283.81194
G0 F9000 X118.315 Y119.259
G1 F4800 X100.739 Y101.682 E284.63868
G0 F9000 X100.739 Y103.567
G1 F4800 X116.430 Y119.259 E285.37676
G0 F9000 X114.545 Y119.259
G1 F4800 X100.739 Y105.452 E286.02618
G0 F9000 X100.739 Y107.338
G1 F4800 X112.660 Y119.259 E286.58691
G0 F9000 X110.775 Y119.259
G1 F4800 X100.739 Y109.223 E287.05897
G0 F9000 X100.739 Y111.108
G1 F4800 X108.890 Y119.259 E287.44237
G0 F9000 X107.005 Y119.259
G1 F4800 X100.739 Y112.993 E287.73710
G0 F9000 X100.739 Y114.878
G1 F4800 X105.119 Y119.259 E287.94314
G0 F9000 X103.234 Y119.259
G1 F4800 X100.739 Y116.763 E288.06053
G0 F9000 X100.739 Y118.648
G1 F4800 X101.349 Y119.259 E288.08924
G0 F9000 X119.259 Y116.432
G1 F4800 X103.567 Y100.740 E288.82734
G0 F9000 X105.452 Y100.740
G1 F4800 X119.259 Y114.547 E289.47678
G0 F9000 X119.259 Y112.662
G1 F4800 X107.337 Y100.740 E290.03756
G0 F9000 X109.222 Y100.740
G1 F4800 X119.259 Y110.777 E290.50967
G0 F9000 X119.259 Y108.892
G1 F4800 X111.107 Y100.740 E290.89311
G0 F9000 X112.992 Y100.740
G1 F4800 X119.259 Y107.007 E291.18789
G0 F9000 X119.259 Y105.122
G1 F4800 X114.877 Y100.740 E291.39401
G0 F9000 X116.763 Y100.740
G1 F4800 X119.259 Y103.236 E291.51141
G0 F9000 X119.259 Y101.351
G1 F4800 X118.648 Y100.740 E291.54015
;LAYER:15
G0 F9000 X119.400 Y100.600 Z3.300
;TYPE:WALL-INNER
G1 F3600 X119.400 Y119.400 E292.16544
G1 X100.600 Y119.400 E292.79073
G1 X100.600 Y100.600 E293.41602
G1 X119.400 Y100.600 E294.04132
G0 F9000 X119.800 Y100.200
;TYPE:WALL-OUTER
G1 F2700 X119.800 Y119.800 E294.69321
G1 X100.200 Y119.800 E295.34511
G1 X100.200 Y100.200 E295.99701
G1 X119.800 Y100.200 E296.64891
G0 F9000 X118.880 Y100.739
;TYPE:FILL
G1 F4800 X100.740 Y118.880 E297.50218
G0 F9000 X102.245 Y119.259
G1 F4800 X119.259 Y102.246 E298.30245
G0 F9000 X119.259 Y104.131
G1 F4800 X104.130 Y119.259 E299.01404
G0 F9000 X106.015 Y119.259
G1 F4800 X119.259 Y106.016 E299.63698
G0 F9000 X119.259 Y107.901
G1 F4800 X107.900 Y119.259 E300.17125
G0 F9000 X109.786 Y119.259
G1 F4800 X119.259 Y109.786 E300.61683
G0 F9000 X119.259 Y111.671
G1 F4800 X111.671 Y119.259 E300.97374
G0 F9000 X113.556 Y119.259
G1 F4800 X119.259 Y113.557 E301.24197
G0 F9000 X119.259 Y115.442
G1 F4800 X115.441 Y119.259 E301.42154
G0 F9000 X117.326 Y119.259
G1 F4800 X119.259 Y117.327 E301.51243
G0 F9000 X116.995 Y100.739
G1 F4800 X100.740 Y116.995 E302.27704
G0 F9000 X100.740 Y115.109
G1 F4800 X115.110 Y100.739 E302.95296
G0 F9000 X113.225 Y100.739
G1 F4800 X100.740 Y113.224 E303.54022
G0 F9000 X100.740 Y111.339
G1 F4800 X111.340 Y100.739 E304.03881
G0 F9000 X109.455 Y100.739
G1 F4800 X100.740 Y109.454 E304.44874
G0 F9000 X100.740 Y107.569
G1 F4800 X107.570 Y100.739 E304.77000
G0 F9000 X105.684 Y100.739
G1 F4800 X100.740 Y105.684 E305.00258
G0 F9000 X100.740 Y103.799
G1 F4800 X103.799 Y100.739 E305.14648
G0 F9000 X101.914 Y100.739
G1 F4800 X100.740 Y101.913 E305.20171
G0 F9000 X104.448 Y101.744
;TYPE:SKIN
G1 F2700 X105.452 Y100.739 E305.24895
G0 F9000 X104.887 Y100.739
G1 F2700 X104.447 Y101.179 E305.26965
G0 F9000 X104.448 Y102.309
G1 F2700 X106.018 Y100.739 E305.34350
G0 F9000 X106.584 Y100.739
G1 F2700 X104.772 Y102.551 E305.42873
G0 F9000 X105.337 Y102.551
G1 F2700 X107.150 Y100.739 E305.51398
G0 F9000 X107.382 Y101.072
G1 F2700 X105.903 Y102.551 E305.58355
G0 F9000 X106.469 Y102.551
G1 F2700 X107.382 Y101.638 E305.62650
G0 F9000 X107.382 Y102.203
G1 F2700 X107.044 Y102.541 E305.64240
G0 F9000 X111.801 Y102.310
G1 F2700 X113.372 Y100.739 E305.71629
G0 F9000 X112.806 Y100.739
G1 F2700 X111.801 Y101.744 E305.76356
G0 F9000 X111.801 Y101.179
G1 F2700 X112.241 Y100.739 E305.78426
G0 F9000 X113.938 Y100.739
G1 F2700 X112.113 Y102.563 E305.87008
G0 F9000 X112.691 Y102.551
G1 F2700 X114.503 Y100.739 E305.95531
G0 F9000 X114.898 Y100.910
G1 F2700 X113.257 Y102.551 E306.03250
G0 F9000 X113.822 Y102.552
G1 F2700 X114.898 Y101.476 E306.08311
G0 F9000 X114.898 Y102.041
G1 F2700 X114.387 Y102.552 E306.10714
G0 F9000 X117.817 Y108.173
G1 F2700 X117.393 Y108.598 E306.12711
G0 F9000 X117.393 Y109.163
G1 F2700 X118.390 Y108.166 E306.17401
G0 F9000 X118.955 Y108.166
G1 F2700 X117.393 Y109.729 E306.24750
G0 F9000 X117.393 Y110.295
G1 F2700 X119.259 Y108.429 E306.33527
G0 F9000 X119.259 Y108.994
G1 F2700 X117.393 Y110.860 E306.42304
G0 F9000 X117.651 Y111.168
G1 F2700 X119.259 Y109.560 E306.49868
G0 F9000 X119.259 Y110.126
G1 F2700 X118.216 Y111.168 E306.54771
G0 F9000 X118.782 Y111.168
G1 F2700 X119.259 Y110.691 E306.57015
;LAYER:16
G0 F9000 X119.400 Y119.400 Z3.500
;TYPE:WALL-INNER
G1 F3600 X100.600 Y119.400 E307.19544
G1 X100.600 Y100.600 E307.82073
G1 X119.400 Y100.600 E308.44602
G1 X119.400 Y119.400 E309.07131
G0 F9000 X119.800 Y119.800
;TYPE:WALL-OUTER
G1 F2700 X100.200 Y119.800 E309.72321
G1 X100.200 Y100.200 E310.37511
G1 X119.800 Y100.200 E311.02701
G1 X119.800 Y119.800 E311.67891
G0 F9000 X119.500 Y119.590
G0 X119.259 Y118.318
;TYPE:FILL
G1 F4800 X101.681 Y100.740 E312.50572
G0 F9000 X100.739 Y101.682
G1 F4800 X118.315 Y119.259 E313.33247
G0 F9000 X116.430 Y119.259
G1 F4800 X100.739 Y103.567 E314.07055
G0 F9000 X100.739 Y105.452
G1 F4800 X114.545 Y119.259 E314.71996
G0 F9000 X112.660 Y119.259
G1 F4800 X100.739 Y107.338 E315.28069
G0 F9000 X100.739 Y109.223
G1 F4800 X110.775 Y119.259 E315.75275
G0 F9000 X108.890 Y119.259
G1 F4800 X100.739 Y111.108 E316.13615
G0 F9000 X100.739 Y112.993
G1 F4800 X107.005 Y119.259 E316.43089
G0 F9000 X105.119 Y119.259
G1 F4800 X100.739 Y114.878 E316.63693
G0 F9000 X100.739 Y116.763
G1 F4800 X103.234 Y119.259 E316.75431
G0 F9000 X101.349 Y119.259
G1 F4800 X100.739 Y118.648 E316.78303
G0 F9000 X103.567 Y100.740
G1 F4800 X119.259 Y116.432 E317.52113
G0 F9000 X119.259 Y114.547
G1 F4800 X105.452 Y100.740 E318.17057
G0 F9000 X107.337 Y100.740
G1 F4800 X119.259 Y112.662 E318.73134
G0 F9000 X119.259 Y110.777
G1 F4800 X109.222 Y100.740 E319.20345
G0 F9000 X111.107 Y100.740
G1 F4800 X119.259 Y108.892 E319.58690
G0 F9000 X119.259 Y107.007
G1 F4800 X112.992 Y100.740 E319.88168
G0 F9000 X114.877 Y100.740
G1 F4800 X119.259 Y105.122 E320.08780
G0 F9000 X119.259 Y103.236
G1 F4800 X116.763 Y100.740 E320.20520
G0 F9000 X118.648 Y100.740
G1 F4800 X119.259 Y101.351 E320.23394
G0 F9000 X114.771 Y101.478
;TYPE:SKIN
G1 F2700 X114.033 Y100.740 E320.26865
G0 F9000 X113.468 Y100.740
G1 F2700 X114.771 Y102.043 E320.32994
G0 F9000 X114.713 Y102.551
G1 F2700 X112.902 Y100.740 E320.41513
G0 F9000 X112.336 Y100.740
G1 F2700 X114.149 Y102.553 E320.50040
G0 F9000 X113.584 Y102.553
G1 F2700 X111.770 Y100.740 E320.58570
G0 F9000 X111.678 Y101.213
G1 F2700 X113.020 Y102.555 E320.64883
G0 F9000 X112.456 Y102.556
G1 F2700 X111.677 Y101.778 E320.68545
G0 F9000 X111.677 Y102.343
G1 F2700 X111.891 Y102.558 E320.69554
G0 F9000 X114.599 Y100.740
G1 F2700 X114.771 Y100.912 E320.70363
G0 F9000 X107.501 Y100.996
G1 F2700 X107.245 Y100.740 E320.71567
G0 F9000 X106.679 Y100.740
G1 F2700 X107.501 Y101.561 E320.75431
G0 F9000 X107.501 Y102.127
G1 F2700 X106.114 Y100.740 E320.81955
G0 F9000 X105.548 Y100.740
G1 F2700 X107.352 Y102.543 E320.90438
G0 F9000 X106.788 Y102.546
G1 F2700 X104.982 Y100.740 E320.98933
G0 F9000 X104.557 Y100.880
G1 F2700 X106.224 Y102.547 E321.06774
G0 F9000 X105.660 Y102.549
G1 F2700 X104.557 Y101.446 E321.11962
G0 F9000 X104.558 Y102.012
G1 F2700 X105.096 Y102.550 E321.14493
G0 F9000 X117.506 Y108.172
G1 F2700 X119.259 Y109.925 E321.22738
G0 F9000 X119.259 Y110.491
G1 F2700 X117.393 Y108.625 E321.31515
G0 F9000 X117.393 Y109.190
G1 F2700 X119.259 Y111.056 E321.40292
G0 F9000 X118.801 Y111.164
G1 F2700 X117.393 Y109.756 E321.46915
G0 F9000 X117.393 Y110.322
G1 F2700 X118.233 Y111.162 E321.50866
G0 F9000 X117.666 Y111.160
G1 F2700 X117.393 Y110.887 E321.52150
G0 F9000 X119.259 Y109.359
G1 F2700 X118.069 Y108.170 E321.57745
G0 F9000 X118.634 Y108.168
G1 F2700 X119.259 Y108.794 E321.60688
G0 F9000 X119.259 Y108.228
G1 F2700 X119.197 Y108.166 E321.60979
;LAYER:17
G0 F9000 X119.400 Y100.600 Z3.700
;TYPE:WALL-INNER
G1 F3600 X119.400 Y119.400 E322.23508
G1 X100.600 Y119.400 E322.86037
G1 X100.600 Y100.600 E323.48566
G1 X119.400 Y100.600 E324.11095
G0 F9000 X119.800 Y100.200
;TYPE:WALL-OUTER
G1 F2700 X119.800 Y119.800 E324.76285
G1 X100.200 Y119.800 E325.41475
G1 X100.200 Y100.200 E326.06665
G1 X119.800 Y100.200 E326.71855
G0 F9000 X118.880 Y100.739
;TYPE:FILL
G1 F4800 X100.740 Y118.880 E327.57182
G0 F9000 X102.245 Y119.259
G1 F4800 X119.259 Y102.246 E328.37209
G0 F9000 X119.259 Y104.131
G1 F4800 X104.130 Y119.259 E329.08368
G0 F9000 X106.015 Y119.259
G1 F4800 X119.259 Y106.016 E329.70662
G0 F9000 X119.259 Y107.901
G1 F4800 X107.900 Y119.259 E330.24089
G0 F9000 X109.786 Y119.259
G1 F4800 X119.259 Y109.786 E330.68647
G0 F9000 X119.259 Y111.671
G1 F4800 X111.671 Y119.259 E331.04338
G0 F9000 X113.556 Y119.259
G1 F4800 X119.259 Y113.557 E331.31161
G0 F9000 X119.259 Y115.442
G1 F4800 X115.441 Y119.259 E331.49118
G0 F9000 X117.326 Y119.259
G1 F4800 X119.259 Y117.327 E331.58207
G0 F9000 X116.995 Y100.739
G1 F4800 X100.740 Y116.995 E332.34668
G0 F9000 X100.740 Y115.109
G1 F4800 X115.110 Y100.739 E333.02260
G0 F9000 X113.225 Y100.739
G1 F4800 X100.740 Y113.224 E333.60986
G0 F9000 X100.740 Y111.339
G1 F4800 X111.340 Y100.739 E334.10845
G0 F9000 X109.455 Y100.739
G1 F4800 X100.740 Y109.454 E334.51838
G0 F9000 X100.740 Y107.569
G1 F4800 X107.570 Y100.739 E334.83964
G0 F9000 X105.684 Y100.739
G1 F4800 X100.740 Y105.684 E335.07221
G0 F9000 X100.740 Y103.799
G1 F4800 X103.799 Y100.739 E335.21612
G0 F9000 X101.914 Y100.739
G1 F4800 X100.740 Y101.913 E335.27135
G0 F9000 X104.670 Y102.087
;TYPE:SKIN
G1 F2700 X106.017 Y100.740 E335.33470
G0 F9000 X105.452 Y100.740
G1 F2700 X104.669 Y101.522 E335.37151
G0 F9000 X104.669 Y100.957
G1 F2700 X104.886 Y100.740 E335.38172
G0 F9000 X106.583 Y100.740
G1 F2700 X104.772 Y102.551 E335.46690
G0 F9000 X105.338 Y102.550
G1 F2700 X107.149 Y100.740 E335.55206
G0 F9000 X107.619 Y100.835
G1 F2700 X105.904 Y102.550 E335.63273
G0 F9000 X106.471 Y102.548
G1 F2700 X107.619 Y101.401 E335.68671
G0 F9000 X107.619 Y101.966
G1 F2700 X107.038 Y102.548 E335.71406
G0 F9000 X111.555 Y102.556
G1 F2700 X113.371 Y100.740 E335.79948
G0 F9000 X112.806 Y100.740
G1 F2700 X111.555 Y101.990 E335.85830
G0 F9000 X111.556 Y101.423
G1 F2700 X112.240 Y100.740 E335.89045
G0 F9000 X111.674 Y100.740
G1 F2700 X111.557 Y100.857 E335.89595
G0 F9000 X112.121 Y102.555
G1 F2700 X113.937 Y100.740 E335.98134
G0 F9000 X114.503 Y100.740
G1 F2700 X112.688 Y102.555 E336.06672
G0 F9000 X113.254 Y102.554
G1 F2700 X114.645 Y101.163 E336.13215
G0 F9000 X114.645 Y101.729
G1 F2700 X113.820 Y102.553 E336.17093
G0 F9000 X114.387 Y102.553
G1 F2700 X114.645 Y102.295 E336.18306
G0 F9000 X117.825 Y108.166
G1 F2700 X117.393 Y108.598 E336.20338
G0 F9000 X117.393 Y109.163
G1 F2700 X118.392 Y108.164 E336.25037
G0 F9000 X118.958 Y108.164
G1 F2700 X117.393 Y109.729 E336.32399
G0 F9000 X117.393 Y110.295
G1 F2700 X119.259 Y108.429 E336.41176
G0 F9000 X119.259 Y108.994
G1 F2700 X117.393 Y110.860 E336.49953
G0 F9000 X117.655 Y111.164
G1 F2700 X119.259 Y109.560 E336.57497
G0 F9000 X119.259 Y110.126
G1 F2700 X118.221 Y111.164 E336.62380
G0 F9000 X118.786 Y111.164
G1 F2700 X119.259 Y110.691 E336.64605
;LAYER:18
G0 F9000 X119.258 Y111.008 Z3.900
G0 X117.454 Y111.108
;TYPE:WALL-INNER
G1 F3600 X119.400 Y111.109 E336.71077
G1 X119.400 Y119.400 E336.98653
G1 X100.600 Y119.400 E337.61182
G1 X100.600 Y100.600 E338.23711
G1 X104.507 Y100.600 E338.36706
G1 X104.509 Y102.492 E338.42999
G1 X106.698 Y102.492 E338.50279
G1 X107.323 Y102.474 E338.52359
G1 X107.324 Y100.600 E338.58592
G1 X111.862 Y100.600 E338.73685
G1 X111.861 Y102.511 E338.80041
G1 X112.512 Y102.491 E338.82208
G1 X114.839 Y102.492 E338.89947
G1 X114.840 Y100.600 E338.96240
G1 X119.400 Y100.600 E339.11407
G1 X119.400 Y108.228 E339.36778
G1 X118.081 Y108.227 E339.41165
G1 X117.454 Y108.245 E339.43251
G1 X117.454 Y111.108 E339.52773
G0 F9000 X117.854 Y110.708
;TYPE:WALL-OUTER
G1 F2700 X119.800 Y110.709 E339.59246
G1 X119.800 Y119.800 E339.89483
G1 X100.200 Y119.800 E340.54672
G1 X100.200 Y100.200 E341.19862
G1 X104.906 Y100.200 E341.35514
G1 X104.908 Y102.092 E341.41807
G1 X106.692 Y102.092 E341.47741
G1 X106.923 Y102.085 E341.48510
G1 X106.924 Y100.200 E341.54779
G1 X112.262 Y100.200 E341.72533
G1 X112.261 Y102.098 E341.78846
G1 X112.499 Y102.091 E341.79638
G1 X114.439 Y102.092 E341.86091
G1 X114.440 Y100.200 E341.92383
G1 X119.800 Y100.200 E342.10211
G1 X119.800 Y108.628 E342.38242
G1 X118.086 Y108.627 E342.43943
G1 X117.854 Y108.634 E342.44715
G1 X117.854 Y110.708 E342.51613
G0 F9000 X117.845 Y111.248
;TYPE:FILL
G1 F4800 X119.259 Y112.662 E342.58264
G0 F9000 X119.259 Y114.547
G1 F4800 X107.326 Y102.614 E343.14394
G0 F9000 X107.462 Y100.865
G1 F4800 X117.313 Y110.715 E343.60727
G0 F9000 X117.313 Y108.830
G1 F4800 X109.222 Y100.740 E343.98782
G0 F9000 X111.107 Y100.740
G1 F4800 X111.721 Y101.353 E344.01668
G0 F9000 X111.922 Y102.448
G0 X112.999 Y102.631
G1 F4800 X118.454 Y108.086 E344.27327
G0 F9000 X119.259 Y107.006
G1 F4800 X114.885 Y102.632 E344.47901
G0 F9000 X114.979 Y100.841
G1 F4800 X119.259 Y105.121 E344.68033
G0 F9000 X119.259 Y103.236
G1 F4800 X116.763 Y100.740 E344.79773
G0 F9000 X118.648 Y100.740
G1 F4800 X119.259 Y101.351 E344.82647
G0 F9000 X114.780 Y102.433
G0 X111.922 Y102.448
G0 X105.459 Y102.632
G1 F4800 X119.259 Y116.432 E345.47558
G0 F9000 X119.259 Y118.318
G1 F4800 X101.681 Y100.740 E346.30239
G0 F9000 X100.739 Y101.682
G1 F4800 X118.315 Y119.259 E347.12914
G0 F9000 X116.430 Y119.259
G1 F4800 X100.739 Y103.567 E347.86722
G0 F9000 X100.739 Y105.452
G1 F4800 X114.545 Y119.259 E348.51664
G0 F9000 X112.660 Y119.259
G1 F4800 X100.739 Y107.338 E349.07736
G0 F9000 X100.739 Y109.223
G1 F4800 X110.775 Y119.259 E349.54942
G0 F9000 X108.890 Y119.259
G1 F4800 X100.739 Y111.108 E349.93282
G0 F9000 X100.739 Y112.993
G1 F4800 X107.005 Y119.259 E350.22756
G0 F9000 X105.119 Y119.259
G1 F4800 X100.739 Y114.878 E350.43360
G0 F9000 X100.739 Y116.763
G1 F4800 X103.234 Y119.259 E350.55098
G0 F9000 X101.349 Y119.259
G1 F4800 X100.739 Y118.648 E350.57970
G0 F9000 X104.367 Y101.540
G1 F4800 X103.567 Y100.740 E350.61733
;LAYER:19
G0 F9000 X104.620 Y102.492 Z4.100
;TYPE:WALL-INNER
G1 F3600 X106.753 Y102.492 E350.68827
G1 X107.442 Y102.485 E350.71119
G1 X107.442 Y100.600 E350.77388
G1 X111.740 Y100.600 E350.91684
G1 X111.738 Y102.499 E350.98000
G1 X112.430 Y102.491 E351.00302
G1 X114.713 Y102.492 E351.07895
G1 X114.713 Y100.600 E351.14188
G1 X119.400 Y100.600 E351.29777
G1 X119.400 Y108.226 E351.55141
G1 X118.157 Y108.225 E351.59275
G1 X117.454 Y108.232 E351.61613
G1 X117.454 Y111.100 E351.71152
G1 X118.148 Y111.107 E351.73461
G1 X119.400 Y111.106 E351.77625
G1 X119.400 Y119.400 E352.05211
G1 X100.600 Y119.400 E352.67740
G1 X100.600 Y100.600 E353.30269
G1 X104.618 Y100.600 E353.43633
G1 X104.620 Y102.492 E353.49926
G0 F9000 X105.019 Y102.092
;TYPE:WALL-OUTER
G1 F2700 X106.751 Y102.092 E353.55686
G1 X107.042 Y102.089 E353.56654
G1 X107.042 Y100.200 E353.62937
G1 X112.141 Y100.200 E353.79896
G1 X112.139 Y102.094 E353.86196
G1 X112.425 Y102.091 E353.87147
G1 X114.313 Y102.092 E353.93427
G1 X114.313 Y100.200 E353.99720
G1 X119.800 Y100.200 E354.17969
G1 X119.800 Y108.626 E354.45994
G1 X118.159 Y108.625 E354.51452
G1 X117.854 Y108.628 E354.52467
G1 X117.854 Y110.704 E354.59372
G1 X118.150 Y110.707 E354.60356
G1 X119.800 Y110.706 E354.65844
G1 X119.800 Y119.800 E354.96091
G1 X100.200 Y119.800 E355.61281
G1 X100.200 Y100.200 E356.26471
G1 X105.017 Y100.200 E356.42492
G1 X105.019 Y102.092 E356.48785
G0 F9000 X104.478 Y101.945
;TYPE:FILL
G1 F4800 X100.740 Y105.684 E356.66370
G0 F9000 X100.740 Y107.569
G1 F4800 X105.681 Y102.628 E356.89611
G0 F9000 X107.571 Y102.623
G1 F4800 X100.740 Y109.454 E357.21742
G0 F9000 X100.740 Y111.339
G1 F4800 X111.340 Y100.739 E357.71601
G0 F9000 X111.597 Y102.367
G1 F4800 X100.740 Y113.224 E358.22669
G0 F9000 X100.740 Y115.109
G1 F4800 X113.213 Y102.636 E358.81338
G0 F9000 X114.654 Y102.433
G0 X114.852 Y100.997
G1 F4800 X115.109 Y100.740 E358.82547
G0 F9000 X116.995 Y100.740
G1 F4800 X100.740 Y116.995 E359.59005
G0 F9000 X100.740 Y118.880
G1 F4800 X118.880 Y100.740 E360.44330
G0 F9000 X119.259 Y102.246
G1 F4800 X102.245 Y119.259 E361.24357
G0 F9000 X104.130 Y119.259
G1 F4800 X119.259 Y104.131 E361.95516
G0 F9000 X119.259 Y106.016
G1 F4800 X106.015 Y119.259 E362.57810
G0 F9000 X107.900 Y119.259
G1 F4800 X117.313 Y109.847 E363.02083
G0 F9000 X117.806 Y111.239
G1 F4800 X109.786 Y119.259 E363.39807
G0 F9000 X111.671 Y119.259
G1 F4800 X119.259 Y111.671 E363.75498
G0 F9000 X119.259 Y113.556
G1 F4800 X113.556 Y119.259 E364.02324
G0 F9000 X115.441 Y119.259
G1 F4800 X119.259 Y115.441 E364.20282
G0 F9000 X119.259 Y117.326
G1 F4800 X117.326 Y119.259 E364.29375
G0 F9000 X117.512 Y108.290
G0 X119.073 Y108.086
G1 F4800 X119.259 Y107.901 E364.30247
G0 F9000 X109.455 Y100.739
G1 F4800 X107.581 Y102.613 E364.39062
G0 F9000 X104.678 Y102.433
G0 X103.799 Y100.739
G1 F4800 X100.740 Y103.799 E364.53453
G0 F9000 X100.740 Y101.913
G1 F4800 X101.914 Y100.739 E364.58975
;LAYER:20
G0 F9000 X100.600 Y100.600 Z4.300
;TYPE:WALL-INNER
G1 F3600 X104.729 Y100.600 E364.72708
G1 X104.731 Y102.492 E364.79001
G1 X106.812 Y102.492 E364.85922
G1 X107.560 Y102.487 E364.88410
G1 X107.561 Y100.600 E364.94686
G1 X111.618 Y100.600 E365.08180
G1 X111.616 Y102.496 E365.14486
G1 X112.356 Y102.491 E365.16947
G1 X114.586 Y102.492 E365.24364
G1 X114.587 Y100.600 E365.30657
G1 X119.400 Y100.600 E365.46665
G1 X119.400 Y108.224 E365.72023
G1 X118.228 Y108.223 E365.75921
G1 X117.454 Y108.227 E365.78495
G1 X117.454 Y111.103 E365.88061
G1 X119.400 Y111.104 E365.94533
G1 X119.400 Y119.400 E366.22126
G1 X100.600 Y119.400 E366.84655
G1 X100.600 Y100.600 E367.47184
G0 F9000 X100.200 Y100.200
;TYPE:WALL-OUTER
G1 F2700 X105.128 Y100.200 E367.63575
G1 X105.130 Y102.092 E367.69868
G1 X106.811 Y102.092 E367.75459
G1 X107.160 Y102.090 E367.76619
G1 X107.161 Y100.202 E367.82899
G1 X112.019 Y100.200 E367.99057
G1 X112.017 Y102.093 E368.05353
G1 X112.353 Y102.091 E368.06470
G1 X114.186 Y102.092 E368.12567
G1 X114.187 Y100.200 E368.18860
G1 X119.800 Y100.200 E368.37529
G1 X119.800 Y108.624 E368.65547
G1 X118.229 Y108.623 E368.70772
G1 X117.854 Y108.625 E368.72019
G1 X117.854 Y110.703 E368.78931
G1 X119.800 Y110.704 E368.85403
G1 X119.800 Y119.800 E369.15657
G1 X100.200 Y119.800 E369.80847
G1 X100.200 Y100.200 E370.46036
G0 F9000 X100.500 Y100.410
G0 X101.681 Y100.740
;TYPE:FILL
G1 F4800 X119.259 Y118.318 E371.28718
G0 F9000 X118.315 Y119.259
G1 F4800 X100.739 Y101.682 E372.11392
G0 F9000 X100.739 Y103.567
G1 F4800 X116.430 Y119.259 E372.85200
G0 F9000 X114.545 Y119.259
G1 F4800 X100.739 Y105.452 E373.50142
G0 F9000 X100.739 Y107.338
G1 F4800 X112.660 Y119.259 E374.06215
G0 F9000 X110.775 Y119.259
G1 F4800 X100.739 Y109.223 E374.53421
G0 F9000 X100.739 Y111.108
G1 F4800 X108.890 Y119.259 E374.91761
G0 F9000 X107.005 Y119.259
G1 F4800 X100.739 Y112.993 E375.21234
G0 F9000 X100.739 Y114.878
G1 F4800 X105.119 Y119.259 E375.41839
G0 F9000 X103.234 Y119.259
G1 F4800 X100.739 Y116.763 E375.53577
G0 F9000 X100.739 Y118.648
G1 F4800 X101.349 Y119.259 E375.56448
G0 F9000 X105.457 Y102.630
G1 F4800 X119.259 Y116.432 E376.21369
G0 F9000 X119.259 Y114.547
G1 F4800 X107.338 Y102.626 E376.77441
G0 F9000 X107.700 Y101.102
G1 F4800 X117.313 Y110.715 E377.22658
G0 F9000 X117.840 Y111.243
G1 F4800 X119.259 Y112.662 E377.29333
G0 F9000 X117.513 Y111.044
G0 X117.313 Y108.830
G1 F4800 X109.222 Y100.740 E377.67388
G0 F9000 X111.107 Y100.740
G1 F4800 X111.476 Y101.109 E377.69124
G0 F9000 X111.676 Y102.436
G0 X113.002 Y102.635
G1 F4800 X118.453 Y108.085 E377.94761
G0 F9000 X119.259 Y107.006
G1 F4800 X114.725 Y102.472 E378.16088
G0 F9000 X114.877 Y100.740
G1 F4800 X119.259 Y105.121 E378.36697
G0 F9000 X119.259 Y103.236
G1 F4800 X116.763 Y100.740 E378.48437
G0 F9000 X118.648 Y100.740
G1 F4800 X119.259 Y101.351 E378.51311
G0 F9000 X114.527 Y102.433
G0 X111.676 Y102.436
G0 X104.789 Y102.433
G0 X104.589 Y101.762
G1 F4800 X103.567 Y100.740 E378.56118
;LAYER:21
G0 F9000 X104.842 Y102.492 Z4.500
;TYPE:WALL-INNER
G1 F3600 X106.872 Y102.492 E378.62870
G1 X107.679 Y102.488 E378.65554
G1 X107.679 Y100.600 E378.71834
G1 X111.497 Y100.600 E378.84532
G1 X111.494 Y102.495 E378.90835
G1 X112.285 Y102.491 E378.93466
G1 X114.460 Y102.492 E379.00700
G1 X114.460 Y100.600 E379.06993
G1 X119.400 Y100.600 E379.23424
G1 X119.400 Y108.222 E379.48774
G1 X118.300 Y108.221 E379.52433
G1 X117.455 Y108.224 E379.55244
G1 X117.455 Y111.101 E379.64813
G1 X119.400 Y111.102 E379.71282
G1 X119.400 Y119.400 E379.98881
G1 X100.600 Y119.400 E380.61410
G1 X100.600 Y100.600 E381.23939
G1 X104.840 Y100.600 E381.38041
G1 X104.842 Y102.492 E381.44334
G0 F9000 X105.241 Y102.092
;TYPE:WALL-OUTER
G1 F2700 X107.279 Y102.091 E381.51113
G1 X107.278 Y100.200 E381.57402
G1 X111.896 Y100.200 E381.72762
G1 X111.896 Y102.093 E381.79058
G1 X112.283 Y102.091 E381.80345
G1 X114.060 Y102.092 E381.86255
G1 X114.061 Y100.200 E381.92548
G1 X119.800 Y100.200 E382.11636
G1 X119.800 Y108.622 E382.39648
G1 X117.855 Y108.622 E382.46117
G1 X117.855 Y110.701 E382.53032
G1 X119.800 Y110.702 E382.59501
G1 X119.800 Y119.800 E382.89761
G1 X100.200 Y119.800 E383.54951
G1 X100.200 Y100.200 E384.20140
G1 X105.239 Y100.200 E384.36900
G1 X105.241 Y102.092 E384.43193
G0 F9000 X104.700 Y101.723
;TYPE:FILL
G1 F4800 X100.740 Y105.684 E384.61822
G0 F9000 X100.740 Y107.569
G1 F4800 X105.678 Y102.630 E384.85051
G0 F9000 X107.566 Y102.628
G1 F4800 X100.740 Y109.454 E385.17159
G0 F9000 X100.740 Y111.339
G1 F4800 X111.339 Y100.740 E385.67013
G0 F9000 X111.353 Y102.611
G1 F4800 X100.740 Y113.224 E386.16933
G0 F9000 X100.740 Y115.109
G1 F4800 X113.216 Y102.633 E386.75617
G0 F9000 X114.401 Y102.433
G0 X114.599 Y101.250
G1 F4800 X115.109 Y100.740 E386.78016
G0 F9000 X116.995 Y100.740
G1 F4800 X100.740 Y116.995 E387.54474
G0 F9000 X100.740 Y118.880
G1 F4800 X118.880 Y100.740 E388.39799
G0 F9000 X119.259 Y102.246
G1 F4800 X102.245 Y119.259 E389.19825
G0 F9000 X104.130 Y119.259
G1 F4800 X119.259 Y104.131 E389.90985
G0 F9000 X119.259 Y106.016
G1 F4800 X106.015 Y119.259 E390.53279
G0 F9000 X107.900 Y119.259
G1 F4800 X117.313 Y109.846 E390.97554
G0 F9000 X117.804 Y111.241
G1 F4800 X109.786 Y119.259 E391.35269
G0 F9000 X111.671 Y119.259
G1 F4800 X119.259 Y111.671 E391.70960
G0 F9000 X119.259 Y113.557
G1 F4800 X113.556 Y119.259 E391.97783
G0 F9000 X115.441 Y119.259
G1 F4800 X119.259 Y115.442 E392.15739
G0 F9000 X119.259 Y117.327
G1 F4800 X117.326 Y119.259 E392.24829
G0 F9000 X117.514 Y108.283
G0 X119.078 Y108.082
G1 F4800 X119.259 Y107.901 E392.25681
G0 F9000 X109.454 Y100.740
G1 F4800 X107.818 Y102.376 E392.33376
G0 F9000 X104.900 Y102.433
G0 X103.799 Y100.739
G1 F4800 X100.740 Y103.799 E392.47767
G0 F9000 X100.740 Y101.913
G1 F4800 X101.914 Y100.739 E392.53289
G0 F9000 X104.900 Y102.433
G0 X107.620 Y102.430
G0 X114.401 Y102.433
G0 X114.599 Y101.209
;TYPE:SKIN
G1 F2700 X114.898 Y101.193 E392.54693
G1 X114.748 Y101.908 E392.56097
G1 X114.599 Y102.340 E392.57616
;LAYER:22
G0 F9000 X114.333 Y102.492 Z4.700
;TYPE:WALL-INNER
G1 F3600 X114.334 Y100.600 E392.63909
G1 X119.400 Y100.600 E392.80759
G1 X119.400 Y108.220 E393.06103
G1 X118.371 Y108.219 E393.09526
G1 X117.455 Y108.222 E393.12572
G1 X117.455 Y111.099 E393.22141
G1 X119.400 Y111.100 E393.28610
G1 X119.400 Y119.400 E393.56216
G1 X100.600 Y119.400 E394.18745
G1 X100.600 Y100.600 E394.81274
G1 X104.951 Y100.600 E394.95746
G1 X104.953 Y102.492 E395.02039
G1 X106.932 Y102.492 E395.08621
G1 X107.797 Y102.489 E395.11498
G1 X107.798 Y100.600 E395.17781
G1 X111.375 Y100.600 E395.29678
G1 X111.372 Y102.495 E395.35981
G1 X112.215 Y102.491 E395.38784
G1 X114.333 Y102.492 E395.45829
G0 F9000 X113.933 Y102.091
;TYPE:WALL-OUTER
G1 F2700 X113.935 Y100.200 E395.52118
G1 X119.800 Y100.200 E395.71625
G1 X119.800 Y108.620 E395.99630
G1 X117.855 Y108.620 E396.06100
G1 X117.855 Y110.699 E396.13014
G1 X119.800 Y110.700 E396.19483
G1 X119.800 Y119.800 E396.49750
G1 X100.200 Y119.800 E397.14940
G1 X100.200 Y100.200 E397.80130
G1 X105.350 Y100.200 E397.97259
G1 X105.352 Y102.092 E398.03552
G1 X107.397 Y102.091 E398.10353
G1 X107.397 Y100.200 E398.16643
G1 X111.774 Y100.200 E398.31201
G1 X111.774 Y102.093 E398.37497
G1 X113.933 Y102.091 E398.44678
G0 F9000 X114.472 Y102.219
;TYPE:FILL
G1 F4800 X119.259 Y107.006 E398.67194
G0 F9000 X118.448 Y108.080
G1 F4800 X113.002 Y102.634 E398.92811
G0 F9000 X111.431 Y102.435
G0 X111.234 Y100.866
G1 F4800 X111.107 Y100.740 E398.93406
G0 F9000 X109.222 Y100.740
G1 F4800 X117.314 Y108.832 E399.31468
G0 F9000 X117.314 Y110.717
G1 F4800 X107.936 Y101.339 E399.75579
G0 F9000 X107.341 Y102.629
G1 F4800 X119.259 Y114.547 E400.31638
G0 F9000 X119.259 Y116.432
G1 F4800 X105.458 Y102.631 E400.96554
G0 F9000 X104.811 Y101.984
G1 F4800 X103.567 Y100.740 E401.02405
G0 F9000 X101.681 Y100.740
G1 F4800 X119.259 Y118.318 E401.85086
G0 F9000 X118.315 Y119.259
G1 F4800 X100.739 Y101.682 E402.67761
G0 F9000 X100.739 Y103.567
G1 F4800 X116.430 Y119.259 E403.41569
G0 F9000 X114.545 Y119.259
G1 F4800 X100.739 Y105.452 E404.06511
G0 F9000 X100.739 Y107.338
G1 F4800 X112.660 Y119.259 E404.62583
G0 F9000 X110.775 Y119.259
G1 F4800 X100.739 Y109.223 E405.09790
G0 F9000 X100.739 Y111.108
G1 F4800 X108.890 Y119.259 E405.48129
G0 F9000 X107.005 Y119.259
G1 F4800 X100.739 Y112.993 E405.77603
G0 F9000 X100.739 Y114.878
G1 F4800 X105.119 Y119.259 E405.98207
G0 F9000 X103.234 Y119.259
G1 F4800 X100.739 Y116.763 E406.09945
G0 F9000 X100.739 Y118.648
G1 F4800 X101.349 Y119.259 E406.12817
G0 F9000 X117.837 Y111.239
G1 F4800 X119.259 Y112.662 E406.19508
G0 F9000 X117.514 Y111.040
G0 X117.514 Y108.280
G0 X119.259 Y105.121
G1 F4800 X114.877 Y100.740 E406.40117
G0 F9000 X116.763 Y100.740
G1 F4800 X119.259 Y103.236 E406.51858
G0 F9000 X119.259 Y101.351
G1 F4800 X118.648 Y100.740 E406.54731
G0 F9000 X114.771 Y100.912
;TYPE:SKIN
G1 F2700 X114.535 Y100.959 E406.55542
G1 X114.621 Y101.611 E406.56942
G1 X114.621 Y102.176 E406.58342
G1 X114.713 Y102.551 E406.59626
;LAYER:23
G0 F9000 X114.207 Y102.492 Z4.900
;TYPE:WALL-INNER
G1 F3600 X114.207 Y100.600 E406.65919
G1 X119.400 Y100.600 E406.83191
G1 X119.400 Y108.218 E407.08528
G1 X118.441 Y108.217 E407.11718
G1 X117.455 Y108.220 E407.14997
G1 X117.455 Y111.097 E407.24566
G1 X119.400 Y111.098 E407.31036
G1 X119.400 Y119.400 E407.58648
G1 X100.600 Y119.400 E408.21177
G1 X100.600 Y100.600 E408.83706
G1 X105.062 Y100.600 E408.98547
G1 X105.064 Y102.492 E409.04840
G1 X106.993 Y102.492 E409.11256
G1 X107.916 Y102.489 E409.14325
G1 X107.916 Y100.600 E409.20608
G1 X111.253 Y100.600 E409.31707
G1 X111.252 Y102.494 E409.38007
G1 X112.144 Y102.491 E409.40974
G1 X114.207 Y102.492 E409.47835
G0 F9000 X113.807 Y102.091
;TYPE:WALL-OUTER
G1 F2700 X113.808 Y100.200 E409.54125
G1 X119.800 Y100.200 E409.74054
G1 X119.800 Y108.618 E410.02052
G1 X117.855 Y108.618 E410.08522
G1 X117.855 Y110.697 E410.15436
G1 X119.800 Y110.698 E410.21905
G1 X119.800 Y119.800 E410.52179
G1 X100.200 Y119.800 E411.17369
G1 X100.200 Y100.200 E411.82559
G1 X105.461 Y100.200 E412.00057
G1 X105.463 Y102.092 E412.06349
G1 X107.516 Y102.091 E412.13178
G1 X107.515 Y100.200 E412.19467
G1 X111.652 Y100.200 E412.33227
G1 X111.652 Y102.093 E412.39523
G1 X113.807 Y102.091 E412.46691
G0 F9000 X114.346 Y101.503
;TYPE:FILL
G1 F4800 X115.109 Y100.740 E412.50280
G0 F9000 X116.995 Y100.740
G1 F4800 X100.740 Y116.995 E413.26738
G0 F9000 X100.740 Y118.880
G1 F4800 X118.880 Y100.740 E414.12063
G0 F9000 X119.259 Y102.246
G1 F4800 X102.245 Y119.259 E414.92089
G0 F9000 X104.130 Y119.259
G1 F4800 X119.259 Y104.131 E415.63249
G0 F9000 X119.259 Y106.016
G1 F4800 X106.015 Y119.259 E416.25543
G0 F9000 X107.900 Y119.259
G1 F4800 X117.313 Y109.846 E416.69819
G0 F9000 X117.808 Y111.237
G1 F4800 X109.786 Y119.259 E417.07552
G0 F9000 X111.671 Y119.259
G1 F4800 X119.259 Y111.671 E417.43243
G0 F9000 X119.259 Y113.557
G1 F4800 X113.556 Y119.259 E417.70066
G0 F9000 X115.441 Y119.259
G1 F4800 X119.259 Y115.442 E417.88022
G0 F9000 X119.259 Y117.327
G1 F4800 X117.326 Y119.259 E417.97112
G0 F9000 X117.514 Y108.278
G0 X119.081 Y108.079
G1 F4800 X119.259 Y107.901 E417.97949
G0 F9000 X113.218 Y102.631
G1 F4800 X100.740 Y115.109 E418.56642
G0 F9000 X100.740 Y113.224
G1 F4800 X111.331 Y102.633 E419.06459
G0 F9000 X111.111 Y100.968
G1 F4800 X100.740 Y111.339 E419.55241
G0 F9000 X100.740 Y109.454
G1 F4800 X107.565 Y102.628 E419.87346
G0 F9000 X108.055 Y102.138
G1 F4800 X109.454 Y100.740 E419.93924
G0 F9000 X107.857 Y102.431
G0 X105.678 Y102.630
G1 F4800 X100.740 Y107.569 E420.17153
G0 F9000 X100.740 Y105.684
G1 F4800 X104.921 Y101.502 E420.36822
G0 F9000 X103.799 Y100.739
G1 F4800 X100.740 Y103.799 E420.51213
G0 F9000 X100.740 Y101.913
G1 F4800 X101.914 Y100.739 E420.56735
G0 F9000 X105.122 Y102.433
G0 X107.857 Y102.431
G0 X114.148 Y102.433
G0 X114.346 Y100.897
;TYPE:SKIN
G1 F2700 X114.574 Y100.951 E420.57473
G1 X114.495 Y101.595 E420.58876
G1 X114.495 Y102.161 E420.60278
G1 X114.387 Y102.552 E420.61628
;LAYER:24
G0 F9000 X114.080 Y102.493 Z5.100
;TYPE:WALL-INNER
G1 F3600 X114.081 Y100.600 E420.67924
G1 X119.400 Y100.600 E420.85615
G1 X119.400 Y108.215 E421.10942
G1 X117.458 Y108.215 E421.17402
G1 X117.455 Y109.208 E421.20704
G1 X117.456 Y111.095 E421.26981
G1 X119.400 Y111.096 E421.33446
G1 X119.400 Y119.400 E421.61066
G1 X100.600 Y119.400 E422.23595
G1 X100.600 Y100.600 E422.86124
G1 X105.173 Y100.600 E423.01333
G1 X105.175 Y102.493 E423.07630
G1 X107.053 Y102.493 E423.13876
G1 X108.034 Y102.490 E423.17139
G1 X108.035 Y100.600 E423.23425
G1 X111.131 Y100.600 E423.33722
G1 X111.130 Y102.495 E423.40025
G1 X112.073 Y102.492 E423.43161
G1 X114.080 Y102.493 E423.49837
G0 F9000 X113.680 Y102.092
;TYPE:WALL-OUTER
G1 F2700 X113.682 Y100.200 E423.56130
G1 X119.800 Y100.200 E423.76478
G1 X119.800 Y108.615 E424.04467
G1 X117.857 Y108.615 E424.10929
G1 X117.855 Y110.695 E424.17847
G1 X119.800 Y110.696 E424.24316
G1 X119.800 Y119.800 E424.54596
G1 X100.200 Y119.800 E425.19786
G1 X100.200 Y100.200 E425.84976
G1 X105.572 Y100.200 E426.02843
G1 X105.574 Y102.093 E426.09139
G1 X107.634 Y102.092 E426.15991
G1 X107.634 Y100.200 E426.22284
G1 X111.531 Y100.200 E426.35245
G1 X111.530 Y102.094 E426.41545
G1 X113.680 Y102.092 E426.48696
G0 F9000 X114.218 Y101.966
;TYPE:FILL
G1 F4800 X119.259 Y107.006 E426.72405
G0 F9000 X118.442 Y108.074
G1 F4800 X113.001 Y102.633 E426.97997
G0 F9000 X111.118 Y102.635
G1 F4800 X117.317 Y108.835 E427.27158
G0 F9000 X117.315 Y110.718
G1 F4800 X108.173 Y101.576 E427.70159
G0 F9000 X109.222 Y100.740
G1 F4800 X110.990 Y102.507 E427.78473
G0 F9000 X107.343 Y102.630
G1 F4800 X119.259 Y114.547 E428.34525
G0 F9000 X119.259 Y116.432
G1 F4800 X105.460 Y102.633 E428.99431
G0 F9000 X105.034 Y102.207
G1 F4800 X103.567 Y100.740 E429.06331
G0 F9000 X101.681 Y100.740
G1 F4800 X119.259 Y118.318 E429.89013
G0 F9000 X118.315 Y119.259
G1 F4800 X100.739 Y101.682 E430.71687
G0 F9000 X100.739 Y103.567
G1 F4800 X116.430 Y119.259 E431.45495
G0 F9000 X114.545 Y119.259
G1 F4800 X100.739 Y105.452 E432.10437
G0 F9000 X100.739 Y107.338
G1 F4800 X112.660 Y119.259 E432.66509
G0 F9000 X110.775 Y119.259
G1 F4800 X100.739 Y109.223 E433.13716
G0 F9000 X100.739 Y111.108
G1 F4800 X108.890 Y119.259 E433.52055
G0 F9000 X107.005 Y119.259
G1 F4800 X100.739 Y112.993 E433.81529
G0 F9000 X100.739 Y114.878
G1 F4800 X105.119 Y119.259 E434.02133
G0 F9000 X103.234 Y119.259
G1 F4800 X100.739 Y116.763 E434.13871
G0 F9000 X100.739 Y118.648
G1 F4800 X101.349 Y119.259 E434.16743
G0 F9000 X117.832 Y111.235
G1 F4800 X119.259 Y112.662 E434.23455
G0 F9000 X117.515 Y111.036
G0 X117.516 Y108.274
G0 X119.259 Y105.121
G1 F4800 X114.877 Y100.740 E434.44064
G0 F9000 X116.763 Y100.740
G1 F4800 X119.259 Y103.236 E434.55805
G0 F9000 X119.259 Y101.351
G1 F4800 X118.648 Y100.740 E434.58679
G0 F9000 X114.519 Y101.225
;TYPE:SKIN
G1 F2700 X114.219 Y101.208 E434.60088
G1 X114.368 Y101.923 E434.61497
G1 X114.519 Y102.357 E434.63025
;LAYER:25
G0 F9000 X113.954 Y102.493 Z5.300
;TYPE:WALL-INNER
G1 F3600 X113.954 Y100.600 E434.69321
G1 X119.400 Y100.600 E434.87435
G1 X119.400 Y108.213 E435.12756
G1 X118.584 Y108.212 E435.15470
G1 X117.456 Y108.214 E435.19222
G1 X117.456 Y111.092 E435.28794
G1 X118.576 Y111.094 E435.32519
G1 X119.400 Y111.093 E435.35260
G1 X119.400 Y119.400 E435.62889
G1 X100.600 Y119.400 E436.25418
G1 X100.600 Y100.600 E436.87947
G1 X105.284 Y100.600 E437.03526
G1 X105.286 Y102.493 E437.09822
G1 X107.114 Y102.493 E437.15902
G1 X108.153 Y102.491 E437.19358
G1 X108.154 Y100.600 E437.25647
G1 X111.009 Y100.600 E437.35143
G1 X111.008 Y102.495 E437.41446
G1 X112.003 Y102.492 E437.44755
G1 X113.954 Y102.493 E437.51244
G0 F9000 X113.554 Y102.092
;TYPE:WALL-OUTER
G1 F2700 X113.556 Y100.200 E437.57537
G1 X119.800 Y100.200 E437.78305
G1 X119.800 Y108.613 E438.06287
G1 X117.856 Y108.613 E438.12752
G1 X117.856 Y110.693 E438.19670
G1 X119.800 Y110.693 E438.26136
G1 X119.800 Y119.800 E438.56426
G1 X100.200 Y119.800 E439.21616
G1 X100.200 Y100.200 E439.86806
G1 X105.683 Y100.200 E440.05042
G1 X105.685 Y102.093 E440.11339
G1 X107.753 Y102.092 E440.18217
G1 X107.752 Y100.200 E440.24510
G1 X111.409 Y100.200 E440.36673
G1 X111.408 Y102.094 E440.42972
G1 X113.554 Y102.092 E440.50110
G0 F9000 X114.093 Y101.756
;TYPE:FILL
G1 F4800 X115.109 Y100.740 E440.54889
G0 F9000 X116.995 Y100.740
G1 F4800 X100.740 Y116.995 E441.31347
G0 F9000 X100.740 Y118.880
G1 F4800 X118.880 Y100.740 E442.16672
G0 F9000 X119.259 Y102.246
G1 F4800 X102.245 Y119.259 E442.96699
G0 F9000 X104.130 Y119.259
G1 F4800 X119.259 Y104.131 E443.67859
G0 F9000 X119.259 Y106.016
G1 F4800 X106.015 Y119.259 E444.30152
G0 F9000 X107.900 Y119.259
G1 F4800 X117.315 Y109.845 E444.74435
G0 F9000 X117.814 Y111.231
G1 F4800 X109.786 Y119.259 E445.12196
G0 F9000 X111.671 Y119.259
G1 F4800 X119.259 Y111.671 E445.47888
G0 F9000 X119.259 Y113.557
G1 F4800 X113.556 Y119.259 E445.74710
G0 F9000 X115.441 Y119.259
G1 F4800 X119.259 Y115.442 E445.92667
G0 F9000 X119.259 Y117.327
G1 F4800 X117.326 Y119.259 E446.01757
G0 F9000 X117.515 Y108.273
G0 X119.087 Y108.073
G1 F4800 X119.259 Y107.901 E446.02566
G0 F9000 X113.216 Y102.633
G1 F4800 X100.740 Y115.109 E446.61249
G0 F9000 X100.740 Y113.224
G1 F4800 X111.329 Y102.635 E447.11056
G0 F9000 X110.867 Y101.211
G1 F4800 X100.740 Y111.339 E447.58693
G0 F9000 X100.740 Y109.454
G1 F4800 X107.563 Y102.630 E447.90789
G0 F9000 X108.292 Y101.901
G1 F4800 X109.454 Y100.740 E447.96252
G0 F9000 X108.094 Y102.433
G0 X105.677 Y102.632
G1 F4800 X100.740 Y107.569 E448.19474
G0 F9000 X100.740 Y105.684
G1 F4800 X105.143 Y101.281 E448.40185
G0 F9000 X103.799 Y100.739
G1 F4800 X100.740 Y103.799 E448.54576
G0 F9000 X100.740 Y101.913
G1 F4800 X101.914 Y100.739 E448.60098
G0 F9000 X105.344 Y102.434
G0 X108.094 Y102.433
G0 X113.895 Y102.434
G0 X114.093 Y101.150
;TYPE:SKIN
G1 F2700 X114.392 Y101.133 E448.61502
G1 X114.242 Y101.848 E448.62905
G1 X114.093 Y102.281 E448.64428
;LAYER:26
G0 F9000 X113.827 Y102.493 Z5.500
;TYPE:WALL-INNER
G1 F3600 X113.829 Y100.600 E448.70725
G1 X119.400 Y100.600 E448.89254
G1 X119.400 Y108.211 E449.14568
G1 X118.654 Y108.210 E449.17049
G1 X117.456 Y108.212 E449.21034
G1 X117.456 Y111.090 E449.30606
G1 X118.646 Y111.092 E449.34564
G1 X119.400 Y111.091 E449.37072
G1 X119.400 Y119.400 E449.64708
G1 X100.600 Y119.400 E450.27237
G1 X100.600 Y100.600 E450.89766
G1 X105.394 Y100.600 E451.05711
G1 X105.396 Y102.493 E451.12007
G1 X107.174 Y102.493 E451.17921
G1 X108.271 Y102.491 E451.21569
G1 X108.272 Y100.666 E451.27639
G1 X108.272 Y100.600 E451.27859
G1 X110.887 Y100.600 E451.36556
G1 X110.886 Y102.494 E451.42856
G1 X111.932 Y102.492 E451.46335
G1 X113.827 Y102.493 E451.52638
G0 F9000 X113.427 Y102.093
;TYPE:WALL-OUTER
G1 F2700 X113.429 Y100.200 E451.58934
G1 X119.800 Y100.200 E451.80124
G1 X119.800 Y108.611 E452.08099
G1 X117.856 Y108.611 E452.14565
G1 X117.856 Y110.691 E452.21483
G1 X119.800 Y110.691 E452.27948
G1 X119.800 Y119.800 E452.58245
G1 X100.200 Y119.800 E453.23435
G1 X100.200 Y100.200 E453.88625
G1 X105.794 Y100.200 E454.07231
G1 X105.796 Y102.093 E454.13527
G1 X107.871 Y102.092 E454.20428
G1 X107.871 Y100.200 E454.26721
G1 X111.287 Y100.200 E454.38083
G1 X111.286 Y102.093 E454.44379
G1 X113.427 Y102.093 E454.51500
G0 F9000 X113.967 Y101.714
;TYPE:FILL
G1 F4800 X119.259 Y107.006 E454.76392
G0 F9000 X118.438 Y108.071
G1 F4800 X113.001 Y102.633 E455.01968
G0 F9000 X111.116 Y102.633
G1 F4800 X117.315 Y108.832 E455.31126
G0 F9000 X117.315 Y110.718
G1 F4800 X108.410 Y101.813 E455.73013
G0 F9000 X107.344 Y102.632
G1 F4800 X119.259 Y114.547 E456.29057
G0 F9000 X119.259 Y116.432
G1 F4800 X105.460 Y102.633 E456.93963
G0 F9000 X105.254 Y102.427
G1 F4800 X103.567 Y100.740 E457.01899
G0 F9000 X101.681 Y100.740
G1 F4800 X119.259 Y118.318 E457.84580
G0 F9000 X118.315 Y119.259
G1 F4800 X100.739 Y101.682 E458.67255
G0 F9000 X100.739 Y103.567
G1 F4800 X116.430 Y119.259 E459.41063
G0 F9000 X114.545 Y119.259
G1 F4800 X100.739 Y105.452 E460.06004
G0 F9000 X100.739 Y107.338
G1 F4800 X112.660 Y119.259 E460.62077
G0 F9000 X110.775 Y119.259
G1 F4800 X100.739 Y109.223 E461.09283
G0 F9000 X100.739 Y111.108
G1 F4800 X108.890 Y119.259 E461.47623
G0 F9000 X107.005 Y119.259
G1 F4800 X100.739 Y112.993 E461.77096
G0 F9000 X100.739 Y114.878
G1 F4800 X105.119 Y119.259 E461.97701
G0 F9000 X103.234 Y119.259
G1 F4800 X100.739 Y116.763 E462.09439
G0 F9000 X100.739 Y118.648
G1 F4800 X101.349 Y119.259 E462.12310
G0 F9000 X117.828 Y111.230
G1 F4800 X119.259 Y112.662 E462.19044
G0 F9000 X117.515 Y111.031
G0 X117.515 Y108.270
G0 X119.259 Y105.121
G1 F4800 X114.877 Y100.740 E462.39653
G0 F9000 X116.763 Y100.740
G1 F4800 X119.259 Y103.236 E462.51393
G0 F9000 X119.259 Y101.351
G1 F4800 X118.648 Y100.740 E462.54267
G0 F9000 X113.768 Y102.434
G0 X110.945 Y102.435
G0 X110.746 Y102.263
G1 F4800 X109.222 Y100.740 E462.61433
G0 F9000 X110.945 Y102.435
G0 X113.768 Y102.434
G0 X113.967 Y101.240
;TYPE:SKIN
G1 F2700 X114.116 Y101.671 E462.62836
G1 X114.116 Y102.236 E462.64241
G1 X114.148 Y102.552 E462.65298
G0 F9000 X114.266 Y100.972
G1 F2700 X114.033 Y100.740 E462.66391
;LAYER:27
G0 F9000 X113.701 Y102.493 Z5.700
;TYPE:WALL-INNER
G1 F3600 X113.701 Y100.600 E462.72687
G1 X119.400 Y100.600 E462.91642
G1 X119.400 Y108.209 E463.16950
G1 X118.725 Y108.208 E463.19195
G1 X117.458 Y108.210 E463.23409
G1 X117.456 Y109.385 E463.27317
G1 X117.458 Y111.087 E463.32978
G1 X119.400 Y111.089 E463.39437
G1 X119.400 Y119.400 E463.67080
G1 X100.600 Y119.400 E464.29609
G1 X100.600 Y100.600 E464.92138
G1 X105.505 Y100.600 E465.08452
G1 X105.507 Y102.493 E465.14748
G1 X107.235 Y102.493 E465.20495
G1 X108.389 Y102.491 E465.24334
G1 X108.391 Y100.743 E465.30147
G1 X108.391 Y100.600 E465.30623
G1 X110.766 Y100.600 E465.38522
G1 X110.763 Y102.494 E465.44822
G1 X111.862 Y102.492 E465.48477
G1 X113.701 Y102.493 E465.54594
G0 F9000 X113.301 Y102.093
;TYPE:WALL-OUTER
G1 F2700 X113.303 Y100.200 E465.60890
G1 X119.800 Y100.200 E465.82499
G1 X119.800 Y108.609 E466.10467
G1 X117.857 Y108.609 E466.16930
G1 X117.857 Y110.688 E466.23845
G1 X119.800 Y110.689 E466.30307
G1 X119.800 Y119.800 E466.60610
G1 X100.200 Y119.800 E467.25800
G1 X100.200 Y100.200 E467.90990
G1 X105.905 Y100.200 E468.09965
G1 X105.907 Y102.093 E468.16261
G1 X107.990 Y102.092 E468.23189
G1 X107.989 Y100.200 E468.29482
G1 X111.165 Y100.200 E468.40045
G1 X111.164 Y102.093 E468.46342
G1 X113.301 Y102.093 E468.53449
G0 F9000 X113.840 Y102.009
;TYPE:FILL
G1 F4800 X115.109 Y100.740 E468.59418
G0 F9000 X116.995 Y100.740
G1 F4800 X100.740 Y116.995 E469.35877
G0 F9000 X100.740 Y118.880
G1 F4800 X118.880 Y100.740 E470.21202
G0 F9000 X119.259 Y102.246
G1 F4800 X102.245 Y119.259 E471.01228
G0 F9000 X104.130 Y119.259
G1 F4800 X119.259 Y104.131 E471.72388
G0 F9000 X119.259 Y106.016
G1 F4800 X106.015 Y119.259 E472.34681
G0 F9000 X107.900 Y119.259
G1 F4800 X117.316 Y109.844 E472.78969
G0 F9000 X117.818 Y111.227
G1 F4800 X109.786 Y119.259 E473.16749
G0 F9000 X111.671 Y119.259
G1 F4800 X119.259 Y111.671 E473.52441
G0 F9000 X119.259 Y113.557
G1 F4800 X113.556 Y119.259 E473.79263
G0 F9000 X115.441 Y119.259
G1 F4800 X119.259 Y115.442 E473.97220
G0 F9000 X119.259 Y117.327
G1 F4800 X117.326 Y119.259 E474.06310
G0 F9000 X117.517 Y108.268
G0 X119.091 Y108.069
G1 F4800 X119.259 Y107.901 E474.07100
G0 F9000 X113.216 Y102.633
G1 F4800 X100.740 Y115.109 E474.65783
G0 F9000 X100.740 Y113.224
G1 F4800 X111.331 Y102.633 E475.15600
G0 F9000 X110.624 Y101.455
G1 F4800 X100.740 Y111.339 E475.62091
G0 F9000 X100.740 Y109.454
G1 F4800 X107.563 Y102.630 E475.94187
G0 F9000 X108.529 Y101.664
G1 F4800 X109.455 Y100.739 E475.98540
G0 F9000 X108.331 Y102.433
G0 X105.566 Y102.434
G0 X105.364 Y101.059
G1 F4800 X100.740 Y105.684 E476.20292
G0 F9000 X100.740 Y107.569
G1 F4800 X105.677 Y102.632 E476.43515
G0 F9000 X103.799 Y100.739
G1 F4800 X100.740 Y103.799 E476.57906
G0 F9000 X100.740 Y101.913
G1 F4800 X101.914 Y100.739 E476.63428
G0 F9000 X105.566 Y102.434
G0 X108.331 Y102.433
G0 X113.642 Y102.434
G0 X113.839 Y100.837
;TYPE:SKIN
G1 F2700 X114.038 Y100.921 E476.63882
G1 X113.989 Y101.536 E476.65293
G1 X113.989 Y102.101 E476.66702
G1 X113.839 Y102.534 E476.68226
;LAYER:28
G0 F9000 X113.575 Y102.494 Z5.900
;TYPE:WALL-INNER
G1 F3600 X113.576 Y100.600 E476.74526
G1 X119.400 Y100.600 E476.93896
G1 X119.400 Y108.207 E477.19197
G1 X118.796 Y108.206 E477.21206
G1 X117.457 Y108.208 E477.25660
G1 X117.457 Y111.085 E477.35229
G1 X119.400 Y111.087 E477.41691
G1 X119.400 Y119.400 E477.69340
G1 X100.600 Y119.400 E478.31870
G1 X100.600 Y100.600 E478.94399
G1 X105.617 Y100.600 E479.11085
G1 X105.619 Y102.493 E479.17381
G1 X108.509 Y102.492 E479.26993
G1 X108.508 Y100.600 E479.33286
G1 X110.644 Y100.600 E479.40391
G1 X110.641 Y102.494 E479.46690
G1 X111.790 Y102.492 E479.50512
G1 X113.575 Y102.494 E479.56449
G0 F9000 X113.175 Y102.093
;TYPE:WALL-OUTER
G1 F2700 X113.176 Y100.200 E479.62745
G1 X119.800 Y100.200 E479.84776
G1 X119.800 Y108.607 E480.12738
G1 X117.857 Y108.607 E480.19201
G1 X117.857 Y110.686 E480.26115
G1 X119.800 Y110.687 E480.32578
G1 X119.800 Y119.800 E480.62888
G1 X100.200 Y119.800 E481.28078
G1 X100.200 Y100.200 E481.93268
G1 X106.016 Y100.200 E482.12612
G1 X106.018 Y102.093 E482.18908
G1 X108.109 Y102.092 E482.25862
G1 X108.108 Y100.200 E482.32155
G1 X111.043 Y100.200 E482.41917
G1 X111.042 Y102.093 E482.48213
G1 X113.175 Y102.093 E482.55308
G0 F9000 X113.002 Y102.634
;TYPE:FILL
G1 F4800 X118.434 Y108.067 E482.80860
G0 F9000 X119.259 Y107.006
G1 F4800 X113.714 Y101.462 E483.06940
G0 F9000 X114.877 Y100.740
G1 F4800 X119.259 Y105.121 E483.27549
G0 F9000 X119.259 Y103.236
G1 F4800 X116.763 Y100.740 E483.39290
G0 F9000 X118.648 Y100.740
G1 F4800 X119.259 Y101.351 E483.42164
G0 F9000 X117.316 Y108.834
G1 F4800 X111.116 Y102.634 E483.71327
G0 F9000 X110.501 Y102.019
G1 F4800 X109.222 Y100.740 E483.77343
G0 F9000 X108.647 Y102.050
G1 F4800 X117.316 Y110.719 E484.18119
G0 F9000 X117.823 Y111.225
G1 F4800 X119.259 Y112.662 E484.24876
G0 F9000 X119.259 Y114.547
G1 F4800 X107.345 Y102.633 E484.80916
G0 F9000 X105.678 Y102.434
G0 X103.567 Y100.740
G1 F4800 X119.259 Y116.432 E485.54726
G0 F9000 X119.259 Y118.318
G1 F4800 X101.681 Y100.740 E486.37407
G0 F9000 X100.739 Y101.682
G1 F4800 X118.315 Y119.259 E487.20082
G0 F9000 X116.430 Y119.259
G1 F4800 X100.739 Y103.567 E487.93890
G0 F9000 X100.739 Y105.452
G1 F4800 X114.545 Y119.259 E488.58831
G0 F9000 X112.660 Y119.259
G1 F4800 X100.739 Y107.338 E489.14904
G0 F9000 X100.739 Y109.223
G1 F4800 X110.775 Y119.259 E489.62110
G0 F9000 X108.890 Y119.259
G1 F4800 X100.739 Y111.108 E490.00450
G0 F9000 X100.739 Y112.993
G1 F4800 X107.005 Y119.259 E490.29924
G0 F9000 X105.119 Y119.259
G1 F4800 X100.739 Y114.878 E490.50528
G0 F9000 X100.739 Y116.763
G1 F4800 X103.234 Y119.259 E490.62266
G0 F9000 X101.349 Y119.259
G1 F4800 X100.739 Y118.648 E490.65138
G0 F9000 X114.013 Y102.417
;TYPE:SKIN
G1 F2700 X113.863 Y101.984 E490.66544
G1 X113.863 Y101.418 E490.67946
G1 X113.714 Y100.986 E490.69466
;LAYER:29
G0 F9000 X113.448 Y102.494 Z6.100
;TYPE:WALL-INNER
G1 F3600 X113.448 Y100.600 E490.75766
G1 X119.400 Y100.600 E490.95562
G1 X119.400 Y108.204 E491.20853
G1 X117.457 Y108.204 E491.27316
G1 X117.457 Y111.083 E491.36891
G1 X119.400 Y111.085 E491.43354
G1 X119.400 Y119.400 E491.71009
G1 X100.600 Y119.400 E492.33538
G1 X100.600 Y100.600 E492.96068
G1 X105.728 Y100.600 E493.13123
G1 X105.730 Y102.493 E493.19419
G1 X108.626 Y102.492 E493.29052
G1 X108.628 Y100.899 E493.34350
G1 X108.627 Y100.600 E493.35344
G1 X110.522 Y100.600 E493.41647
G1 X110.520 Y102.494 E493.47947
G1 X111.720 Y102.492 E493.51938
G1 X113.448 Y102.494 E493.57685
G0 F9000 X113.048 Y102.093
;TYPE:WALL-OUTER
G1 F2700 X113.050 Y100.200 E493.63981
G1 X119.800 Y100.200 E493.86432
G1 X119.800 Y108.604 E494.14384
G1 X117.857 Y108.604 E494.20846
G1 X117.857 Y110.684 E494.27764
G1 X119.800 Y110.685 E494.34227
G1 X119.800 Y119.800 E494.64543
G1 X100.200 Y119.800 E495.29733
G1 X100.200 Y100.200 E495.94923
G1 X106.127 Y100.200 E496.14636
G1 X106.129 Y102.093 E496.20933
G1 X108.227 Y102.092 E496.27911
G1 X108.226 Y100.200 E496.34203
G1 X110.921 Y100.200 E496.43167
G1 X110.921 Y102.093 E496.49463
G1 X113.048 Y102.093 E496.56538
G0 F9000 X113.587 Y102.262
;TYPE:FILL
G1 F4800 X115.109 Y100.740 E496.63697
G0 F9000 X116.995 Y100.740
G1 F4800 X100.740 Y116.995 E497.40155
G0 F9000 X100.740 Y118.880
G1 F4800 X118.880 Y100.740 E498.25480
G0 F9000 X119.259 Y102.246
G1 F4800 X102.245 Y119.259 E499.05506
G0 F9000 X104.130 Y119.259
G1 F4800 X119.259 Y104.131 E499.76666
G0 F9000 X119.259 Y106.016
G1 F4800 X106.015 Y119.259 E500.38960
G0 F9000 X107.900 Y119.259
G1 F4800 X117.316 Y109.844 E500.83247
G0 F9000 X117.823 Y111.222
G1 F4800 X109.786 Y119.259 E501.21051
G0 F9000 X111.671 Y119.259
G1 F4800 X119.259 Y111.671 E501.56742
G0 F9000 X119.259 Y113.557
G1 F4800 X113.556 Y119.259 E501.83565
G0 F9000 X115.441 Y119.259
G1 F4800 X119.259 Y115.442 E502.01522
G0 F9000 X119.259 Y117.327
G1 F4800 X117.326 Y119.259 E502.10612
G0 F9000 X117.516 Y108.263
G0 X119.096 Y108.064
G1 F4800 X119.259 Y107.901 E502.11378
G0 F9000 X113.216 Y102.633
G1 F4800 X100.740 Y115.109 E502.70061
G0 F9000 X100.740 Y113.224
G1 F4800 X111.331 Y102.633 E503.19878
G0 F9000 X110.379 Y101.700
G1 F4800 X100.740 Y111.339 E503.65217
G0 F9000 X100.740 Y109.454
G1 F4800 X107.562 Y102.631 E503.97308
G0 F9000 X108.568 Y102.433
G0 X108.765 Y101.428
G1 F4800 X109.454 Y100.740 E504.00547
G0 F9000 X108.568 Y102.433
G0 X105.789 Y102.434
G0 X105.587 Y100.836
G1 F4800 X100.740 Y105.684 E504.23348
G0 F9000 X100.740 Y107.569
G1 F4800 X105.677 Y102.632 E504.46570
G0 F9000 X103.799 Y100.739
G1 F4800 X100.740 Y103.799 E504.60961
G0 F9000 X100.740 Y101.913
G1 F4800 X101.914 Y100.739 E504.66483
G0 F9000 X105.789 Y102.434
G0 X108.568 Y102.433
G0 X113.389 Y102.434
G0 X113.586 Y101.090
;TYPE:SKIN
G1 F2700 X113.887 Y101.072 E504.67895
G1 X113.736 Y101.789 E504.69308
G1 X113.736 Y102.355 E504.70715
G1 X113.821 Y102.553 E504.71432
;LAYER:30
G0 F9000 X113.322 Y102.494 Z6.300
;TYPE:WALL-INNER
G1 F3600 X113.323 Y100.600 E504.77731
G1 X119.400 Y100.600 E504.97944
G1 X119.400 Y108.202 E505.23228
G1 X117.459 Y108.202 E505.29684
G1 X117.457 Y109.561 E505.34204
G1 X117.459 Y111.081 E505.39259
G1 X118.929 Y111.083 E505.44149
G1 X119.400 Y111.083 E505.45715
G1 X119.400 Y119.400 E505.73378
G1 X100.600 Y119.400 E506.35907
G1 X100.600 Y100.600 E506.98436
G1 X105.839 Y100.600 E507.15861
G1 X105.841 Y102.493 E507.22157
G1 X108.746 Y102.493 E507.31819
G1 X108.745 Y100.600 E507.38115
G1 X110.400 Y100.600 E507.43620
G1 X110.399 Y102.496 E507.49926
G1 X111.651 Y102.492 E507.54090
G1 X113.322 Y102.494 E507.59648
G0 F9000 X112.922 Y102.092
;TYPE:WALL-OUTER
G1 F2700 X112.923 Y100.200 E507.65941
G1 X119.800 Y100.200 E507.88814
G1 X119.800 Y108.602 E508.16759
G1 X117.858 Y108.602 E508.23218
G1 X117.858 Y110.682 E508.30136
G1 X119.800 Y110.682 E508.36595
G1 X119.800 Y119.800 E508.66922
G1 X100.200 Y119.800 E509.32112
G1 X100.200 Y100.200 E509.97301
G1 X106.238 Y100.200 E510.17384
G1 X106.240 Y102.093 E510.23680
G1 X108.346 Y102.093 E510.30685
G1 X108.345 Y100.200 E510.36981
G1 X110.800 Y100.200 E510.45146
G1 X110.799 Y102.095 E510.51449
G1 X112.922 Y102.092 E510.58510
G0 F9000 X113.001 Y102.633
;TYPE:FILL
G1 F4800 X118.429 Y108.061 E510.84042
G0 F9000 X119.259 Y107.006
G1 F4800 X113.461 Y101.208 E511.11314
G0 F9000 X114.877 Y100.740
G1 F4800 X119.259 Y105.121 E511.31923
G0 F9000 X119.259 Y103.236
G1 F4800 X116.763 Y100.740 E511.43663
G0 F9000 X118.648 Y100.740
G1 F4800 X119.259 Y101.351 E511.46537
G0 F9000 X117.318 Y108.835
G1 F4800 X111.119 Y102.636 E511.75695
G0 F9000 X110.259 Y101.776
G1 F4800 X109.222 Y100.740 E511.80571
G0 F9000 X108.884 Y102.287
G1 F4800 X117.318 Y110.720 E512.20239
G0 F9000 X117.819 Y111.222
G1 F4800 X119.259 Y112.662 E512.27013
G0 F9000 X119.259 Y114.547
G1 F4800 X107.345 Y102.633 E512.83053
G0 F9000 X105.900 Y102.434
G0 X105.699 Y100.986
G1 F4800 X105.452 Y100.740 E512.84212
G0 F9000 X103.567 Y100.740
G1 F4800 X119.259 Y116.432 E513.58022
G0 F9000 X119.259 Y118.318
G1 F4800 X101.681 Y100.740 E514.40704
G0 F9000 X100.739 Y101.682
G1 F4800 X118.315 Y119.259 E515.23378
G0 F9000 X116.430 Y119.259
G1 F4800 X100.739 Y103.567 E515.97186
G0 F9000 X100.739 Y105.452
G1 F4800 X114.545 Y119.259 E516.62128
G0 F9000 X112.660 Y119.259
G1 F4800 X100.739 Y107.338 E517.18201
G0 F9000 X100.739 Y109.223
G1 F4800 X110.775 Y119.259 E517.65407
G0 F9000 X108.890 Y119.259
G1 F4800 X100.739 Y111.108 E518.03747
G0 F9000 X100.739 Y112.993
G1 F4800 X107.005 Y119.259 E518.33220
G0 F9000 X105.119 Y119.259
G1 F4800 X100.739 Y114.878 E518.53825
G0 F9000 X100.739 Y116.763
G1 F4800 X103.234 Y119.259 E518.65563
G0 F9000 X101.349 Y119.259
G1 F4800 X100.739 Y118.648 E518.68434
G0 F9000 X113.583 Y102.553
;TYPE:SKIN
G1 F2700 X113.610 Y102.297 E518.69010
G1 X113.610 Y101.731 E518.70417
G1 X113.610 Y101.165 E518.71820
G1 X113.468 Y100.740 E518.73310
;LAYER:31
G0 F9000 X113.194 Y102.495 Z6.500
;TYPE:WALL-INNER
G1 F3600 X113.196 Y100.600 E518.79613
G1 X119.400 Y100.600 E519.00247
G1 X119.400 Y108.200 E519.25525
G1 X117.459 Y108.200 E519.31981
G1 X117.457 Y109.619 E519.36701
G1 X117.459 Y111.079 E519.41557
G1 X119.000 Y111.081 E519.46682
G1 X119.400 Y111.081 E519.48012
G1 X119.400 Y119.400 E519.75681
G1 X100.600 Y119.400 E520.38211
G1 X100.600 Y100.600 E521.00740
G1 X105.950 Y100.600 E521.18534
G1 X105.952 Y102.494 E521.24833
G1 X108.863 Y102.493 E521.34515
G1 X108.865 Y101.054 E521.39301
G1 X108.864 Y100.600 E521.40811
G1 X110.278 Y100.600 E521.45514
G1 X110.277 Y102.495 E521.51817
G1 X111.579 Y102.493 E521.56148
G1 X113.194 Y102.495 E521.61519
G0 F9000 X112.795 Y102.094
;TYPE:WALL-OUTER
G1 F2700 X112.797 Y100.200 E521.67819
G1 X119.800 Y100.200 E521.91111
G1 X119.800 Y108.600 E522.19049
G1 X117.858 Y108.600 E522.25508
G1 X117.858 Y110.680 E522.32426
G1 X119.800 Y110.680 E522.38886
G1 X119.800 Y119.800 E522.69219
G1 X100.200 Y119.800 E523.34409
G1 X100.200 Y100.200 E523.99599
G1 X106.349 Y100.200 E524.20050
G1 X106.351 Y102.094 E524.26350
G1 X108.464 Y102.093 E524.33378
G1 X108.463 Y100.200 E524.39674
G1 X110.678 Y100.200 E524.47041
G1 X110.677 Y102.094 E524.53340
G1 X112.795 Y102.094 E524.60385
G0 F9000 X113.334 Y102.515
;TYPE:FILL
G1 F4800 X115.109 Y100.740 E524.68734
G0 F9000 X116.995 Y100.740
G1 F4800 X100.740 Y116.995 E525.45192
G0 F9000 X100.740 Y118.880
G1 F4800 X118.880 Y100.740 E526.30517
G0 F9000 X119.259 Y102.246
G1 F4800 X102.245 Y119.259 E527.10544
G0 F9000 X104.130 Y119.259
G1 F4800 X119.259 Y104.131 E527.81703
G0 F9000 X119.259 Y106.016
G1 F4800 X106.015 Y119.259 E528.43997
G0 F9000 X107.900 Y119.259
G1 F4800 X117.318 Y109.842 E528.88294
G0 F9000 X117.827 Y111.218
G1 F4800 X109.786 Y119.259 E529.26116
G0 F9000 X111.671 Y119.259
G1 F4800 X119.259 Y111.671 E529.61808
G0 F9000 X119.259 Y113.557
G1 F4800 X113.556 Y119.259 E529.88631
G0 F9000 X115.441 Y119.259
G1 F4800 X119.259 Y115.442 E530.06587
G0 F9000 X119.259 Y117.327
G1 F4800 X117.326 Y119.259 E530.15677
G0 F9000 X117.517 Y108.259
G0 X119.100 Y108.060
G1 F4800 X119.259 Y107.901 E530.16425
G0 F9000 X113.214 Y102.635
G1 F4800 X100.740 Y115.109 E530.75099
G0 F9000 X100.740 Y113.224
G1 F4800 X111.329 Y102.635 E531.24906
G0 F9000 X110.136 Y101.943
G1 F4800 X100.740 Y111.339 E531.69102
G0 F9000 X100.740 Y109.454
G1 F4800 X107.561 Y102.633 E532.01186
G0 F9000 X105.810 Y102.498
G1 F4800 X100.740 Y107.569 E532.25036
G0 F9000 X100.740 Y105.684
G1 F4800 X105.684 Y100.739 E532.48293
G0 F9000 X103.799 Y100.739
G1 F4800 X100.740 Y103.799 E532.62684
G0 F9000 X100.740 Y101.913
G1 F4800 X101.914 Y100.739 E532.68207
G0 F9000 X106.010 Y102.435
G0 X108.805 Y102.434
G0 X109.003 Y101.191
G1 F4800 X109.454 Y100.740 E532.70328
G0 F9000 X110.336 Y102.436
G0 X113.136 Y102.434
G0 X113.335 Y101.342
;TYPE:SKIN
G1 F2700 X113.634 Y101.326 E532.71732
G1 X113.484 Y102.041 E532.73135
G1 X113.333 Y102.475 E532.74664
;LAYER:32
G0 F9000 X113.069 Y102.495 Z6.700
;TYPE:WALL-INNER
G1 F3600 X113.070 Y100.600 E532.80966
G1 X119.400 Y100.600 E533.02020
G1 X119.400 Y108.197 E533.27288
G1 X117.458 Y108.199 E533.33747
G1 X117.458 Y111.077 E533.43319
G1 X119.070 Y111.079 E533.48681
G1 X119.400 Y111.079 E533.49778
G1 X119.400 Y119.400 E533.77454
G1 X100.600 Y119.400 E534.39983
G1 X100.600 Y100.600 E535.02512
G1 X106.061 Y100.600 E535.20676
G1 X106.063 Y102.494 E535.26975
G1 X108.983 Y102.493 E535.36687
G1 X108.982 Y100.600 E535.42983
G1 X110.156 Y100.600 E535.46888
G1 X110.155 Y102.495 E535.53191
G1 X111.509 Y102.493 E535.57694
G1 X113.069 Y102.495 E535.62883
G0 F9000 X112.669 Y102.094
;TYPE:WALL-OUTER
G1 F2700 X112.670 Y100.200 E535.69182
G1 X119.800 Y100.200 E535.92897
G1 X119.800 Y108.598 E536.20829
G1 X117.858 Y108.598 E536.27288
G1 X117.858 Y110.678 E536.34206
G1 X119.800 Y110.678 E536.40665
G1 X119.800 Y119.800 E536.71005
G1 X100.200 Y119.800 E537.36195
G1 X100.200 Y100.200 E538.01385
G1 X106.460 Y100.200 E538.22205
G1 X106.462 Y102.094 E538.28505
G1 X108.583 Y102.093 E538.35559
G1 X108.582 Y100.200 E538.41855
G1 X110.556 Y100.200 E538.48421
G1 X110.555 Y102.094 E538.54720
G1 X112.669 Y102.094 E538.61752
G0 F9000 X113.002 Y102.635
;TYPE:FILL
G1 F4800 X118.424 Y108.057 E538.87255
G0 F9000 X119.259 Y107.006
G1 F4800 X113.208 Y100.955 E539.15717
G0 F9000 X114.877 Y100.740
G1 F4800 X119.259 Y105.121 E539.36326
G0 F9000 X119.259 Y103.236
G1 F4800 X116.763 Y100.740 E539.48067
G0 F9000 X118.648 Y100.740
G1 F4800 X119.259 Y101.351 E539.50941
G0 F9000 X117.317 Y108.835
G1 F4800 X111.117 Y102.635 E539.80104
G0 F9000 X110.214 Y102.436
G0 X110.015 Y101.532
G1 F4800 X109.222 Y100.740 E539.83831
G0 F9000 X109.122 Y102.524
G1 F4800 X117.317 Y110.720 E540.22380
G0 F9000 X117.815 Y111.217
G1 F4800 X119.259 Y112.662 E540.29175
G0 F9000 X119.259 Y114.547
G1 F4800 X107.346 Y102.634 E540.85210
G0 F9000 X106.121 Y102.435
G0 X105.921 Y101.208
G1 F4800 X105.452 Y100.740 E540.87414
G0 F9000 X103.567 Y100.740
G1 F4800 X119.259 Y116.432 E541.61224
G0 F9000 X119.259 Y118.318
G1 F4800 X101.681 Y100.740 E542.43906
G0 F9000 X100.739 Y101.682
G1 F4800 X118.315 Y119.259 E543.26580
G0 F9000 X116.430 Y119.259
G1 F4800 X100.739 Y103.567 E544.00388
G0 F9000 X100.739 Y105.452
G1 F4800 X114.545 Y119.259 E544.65330
G0 F9000 X112.660 Y119.259
G1 F4800 X100.739 Y107.338 E545.21402
G0 F9000 X100.739 Y109.223
G1 F4800 X110.775 Y119.259 E545.68609
G0 F9000 X108.890 Y119.259
G1 F4800 X100.739 Y111.108 E546.06948
G0 F9000 X100.739 Y112.993
G1 F4800 X107.005 Y119.259 E546.36422
G0 F9000 X105.119 Y119.259
G1 F4800 X100.739 Y114.878 E546.57026
G0 F9000 X100.739 Y116.763
G1 F4800 X103.234 Y119.259 E546.68764
G0 F9000 X101.349 Y119.259
G1 F4800 X100.739 Y118.648 E546.71636
G0 F9000 X113.507 Y102.476
;TYPE:SKIN
G1 F2700 X113.357 Y102.044 E546.73039
G1 X113.357 Y101.478 E546.74442
G1 X113.208 Y101.046 E546.75961
;LAYER:33
G0 F9000 X112.941 Y102.495 Z6.900
;TYPE:WALL-INNER
G1 F3600 X112.943 Y100.600 E546.82264
G1 X119.400 Y100.600 E547.03740
G1 X119.400 Y108.195 E547.29001
G1 X117.460 Y108.197 E547.35454
G1 X117.458 Y109.737 E547.40576
G1 X117.460 Y111.075 E547.45026
G1 X119.141 Y111.077 E547.50617
G1 X119.400 Y111.077 E547.51479
G1 X119.400 Y119.400 E547.79161
G1 X100.600 Y119.400 E548.41690
G1 X100.600 Y100.600 E549.04219
G1 X106.172 Y100.600 E549.22752
G1 X106.174 Y102.494 E549.29051
G1 X109.100 Y102.493 E549.38783
G1 X109.102 Y101.209 E549.43054
G1 X109.101 Y100.600 E549.45079
G1 X110.034 Y100.600 E549.48182
G1 X110.033 Y102.495 E549.54485
G1 X111.439 Y102.493 E549.59162
G1 X112.941 Y102.495 E549.64157
G0 F9000 X112.542 Y102.094
;TYPE:WALL-OUTER
G1 F2700 X112.544 Y100.200 E549.70457
G1 X119.800 Y100.200 E549.94590
G1 X119.800 Y108.596 E550.22515
G1 X117.859 Y108.596 E550.28971
G1 X117.859 Y110.676 E550.35889
G1 X119.800 Y110.676 E550.42345
G1 X119.800 Y119.800 E550.72692
G1 X100.200 Y119.800 E551.37882
G1 X100.200 Y100.200 E552.03071
G1 X106.571 Y100.200 E552.24261
G1 X106.573 Y102.094 E552.30561
G1 X108.701 Y102.093 E552.37639
G1 X108.700 Y100.200 E552.43935
G1 X110.434 Y100.200 E552.49702
G1 X110.433 Y102.094 E552.56002
G1 X112.542 Y102.094 E552.63016
G0 F9000 X113.081 Y100.882
;TYPE:FILL
G1 F4800 X113.224 Y100.740 E552.63686
G0 F9000 X115.109 Y100.740
G1 F4800 X100.740 Y115.109 E553.31274
G0 F9000 X100.740 Y113.224
G1 F4800 X111.330 Y102.634 E553.81086
G0 F9000 X110.092 Y102.435
G0 X109.892 Y102.187
G1 F4800 X100.740 Y111.339 E554.24134
G0 F9000 X100.740 Y109.454
G1 F4800 X107.561 Y102.633 E554.56218
G0 F9000 X106.032 Y102.276
G1 F4800 X100.740 Y107.569 E554.81112
G0 F9000 X100.740 Y105.684
G1 F4800 X105.684 Y100.739 E555.04370
G0 F9000 X103.799 Y100.739
G1 F4800 X100.740 Y103.799 E555.18761
G0 F9000 X100.740 Y101.913
G1 F4800 X101.914 Y100.739 E555.24283
G0 F9000 X106.232 Y102.435
G0 X109.041 Y102.434
G0 X109.240 Y100.954
G1 F4800 X109.455 Y100.739 E555.25294
G0 F9000 X110.092 Y102.435
G0 X112.883 Y102.435
G0 X116.995 Y100.740
G1 F4800 X100.740 Y116.995 E556.01753
G0 F9000 X100.740 Y118.880
G1 F4800 X118.880 Y100.740 E556.87078
G0 F9000 X119.259 Y102.246
G1 F4800 X102.245 Y119.259 E557.67104
G0 F9000 X104.130 Y119.259
G1 F4800 X119.259 Y104.131 E558.38264
G0 F9000 X119.259 Y106.016
G1 F4800 X106.015 Y119.259 E559.00557
G0 F9000 X107.900 Y119.259
G1 F4800 X117.318 Y109.841 E559.44857
G0 F9000 X117.830 Y111.215
G1 F4800 X109.786 Y119.259 E559.82693
G0 F9000 X111.671 Y119.259
G1 F4800 X119.259 Y111.671 E560.18385
G0 F9000 X119.259 Y113.557
G1 F4800 X113.556 Y119.259 E560.45207
G0 F9000 X115.441 Y119.259
G1 F4800 X119.259 Y115.442 E560.63164
G0 F9000 X119.259 Y117.327
G1 F4800 X117.326 Y119.259 E560.72254
G0 F9000 X117.518 Y108.255
G0 X119.105 Y108.055
G1 F4800 X119.259 Y107.901 E560.72978
G0 F9000 X113.381 Y102.427
;TYPE:SKIN
G1 F2700 X113.167 Y102.357 E560.73570
G1 X113.231 Y101.729 E560.74976
G1 X113.231 Y101.163 E560.76384
G1 X113.371 Y100.740 E560.77866
;LAYER:34
G0 F9000 X112.816 Y102.495 Z7.100
;TYPE:WALL-INNER
G1 F3600 X112.817 Y100.600 E560.84168
G1 X119.400 Y100.600 E561.06063
G1 X119.400 Y108.193 E561.31318
G1 X117.460 Y108.195 E561.37770
G1 X117.458 Y109.795 E561.43092
G1 X117.460 Y111.072 E561.47339
G1 X119.400 Y111.074 E561.53792
G1 X119.400 Y119.400 E561.81484
G1 X100.600 Y119.400 E562.44013
G1 X100.600 Y100.600 E563.06542
G1 X106.283 Y100.600 E563.25444
G1 X106.285 Y102.494 E563.31744
G1 X109.220 Y102.493 E563.41505
G1 X109.219 Y100.600 E563.47802
G1 X109.912 Y100.600 E563.50106
G1 X109.913 Y101.283 E563.52378
G1 X109.909 Y102.495 E563.56409
G1 X111.369 Y102.493 E563.61265
G1 X112.816 Y102.495 E563.66078
G0 F9000 X112.416 Y102.094
;TYPE:WALL-OUTER
G1 F2700 X112.417 Y100.200 E563.72377
G1 X119.800 Y100.200 E563.96933
G1 X119.800 Y108.594 E564.24852
G1 X117.859 Y108.594 E564.31308
G1 X117.859 Y110.673 E564.38223
G1 X119.800 Y110.674 E564.44678
G1 X119.800 Y119.800 E564.75032
G1 X100.200 Y119.800 E565.40221
G1 X100.200 Y100.200 E566.05411
G1 X106.682 Y100.200 E566.26970
G1 X106.684 Y102.094 E566.33270
G1 X108.820 Y102.093 E566.40374
G1 X108.819 Y100.200 E566.46670
G1 X110.312 Y100.200 E566.51636
G1 X110.311 Y102.094 E566.57936
G1 X112.416 Y102.094 E566.64937
G0 F9000 X112.955 Y102.587
;TYPE:FILL
G1 F4800 X118.421 Y108.053 E566.90647
G0 F9000 X119.259 Y107.006
G1 F4800 X112.992 Y100.740 E567.20123
G0 F9000 X114.877 Y100.740
G1 F4800 X119.259 Y105.121 E567.40732
G0 F9000 X119.259 Y103.236
G1 F4800 X116.763 Y100.740 E567.52473
G0 F9000 X118.648 Y100.740
G1 F4800 X119.259 Y101.351 E567.55347
G0 F9000 X117.319 Y108.837
G1 F4800 X111.117 Y102.635 E567.84519
G0 F9000 X109.231 Y102.633
G1 F4800 X117.319 Y110.722 E568.22565
G0 F9000 X117.809 Y111.212
G1 F4800 X119.259 Y112.662 E568.29385
G0 F9000 X119.259 Y114.547
G1 F4800 X107.346 Y102.634 E568.85420
G0 F9000 X106.343 Y102.435
G0 X106.143 Y101.431
G1 F4800 X105.452 Y100.740 E568.88670
G0 F9000 X103.567 Y100.740
G1 F4800 X119.259 Y116.432 E569.62481
G0 F9000 X119.259 Y118.318
G1 F4800 X101.681 Y100.740 E570.45162
G0 F9000 X100.739 Y101.682
G1 F4800 X118.315 Y119.259 E571.27837
G0 F9000 X116.430 Y119.259
G1 F4800 X100.739 Y103.567 E572.01645
G0 F9000 X100.739 Y105.452
G1 F4800 X114.545 Y119.259 E572.66586
G0 F9000 X112.660 Y119.259
G1 F4800 X100.739 Y107.338 E573.22659
G0 F9000 X100.739 Y109.223
G1 F4800 X110.775 Y119.259 E573.69865
G0 F9000 X108.890 Y119.259
G1 F4800 X100.739 Y111.108 E574.08205
G0 F9000 X100.739 Y112.993
G1 F4800 X107.005 Y119.259 E574.37679
G0 F9000 X105.119 Y119.259
G1 F4800 X100.739 Y114.878 E574.58283
G0 F9000 X100.739 Y116.763
G1 F4800 X103.234 Y119.259 E574.70021
G0 F9000 X101.349 Y119.259
G1 F4800 X100.739 Y118.648 E574.72893
G0 F9000 X109.770 Y101.288
G1 F4800 X109.433 Y100.807 E574.74831
G1 X109.564 Y101.079 E574.76069
G1 X109.564 Y101.644 E574.78005
G1 X109.563 Y102.209 E574.79935
G1 X109.624 Y102.553 E574.81097
G0 F9000 X112.955 Y102.490
;TYPE:SKIN
G1 F2700 X113.137 Y102.389 E574.81400
G1 X113.105 Y101.791 E574.82805
G1 X113.105 Y101.225 E574.84212
G1 X112.955 Y100.793 E574.85733
;LAYER:35
G0 F9000 X112.688 Y102.495 Z7.300
;TYPE:WALL-INNER
G1 F3600 X112.690 Y100.600 E574.92036
G1 X119.400 Y100.600 E575.14353
G1 X119.400 Y108.191 E575.39601
G1 X117.459 Y108.191 E575.46057
G1 X117.459 Y111.071 E575.55636
G1 X119.400 Y111.072 E575.62091
G1 X119.400 Y119.400 E575.89790
G1 X100.600 Y119.400 E576.52319
G1 X100.600 Y100.600 E577.14849
G1 X106.394 Y100.600 E577.34119
G1 X106.396 Y102.494 E577.40419
G1 X109.337 Y102.493 E577.50201
G1 X109.339 Y101.363 E577.53959
G1 X109.338 Y100.600 E577.56497
G1 X109.791 Y100.600 E577.58004
G1 X109.791 Y101.361 E577.60535
G1 X109.789 Y102.495 E577.64306
G1 X111.298 Y102.493 E577.69325
G1 X112.688 Y102.495 E577.73948
G0 F9000 X112.289 Y102.094
;TYPE:WALL-OUTER
G1 F2700 X112.291 Y100.200 E577.80248
G1 X119.800 Y100.200 E578.05223
G1 X119.800 Y108.591 E578.33132
G1 X117.859 Y108.591 E578.39587
G1 X117.859 Y110.671 E578.46505
G1 X119.800 Y110.672 E578.52961
G1 X119.800 Y119.800 E578.83321
G1 X100.200 Y119.800 E579.48511
G1 X100.200 Y100.200 E580.13701
G1 X106.793 Y100.200 E580.35629
G1 X106.795 Y102.094 E580.41929
G1 X108.938 Y102.093 E580.49056
G1 X108.937 Y100.200 E580.55353
G1 X110.191 Y100.200 E580.59523
G1 X110.190 Y102.094 E580.65823
G1 X112.289 Y102.094 E580.72804
G0 F9000 X112.828 Y101.136
;TYPE:FILL
G1 F4800 X113.224 Y100.740 E580.74667
G0 F9000 X115.109 Y100.740
G1 F4800 X100.740 Y115.109 E581.42254
G0 F9000 X100.740 Y113.224
G1 F4800 X111.329 Y102.635 E581.92062
G0 F9000 X109.648 Y102.431
G1 F4800 X109.477 Y102.602 E581.92866
G0 F9000 X109.446 Y102.633
G1 F4800 X100.740 Y111.339 E582.33816
G0 F9000 X100.740 Y109.454
G1 F4800 X107.561 Y102.633 E582.65900
G0 F9000 X106.254 Y102.055
G1 F4800 X100.740 Y107.569 E582.91836
G0 F9000 X100.740 Y105.684
G1 F4800 X105.684 Y100.739 E583.15094
G0 F9000 X103.799 Y100.739
G1 F4800 X100.740 Y103.799 E583.29485
G0 F9000 X100.740 Y101.913
G1 F4800 X101.914 Y100.739 E583.35007
G0 F9000 X106.454 Y102.435
G0 X109.278 Y102.434
G0 X112.630 Y102.435
G0 X116.995 Y100.740
G1 F4800 X100.740 Y116.995 E584.11465
G0 F9000 X100.740 Y118.880
G1 F4800 X118.880 Y100.740 E584.96790
G0 F9000 X119.259 Y102.246
G1 F4800 X102.245 Y119.259 E585.76817
G0 F9000 X104.130 Y119.259
G1 F4800 X119.259 Y104.131 E586.47976
G0 F9000 X119.259 Y106.016
G1 F4800 X106.015 Y119.259 E587.10270
G0 F9000 X107.900 Y119.259
G1 F4800 X117.318 Y109.842 E587.54567
G0 F9000 X117.835 Y111.210
G1 F4800 X109.786 Y119.259 E587.92427
G0 F9000 X111.671 Y119.259
G1 F4800 X119.259 Y111.671 E588.28119
G0 F9000 X119.259 Y113.557
G1 F4800 X113.556 Y119.259 E588.54941
G0 F9000 X115.441 Y119.259
G1 F4800 X119.259 Y115.442 E588.72898
G0 F9000 X119.259 Y117.327
G1 F4800 X117.326 Y119.259 E588.81988
G0 F9000 X117.518 Y108.250
G0 X119.109 Y108.051
G1 F4800 X119.259 Y107.901 E588.82693
G0 F9000 X113.127 Y102.115
;TYPE:SKIN
G1 F2700 X112.828 Y102.132 E588.84100
G1 X112.978 Y101.416 E588.85511
G1 X113.128 Y100.983 E588.87035
;LAYER:36
G0 F9000 X112.563 Y101.114 Z7.500
;TYPE:WALL-INNER
G1 F3600 X112.564 Y100.600 E588.88745
G1 X119.400 Y100.600 E589.11482
G1 X119.400 Y108.189 E589.36723
G1 X117.461 Y108.189 E589.43172
G1 X117.459 Y109.912 E589.48903
G1 X117.461 Y111.069 E589.52751
G1 X119.353 Y111.070 E589.59044
G1 X119.400 Y111.070 E589.59200
G1 X119.400 Y119.400 E589.86906
G1 X100.600 Y119.400 E590.49435
G1 X100.600 Y100.600 E591.11964
G1 X106.505 Y100.600 E591.31604
G1 X106.507 Y102.494 E591.37903
G1 X109.456 Y102.494 E591.47712
G1 X109.458 Y101.441 E591.51214
G1 X109.457 Y100.600 E591.54011
G1 X109.669 Y100.600 E591.54716
G1 X109.669 Y101.439 E591.57507
G1 X109.667 Y102.496 E591.61022
G1 X111.228 Y102.493 E591.66214
G1 X112.563 Y102.495 E591.70655
G1 X112.563 Y101.114 E591.75248
G0 F9000 X112.163 Y102.094
;TYPE:WALL-OUTER
G1 F2700 X112.165 Y100.200 E591.81547
G1 X119.800 Y100.200 E592.06941
G1 X119.800 Y108.589 E592.34843
G1 X117.860 Y108.589 E592.41296
G1 X117.860 Y110.669 E592.48214
G1 X119.800 Y110.669 E592.54666
G1 X119.800 Y119.800 E592.85036
G1 X100.200 Y119.800 E593.50226
G1 X100.200 Y100.200 E594.15416
G1 X106.904 Y100.200 E594.37714
G1 X106.906 Y102.094 E594.44013
G1 X109.057 Y102.094 E594.51167
G1 X109.056 Y100.200 E594.57467
G1 X110.069 Y100.200 E594.60836
G1 X110.068 Y102.095 E594.67139
G1 X112.163 Y102.094 E594.74107
G0 F9000 X112.702 Y102.334
;TYPE:FILL
G1 F4800 X118.416 Y108.048 E595.00984
G0 F9000 X119.259 Y107.006
G1 F4800 X112.992 Y100.740 E595.30459
G0 F9000 X114.877 Y100.740
G1 F4800 X119.259 Y105.121 E595.51069
G0 F9000 X119.259 Y103.236
G1 F4800 X116.763 Y100.740 E595.62809
G0 F9000 X118.648 Y100.740
G1 F4800 X119.259 Y101.351 E595.65683
G0 F9000 X117.320 Y108.837
G1 F4800 X111.117 Y102.635 E595.94858
G0 F9000 X109.231 Y102.634
G1 F4800 X117.320 Y110.723 E596.32906
G0 F9000 X117.806 Y111.209
G1 F4800 X119.259 Y112.662 E596.39740
G0 F9000 X119.259 Y114.547
G1 F4800 X107.346 Y102.634 E596.95775
G0 F9000 X106.365 Y101.653
G1 F4800 X105.452 Y100.740 E597.00070
G0 F9000 X103.567 Y100.740
G1 F4800 X119.259 Y116.432 E597.73880
G0 F9000 X119.259 Y118.318
G1 F4800 X101.681 Y100.740 E598.56562
G0 F9000 X100.739 Y101.682
G1 F4800 X118.315 Y119.259 E599.39236
G0 F9000 X116.430 Y119.259
G1 F4800 X100.739 Y103.567 E600.13044
G0 F9000 X100.739 Y105.452
G1 F4800 X114.545 Y119.259 E600.77986
G0 F9000 X112.660 Y119.259
