;Generated with Cura_SteamEngine 15.01
; Default start code
G28 ; Home extruder
G1 Z15 F100
M107 ; Turn off fan
G90 ; Absolute positioning
M82 ; Extruder in absolute mode
M190 S50
; Activate all used extruder
M104 T0 S210
G92 E0 ; Reset extruder position
; Wait for all used extruders to reach temperature
M109 T0 S210
;Layer count: 40
;LAYER:0
M107
G0 F9000 X221.055 Y134.376 Z0.300
;TYPE:SKIRT
G1 F1800 X226.930 Y126.582 E0.48694
G1 X236.181 Y125.311 E0.95281
G1 X236.181 Y125.310 E0.95286
G1 X237.338 Y125.150 E1.01113
G1 X245.151 Y127.409 E1.41689
G1 X246.202 Y127.715 E1.47150
G1 X251.986 Y132.375 E1.84207
G1 X252.951 Y133.154 E1.90394
G1 X254.536 Y137.053 E2.11392
G1 X255.554 Y138.997 E2.22340
G1 X264.057 Y138.161 E2.64966
G1 X266.806 Y141.135 E2.85172
G1 X267.266 Y144.701 E3.03110
G1 X266.321 Y145.594 E3.09596
G1 X269.729 Y149.545 E3.35628
G1 X267.573 Y153.644 E3.58734
G1 X268.987 Y154.383 E3.66694
G1 X269.388 Y157.201 E3.80895
G1 X269.685 Y159.103 E3.90499
G1 X266.395 Y161.644 E4.11238
G1 X267.607 Y162.042 E4.17603
G1 X268.725 Y163.990 E4.28808
G1 X269.392 Y165.171 E4.35575
G1 X268.672 Y167.799 E4.49169
G1 X268.197 Y169.459 E4.57783
G1 X269.493 Y172.831 E4.75806
G1 X269.934 Y173.944 E4.81779
G1 X269.103 Y176.596 E4.95644
G1 X268.467 Y178.551 E5.05901
G1 X263.686 Y179.228 E5.29991
G1 X262.509 Y179.189 E5.35866
G1 X263.823 Y180.060 E5.43731
G1 X265.247 Y181.727 E5.54669
G1 X266.338 Y182.964 E5.62898
G1 X265.585 Y186.147 E5.79217
G1 X265.179 Y187.772 E5.87573
G1 X263.611 Y188.420 E5.96037
G1 X264.298 Y191.102 E6.09850
G1 X264.585 Y192.195 E6.15488
G1 X263.374 Y195.150 E6.31420
G1 X262.704 Y196.777 E6.40199
G1 X260.542 Y197.221 E6.51210
G1 X261.313 Y200.232 E6.66717
G1 X261.816 Y202.104 E6.76387
G1 X257.302 Y206.381 E7.07411
G1 X253.159 Y205.642 E7.28407
G1 X252.336 Y205.347 E7.32769
G1 X253.894 Y206.739 E7.43192
G1 X255.160 Y210.185 E7.61508
G1 X255.161 Y210.185 E7.61513
G1 X255.892 Y212.153 E7.71987
G1 X252.472 Y215.661 E7.96429
G1 X251.416 Y216.757 E8.04022
G1 X248.618 Y216.631 E8.17996
G1 X249.587 Y218.682 E8.29313
G1 X246.040 Y222.318 E8.54655
G1 X244.597 Y223.789 E8.64935
G1 X241.469 Y222.772 E8.81345
G1 X241.832 Y224.188 E8.88638
G1 X242.345 Y226.097 E8.98500
G1 X237.832 Y230.370 E9.29506
G1 X234.952 Y229.858 E9.44100
G1 X235.197 Y232.879 E9.59221
G1 X235.310 Y234.125 E9.65463
G1 X233.078 Y237.263 E9.84675
G1 X231.929 Y238.870 E9.94531
G1 X230.609 Y238.707 E10.01166
G1 X230.745 Y240.692 E10.11093
G1 X230.744 Y240.692 E10.11098
G1 X230.878 Y242.487 E10.20078
G1 X227.060 Y245.390 E10.44007
G1 X225.031 Y245.112 E10.54224
G1 X225.002 Y245.410 E10.55718
G1 X224.951 Y245.911 E10.58230
G1 X223.961 Y248.525 E10.72175
G1 X223.431 Y249.899 E10.79523
G1 X220.006 Y251.254 E10.97899
G1 X217.707 Y250.743 E11.09648
G1 X216.861 Y250.549 E11.13979
G1 X215.754 Y253.341 E11.28963
G1 X215.185 Y254.742 E11.36507
G1 X210.550 Y256.406 E11.61076
G1 X207.799 Y255.634 E11.75331
G1 X206.568 Y255.286 E11.81713
G1 X206.444 Y255.484 E11.82879
G1 X203.793 Y256.937 E11.97961
G1 X200.545 Y257.838 E12.14777
G1 X197.768 Y257.195 E12.28998
G1 X195.092 Y256.565 E12.42714
G1 X193.415 Y257.958 E12.53590
G1 X188.603 Y258.222 E12.77634
G1 X186.173 Y256.150 E12.93566
G1 X184.657 Y254.873 E13.03455
G1 X185.071 Y253.065 E13.12708
G1 X183.161 Y255.727 E13.29054
G1 X182.616 Y256.485 E13.33712
G1 X180.395 Y257.703 E13.46349
G1 X180.395 Y257.702 E13.46354
G1 X177.967 Y259.049 E13.60207
G1 X174.004 Y258.716 E13.80048
G1 X172.728 Y258.600 E13.86440
G1 X168.583 Y254.295 E14.16255
G1 X173.670 Y247.721 E14.57726
G1 X178.147 Y240.039 E15.02085
G1 X182.838 Y228.814 E15.62780
G1 X184.845 Y217.477 E16.20220
G1 X185.234 Y215.193 E16.31779
G1 X186.590 Y203.375 E16.91126
G1 X186.670 Y202.688 E16.94577
G1 X188.106 Y198.837 E17.15082
G1 X188.106 Y196.004 E17.29216
G1 X189.099 Y196.004 E17.34170
G1 X189.118 Y195.833 E17.35028
G1 X196.444 Y185.670 E17.97532
G1 X196.960 Y184.958 E18.01919
G1 X211.959 Y174.952 E18.91872
G1 X212.196 Y174.795 E18.93291
G1 X212.196 Y174.288 E18.95820
G1 X214.902 Y168.820 E19.26258
G1 X217.184 Y155.615 E19.93114
G1 X217.406 Y154.270 E19.99915
G1 X215.183 Y150.182 E20.23131
G1 X214.337 Y148.639 E20.31910
G1 X220.577 Y135.388 E21.04983
G1 X221.055 Y134.376 E21.10567
G1 F2400 E17.10567
G0 F9000 X224.326 Y136.349
;TYPE:WALL-INNER
G1 F2400 E21.10567
G1 F1800 X229.013 Y130.131 E21.49414
G1 X237.059 Y129.024 E21.89934
G1 X244.412 Y131.152 E22.28124
G1 X249.800 Y135.494 E22.62647
G1 X251.082 Y138.648 E22.79632
G1 X253.376 Y143.030 E23.04309
G1 X262.549 Y142.127 E23.50294
G1 X263.192 Y142.824 E23.55025
G1 X263.250 Y143.269 E23.57264
G1 X262.515 Y143.963 E23.62307
G1 X254.391 Y148.892 E24.09715
G1 X254.684 Y149.796 E24.14456
G1 X264.252 Y149.014 E24.62350
G1 X265.161 Y150.067 E24.69290
G1 X264.813 Y150.729 E24.73021
G1 X263.052 Y151.124 E24.82025
G1 X259.955 Y151.919 E24.97977
G1 X253.787 Y153.084 E25.29293
G1 X251.721 Y153.083 E25.39601
G1 X251.721 Y149.257 E25.58689
G1 X245.773 Y149.256 E25.88363
G1 X245.031 Y149.251 E25.92065
G1 X245.031 Y153.083 E26.11183
G1 X233.738 Y153.083 E26.67524
G1 X233.738 Y149.257 E26.86612
G1 X227.790 Y149.256 E27.16287
G1 X227.048 Y149.251 E27.19989
G1 X227.048 Y153.083 E27.39107
G1 X221.086 Y153.083 E27.68851
G1 X218.599 Y148.509 E27.94826
G1 X224.326 Y136.349 E28.61884
G0 F9000 X223.980 Y136.143
;TYPE:WALL-OUTER
G1 F1800 X228.794 Y129.758 E29.01779
G1 X237.089 Y128.617 E29.43552
G1 X244.600 Y130.790 E29.82562
G1 X250.133 Y135.249 E30.18014
G1 X251.445 Y138.479 E30.35407
G1 X253.605 Y142.605 E30.58642
G1 X262.707 Y141.710 E31.04271
G1 X263.573 Y142.647 E31.10637
G1 X263.673 Y143.420 E31.14525
G1 X262.762 Y144.281 E31.20779
G1 X254.869 Y149.070 E31.66839
G1 X254.967 Y149.371 E31.68418
G1 X264.422 Y148.598 E32.15747
G1 X265.642 Y150.012 E32.25064
G1 X265.081 Y151.078 E32.31074
G1 X263.145 Y151.513 E32.40973
G1 X260.035 Y152.311 E32.56992
G1 X253.824 Y153.484 E32.88526
G1 X251.321 Y153.483 E33.01014
G1 X251.321 Y149.657 E33.20102
G1 X245.770 Y149.656 E33.47796
G1 X245.431 Y149.654 E33.49487
G1 X245.431 Y153.483 E33.68590
G1 X233.338 Y153.483 E34.28922
G1 X233.338 Y149.657 E34.48010
G1 X227.787 Y149.656 E34.75704
G1 X227.448 Y149.654 E34.77396
G1 X227.448 Y153.483 E34.96499
G1 X220.814 Y153.483 E35.29596
G1 X220.814 Y153.420 E35.29910
G1 X218.150 Y148.522 E35.57727
G1 X223.980 Y136.143 E36.25992
G0 F9000 X224.426 Y136.462
;TYPE:SKIN
G1 F1800 X240.907 Y152.942 E37.42271
G0 F9000 X241.472 Y152.942
G1 F1800 X224.662 Y136.132 E38.60875
G0 F9000 X224.905 Y135.810
G1 F1800 X242.038 Y152.942 E39.81754
G0 F9000 X242.604 Y152.942
G1 F1800 X225.149 Y135.488 E41.04905
G0 F9000 X225.392 Y135.165
G1 F1800 X243.169 Y152.942 E42.30331
G0 F9000 X243.735 Y152.942
G1 F1800 X225.635 Y134.843 E43.58033
G0 F9000 X225.878 Y134.520
G1 F1800 X244.301 Y152.942 E44.88014
G0 F9000 X244.866 Y152.942
G1 F1800 X226.121 Y134.197 E46.20270
G0 F9000 X226.364 Y133.875
G1 F1800 X244.890 Y152.401 E47.50981
G0 F9000 X244.890 Y151.835
G1 F1800 X226.607 Y133.552 E48.79977
G0 F9000 X226.851 Y133.230
G1 F1800 X244.890 Y151.269 E50.07252
G0 F9000 X244.890 Y150.704
G1 F1800 X227.094 Y132.907 E51.32816
G0 F9000 X227.337 Y132.585
G1 F1800 X244.890 Y150.138 E52.56662
G0 F9000 X244.890 Y149.572
G1 F1800 X227.580 Y132.262 E53.78793
G0 F9000 X227.824 Y131.940
G1 F1800 X244.993 Y149.109 E54.99930
G0 F9000 X245.559 Y149.110
G1 F1800 X228.066 Y131.617 E56.23352
G0 F9000 X228.309 Y131.294
G1 F1800 X246.125 Y149.110 E57.49054
G0 F9000 X246.691 Y149.111
G1 F1800 X228.553 Y130.972 E58.77031
G0 F9000 X228.796 Y130.649
G1 F1800 X247.258 Y149.111 E60.07290
G0 F9000 X247.824 Y149.112
G1 F1800 X229.039 Y130.327 E61.39828
G0 F9000 X229.485 Y130.208
G1 F1800 X248.391 Y149.113 E62.73217
G0 F9000 X248.957 Y149.113
G1 F1800 X229.983 Y130.140 E64.07085
G0 F9000 X230.480 Y130.071
G1 F1800 X249.523 Y149.114 E65.41444
G0 F9000 X250.090 Y149.115
G1 F1800 X230.977 Y130.002 E66.76296
G0 F9000 X231.474 Y129.934
G1 F1800 X250.656 Y149.116 E68.11636
G0 F9000 X251.222 Y149.116
G1 F1800 X231.972 Y129.865 E69.47459
G0 F9000 X232.469 Y129.797
G1 F1800 X251.788 Y149.116 E70.83765
G0 F9000 X251.860 Y149.188
G1 F1800 X255.322 Y152.650 E71.08191
G0 F9000 X255.797 Y152.560
G1 F1800 X232.966 Y129.729 E72.69276
G0 F9000 X233.464 Y129.660
G1 F1800 X256.273 Y152.470 E74.30209
G0 F9000 X256.749 Y152.380
G1 F1800 X233.961 Y129.592 E75.90991
G0 F9000 X234.458 Y129.523
G1 F1800 X254.443 Y149.509 E77.31999
G0 F9000 X254.856 Y149.922
G1 F1800 X257.225 Y152.291 E77.48714
G0 F9000 X257.701 Y152.201
G1 F1800 X255.380 Y149.879 E77.65093
G0 F9000 X255.902 Y149.836
G1 F1800 X258.177 Y152.111 E77.81145
G0 F9000 X258.653 Y152.021
G1 F1800 X256.425 Y149.794 E77.96861
G0 F9000 X256.948 Y149.751
G1 F1800 X259.129 Y151.931 E78.12246
G0 F9000 X259.605 Y151.841
G1 F1800 X257.471 Y149.708 E78.27298
G0 F9000 X257.994 Y149.666
G1 F1800 X260.072 Y151.743 E78.41956
G0 F9000 X260.522 Y151.628
G1 F1800 X258.517 Y149.623 E78.56103
G0 F9000 X259.040 Y149.580
G1 F1800 X260.973 Y151.513 E78.69741
G0 F9000 X261.423 Y151.397
G1 F1800 X259.563 Y149.537 E78.82864
G0 F9000 X254.714 Y149.749
G0 X254.443 Y148.912
G0 X257.809 Y146.652
G1 F1800 X254.242 Y143.085 E79.08032
G0 F9000 X254.757 Y143.034
G1 F1800 X258.161 Y146.438 E79.32049
G0 F9000 X258.513 Y146.225
G1 F1800 X255.271 Y142.983 E79.54923
G0 F9000 X255.787 Y142.933
G1 F1800 X258.866 Y146.011 E79.76643
G0 F9000 X259.218 Y145.798
G1 F1800 X256.302 Y142.882 E79.97217
G0 F9000 X256.816 Y142.831
G1 F1800 X259.570 Y145.584 E80.16644
G0 F9000 X259.922 Y145.371
G1 F1800 X257.332 Y142.781 E80.34918
G0 F9000 X257.847 Y142.730
G1 F1800 X260.273 Y145.157 E80.52039
G0 F9000 X260.626 Y144.943
G1 F1800 X258.361 Y142.679 E80.68016
G0 F9000 X258.877 Y142.629
G1 F1800 X260.978 Y144.729 E80.82836
G0 F9000 X261.330 Y144.516
G1 F1800 X259.392 Y142.578 E80.96510
G0 F9000 X259.906 Y142.527
G1 F1800 X261.682 Y144.302 E81.09037
G0 F9000 X262.034 Y144.089
G1 F1800 X260.422 Y142.477 E81.20410
G0 F9000 X260.937 Y142.426
G1 F1800 X262.386 Y143.875 E81.30634
G0 F9000 X262.685 Y143.609
G1 F1800 X261.452 Y142.375 E81.39337
G0 F9000 X261.967 Y142.325
G1 F1800 X262.976 Y143.334 E81.46456
G0 F9000 X262.625 Y142.417
G1 F1800 X262.482 Y142.274 E81.47465
G0 F9000 X254.443 Y148.912
G0 X254.714 Y149.749
G0 X263.224 Y149.238
G1 F1800 X264.614 Y150.629 E81.57276
G0 F9000 X264.870 Y150.318
G1 F1800 X263.747 Y149.195 E81.65199
G0 F9000 X262.701 Y149.281
G1 F1800 X264.153 Y150.733 E81.75444
G0 F9000 X263.691 Y150.837
G1 F1800 X262.178 Y149.323 E81.86122
G0 F9000 X261.655 Y149.367
G1 F1800 X263.229 Y150.941 E81.97228
G0 F9000 X262.774 Y151.051
G1 F1800 X261.132 Y149.409 E82.08813
G0 F9000 X260.609 Y149.452
G1 F1800 X262.323 Y151.166 E82.20906
G0 F9000 X261.873 Y151.281
G1 F1800 X260.086 Y149.495 E82.33511
G0 F9000 X254.714 Y149.749
G0 X254.443 Y148.912
G0 X257.457 Y146.866
G1 F1800 X253.726 Y143.135 E82.59835
G0 F9000 X252.772 Y142.180
G1 F1800 X240.862 Y130.270 E83.43866
G0 F9000 X240.066 Y130.041
G1 F1800 X257.105 Y147.079 E84.64082
G0 F9000 X256.753 Y147.293
G1 F1800 X239.270 Y129.810 E85.87434
G0 F9000 X238.474 Y129.580
G1 F1800 X256.401 Y147.506 E87.13915
G0 F9000 X256.049 Y147.720
G1 F1800 X237.679 Y129.350 E88.43526
G0 F9000 X236.945 Y129.182
G1 F1800 X255.697 Y147.934 E89.75831
G0 F9000 X255.345 Y148.148
G1 F1800 X236.447 Y129.249 E91.09170
G0 F9000 X235.950 Y129.318
G1 F1800 X254.993 Y148.361 E92.43529
G0 F9000 X254.641 Y148.575
G1 F1800 X235.453 Y129.387 E93.78911
G0 F9000 X234.956 Y129.455
G1 F1800 X254.289 Y148.788 E95.15315
G0 F9000 X251.860 Y149.753
G1 F1800 X254.846 Y152.740 E95.36387
G0 F9000 X254.370 Y152.829
G1 F1800 X251.860 Y150.319 E95.54096
G0 F9000 X251.860 Y150.885
G1 F1800 X253.894 Y152.919 E95.68447
G0 F9000 X253.352 Y152.942
G1 F1800 X251.860 Y151.450 E95.78974
G0 F9000 X251.860 Y152.016
G1 F1800 X252.786 Y152.942 E95.85507
G0 F9000 X252.220 Y152.942
G1 F1800 X251.860 Y152.582 E95.88047
G0 F9000 X251.662 Y149.316
G0 X245.091 Y149.311
G0 X240.341 Y152.942
G1 F1800 X224.244 Y136.846 E97.01617
G0 F9000 X224.063 Y137.231
G1 F1800 X239.775 Y152.942 E98.12470
G0 F9000 X239.209 Y152.942
G1 F1800 X223.882 Y137.615 E99.20610
G0 F9000 X223.701 Y138.000
G1 F1800 X238.644 Y152.942 E100.26038
G0 F9000 X238.078 Y152.942
G1 F1800 X223.520 Y138.385 E101.28749
G0 F9000 X223.339 Y138.769
G1 F1800 X233.686 Y149.116 E102.01752
G0 F9000 X233.876 Y149.307
G1 F1800 X237.512 Y152.942 E102.27403
G0 F9000 X236.947 Y152.942
G1 F1800 X233.876 Y149.872 E102.49067
G0 F9000 X233.876 Y150.438
G1 F1800 X236.381 Y152.942 E102.66737
G0 F9000 X235.815 Y152.942
G1 F1800 X233.876 Y151.004 E102.80415
G0 F9000 X233.876 Y151.569
G1 F1800 X235.250 Y152.942 E102.90105
G0 F9000 X234.684 Y152.942
G1 F1800 X233.876 Y152.135 E102.95803
G0 F9000 X233.876 Y152.701
G1 F1800 X234.118 Y152.942 E102.97507
G0 F9000 X233.679 Y149.316
G0 X233.119 Y149.115
G1 F1800 X223.158 Y139.154 E103.67787
G0 F9000 X222.977 Y139.539
G1 F1800 X232.553 Y149.115 E104.35351
G0 F9000 X231.987 Y149.114
G1 F1800 X222.795 Y139.922 E105.00205
G0 F9000 X222.614 Y140.307
G1 F1800 X231.421 Y149.113 E105.62340
G0 F9000 X230.854 Y149.113
G1 F1800 X222.433 Y140.692 E106.21755
G0 F9000 X222.252 Y141.076
G1 F1800 X230.288 Y149.112 E106.78453
G0 F9000 X229.722 Y149.112
G1 F1800 X222.071 Y141.461 E107.32435
G0 F9000 X221.890 Y141.846
G1 F1800 X229.156 Y149.111 E107.83697
G0 F9000 X228.589 Y149.111
G1 F1800 X221.709 Y142.230 E108.32242
G0 F9000 X221.528 Y142.615
G1 F1800 X228.023 Y149.110 E108.78068
G0 F9000 X227.457 Y149.109
G1 F1800 X221.347 Y142.999 E109.21178
G0 F9000 X221.166 Y143.384
G1 F1800 X226.907 Y149.125 E109.61683
G0 F9000 X226.907 Y149.691
G1 F1800 X220.985 Y143.768 E110.03470
G0 F9000 X220.803 Y144.153
G1 F1800 X226.907 Y150.257 E110.46537
G0 F9000 X226.907 Y150.823
G1 F1800 X220.622 Y144.538 E110.90881
G0 F9000 X220.441 Y144.922
G1 F1800 X226.907 Y151.388 E111.36502
G0 F9000 X226.907 Y151.954
G1 F1800 X220.260 Y145.307 E111.83400
G0 F9000 X220.079 Y145.691
G1 F1800 X226.907 Y152.520 E112.31579
G0 F9000 X226.764 Y152.942
G1 F1800 X219.898 Y146.076 E112.80022
G0 F9000 X219.717 Y146.460
G1 F1800 X226.199 Y152.942 E113.25756
G0 F9000 X225.633 Y152.942
G1 F1800 X219.536 Y146.845 E113.68774
G0 F9000 X219.355 Y147.230
G1 F1800 X225.067 Y152.942 E114.09075
G0 F9000 X224.502 Y152.942
G1 F1800 X219.174 Y147.614 E114.46667
G0 F9000 X218.993 Y147.999
G1 F1800 X223.936 Y152.942 E114.81543
G0 F9000 X223.370 Y152.942
G1 F1800 X218.812 Y148.384 E115.13702
G0 F9000 X219.218 Y149.356
G1 F1800 X222.805 Y152.942 E115.39006
G0 F9000 X222.239 Y152.942
G1 F1800 X219.892 Y150.596 E115.55562
G0 F9000 X220.567 Y151.836
G1 F1800 X221.673 Y152.942 E115.63366
G0 F9000 X241.658 Y130.501
G1 F1800 X252.151 Y140.994 E116.37400
G0 F9000 X251.529 Y139.807
G1 F1800 X242.454 Y130.732 E117.01429
G0 F9000 X243.251 Y130.962
G1 F1800 X250.926 Y138.637 E117.55580
G0 F9000 X250.539 Y137.685
G1 F1800 X244.046 Y131.192 E118.01391
G0 F9000 X246.166 Y132.746
G1 F1800 X250.152 Y136.732 E118.29515
G0 F9000 X249.764 Y135.779
G1 F1800 X249.079 Y135.094 E118.34348
G1 F2400 E114.34348
G0 F9000 X249.887 Y152.311
;TYPE:WALL-INNER
G1 F2400 E118.34348
G1 F1800 X249.887 Y156.197 E118.53735
G1 X253.850 Y156.199 E118.73507
G1 X260.938 Y156.085 E119.08873
G1 X264.324 Y156.234 E119.25783
G1 X265.499 Y156.849 E119.32399
G1 X265.588 Y157.465 E119.35504
G1 X264.522 Y158.288 E119.42223
G1 X253.955 Y160.626 E119.96217
G1 X253.909 Y161.540 E120.00783
G1 X265.036 Y165.197 E120.59217
G1 X265.312 Y165.678 E120.61984
G1 X265.088 Y166.495 E120.66210
G1 X263.801 Y166.891 E120.72928
G1 X252.637 Y168.143 E121.28975
G1 X252.572 Y169.145 E121.33984
G1 X265.202 Y172.257 E121.98880
G1 X265.905 Y174.090 E122.08674
G1 X265.582 Y175.122 E122.14069
G1 X263.483 Y175.419 E122.24646
G1 X260.108 Y175.307 E122.41493
G1 X253.142 Y174.649 E122.76401
G1 X247.712 Y174.644 E123.03491
G1 X247.712 Y170.843 E123.22455
G1 X241.025 Y170.843 E123.55816
G1 X241.025 Y174.643 E123.74775
G1 X229.732 Y174.648 E124.31116
G1 X229.732 Y170.843 E124.50099
G1 X223.042 Y170.843 E124.83475
G1 X223.042 Y174.647 E125.02454
G1 X216.259 Y174.647 E125.36294
