;Generated with Cura_SteamEngine 15.01
; Default start code
G28 ; Home extruder
G1 Z15 F100
M107 ; Turn off fan
G90 ; Absolute positioning
M82 ; Extruder in absolute mode
M190 S50
; Activate all used extruder
M104 T0 S210
G92 E0 ; Reset extruder position
; Wait for all used extruders to reach temperature
M109 T0 S210
;Layer count: 40
;LAYER:0
M107
G0 F9000 X104.509 Y97.258 Z0.300
;TYPE:SKIRT
G1 F1800 X105.616 Y96.063 E0.08127
G1 X114.118 Y96.899 E0.50748
G1 X115.138 Y94.952 E0.61714
G1 X116.377 Y91.895 E0.78170
G1 X116.729 Y91.047 E0.82751
G1 X123.471 Y85.616 E1.25943
G1 X132.330 Y83.052 E1.71955
G1 X142.740 Y84.484 E2.24379
G1 X148.618 Y92.280 E2.73090
G1 X149.093 Y93.290 E2.78659
G1 X155.332 Y106.535 E3.51702
G1 X152.264 Y112.177 E3.83743
G1 X152.487 Y113.516 E3.90515
G1 X154.770 Y126.724 E4.57387
G1 X157.076 Y131.386 E4.83336
G1 X157.474 Y132.189 E4.87807
G1 X157.474 Y132.694 E4.90327
G1 X172.715 Y142.862 E5.81733
G1 X180.547 Y153.728 E6.48558
G1 X180.567 Y153.905 E6.49446
G1 X181.566 Y153.905 E6.54430
G1 X181.566 Y156.741 E6.68579
G1 X183.003 Y160.593 E6.89091
G1 X184.419 Y172.948 E7.51134
G1 X184.437 Y173.105 E7.51922
G1 X184.824 Y175.378 E7.63425
G1 X186.833 Y186.712 E8.20852
G1 X191.484 Y197.845 E8.81047
G1 X191.523 Y197.939 E8.81555
G1 X195.989 Y205.601 E9.25800
G1 X195.988 Y205.601 E9.25805
G1 X196.000 Y205.621 E9.25922
G1 X199.299 Y209.886 E9.52822
G1 X201.098 Y212.190 E9.67406
G1 X197.799 Y215.612 E9.91120
G1 X196.924 Y216.511 E9.97379
G1 X191.706 Y216.951 E10.23504
G1 X189.305 Y215.621 E10.37198
G1 X187.729 Y214.755 E10.46169
G1 X187.053 Y214.383 E10.50019
G1 X184.599 Y210.964 E10.71015
G1 X185.024 Y212.748 E10.80165
G1 X181.070 Y216.124 E11.06104
G1 X177.358 Y215.921 E11.24650
G1 X176.241 Y215.849 E11.30235
G1 X174.589 Y214.476 E11.40952
G1 X169.128 Y215.740 E11.68917
G1 X166.280 Y214.952 E11.83659
G1 X165.869 Y214.835 E11.85791
G1 X163.993 Y213.806 E11.96466
G1 X163.222 Y213.381 E12.00859
G1 X163.103 Y213.191 E12.01977
G1 X159.120 Y214.308 E12.22615
G1 X155.889 Y213.148 E12.39742
G1 X154.472 Y212.643 E12.47247
G1 X152.812 Y208.456 E12.69718
G1 X149.666 Y209.156 E12.85797
G1 X147.575 Y208.328 E12.97017
G1 X146.235 Y207.810 E13.04185
G1 X144.719 Y203.807 E13.25540
G1 X144.641 Y203.013 E13.29520
G1 X142.614 Y203.292 E13.39728
G1 X140.202 Y201.461 E13.54836
G1 X138.803 Y200.382 E13.63651
G1 X139.061 Y196.610 E13.82513
G1 X137.738 Y196.774 E13.89164
G1 X134.370 Y192.041 E14.18145
G1 X134.719 Y187.760 E14.39574
G1 X133.486 Y187.979 E14.45822
G1 X131.858 Y188.288 E14.54089
G1 X128.752 Y185.351 E14.75416
G1 X127.345 Y184.002 E14.85141
G1 X128.201 Y180.675 E15.02280
G1 X127.034 Y181.054 E15.08401
G1 X127.034 Y181.055 E15.08406
G1 X125.076 Y181.697 E15.18686
G1 X120.097 Y176.601 E15.54231
G1 X121.052 Y174.533 E15.65595
G1 X119.766 Y174.591 E15.72018
G1 X119.766 Y174.590 E15.72023
G1 X118.272 Y174.661 E15.79485
G1 X113.784 Y170.061 E16.11547
G1 X115.776 Y164.641 E16.40356
G1 X117.333 Y163.250 E16.50773
G1 X116.514 Y163.544 E16.55114
G1 X114.014 Y163.989 E16.67783
G1 X112.384 Y164.298 E16.76060
G1 X109.281 Y161.358 E16.97386
G1 X107.876 Y160.011 E17.07096
G1 X109.129 Y155.123 E17.32271
G1 X106.968 Y154.679 E17.43278
G1 X105.088 Y150.110 E17.67927
G1 X106.058 Y146.322 E17.87435
G1 X106.000 Y146.298 E17.87748
G1 X104.465 Y145.640 E17.96080
G1 X103.339 Y140.898 E18.20396
G1 X105.849 Y137.961 E18.39671
G1 X107.161 Y137.092 E18.47522
G1 X105.988 Y137.131 E18.53377
G1 X103.250 Y136.742 E18.67174
G1 X103.250 Y136.743 E18.67179
G1 X101.184 Y136.452 E18.77588
G1 X99.746 Y131.867 E19.01562
G1 X101.459 Y127.391 E19.25472
G1 X100.281 Y123.063 E19.47850
G1 X102.058 Y119.946 E19.65750
G1 X103.276 Y119.546 E19.72146
G1 X101.548 Y118.209 E19.83046
G1 X100.009 Y117.044 E19.92676
G1 X100.685 Y112.285 E20.16657
G1 X102.101 Y111.546 E20.24626
G1 X100.976 Y109.410 E20.36670
G1 X99.937 Y107.454 E20.47720
G1 X102.716 Y104.234 E20.68940
G1 X103.353 Y103.505 E20.73770
G1 X102.397 Y102.624 E20.80256
G1 X102.740 Y100.012 E20.93399
G1 X102.910 Y98.991 E20.98563
G1 X104.509 Y97.258 E21.10327
G1 F2400 E17.10327
G0 F9000 X106.479 Y100.727
;TYPE:WALL-INNER
G1 F2400 E21.10327
G1 F1800 X107.123 Y100.029 E21.15065
G1 X115.665 Y100.869 E21.57887
G1 X116.295 Y100.933 E21.61046
G1 X118.523 Y96.678 E21.85009
G1 X118.591 Y96.551 E21.85727
G1 X119.869 Y93.397 E22.02705
G1 X125.260 Y89.054 E22.37243
G1 X132.612 Y86.926 E22.75428
G1 X140.657 Y88.033 E23.15943
G1 X145.347 Y94.252 E23.54804
G1 X151.074 Y106.411 E24.21857
G1 X148.586 Y110.985 E24.47834
G1 X142.624 Y110.986 E24.77579
G1 X142.622 Y107.157 E24.96682
G1 X135.932 Y107.159 E25.30058
G1 X135.934 Y110.985 E25.49146
G1 X124.641 Y110.986 E26.05487
G1 X124.642 Y107.157 E26.24590
G1 X117.952 Y107.159 E26.57967
G1 X117.952 Y110.985 E26.77055
G1 X115.886 Y110.986 E26.87362
G1 X109.717 Y109.822 E27.18683
G1 X106.618 Y109.026 E27.34645
G1 X104.861 Y108.632 E27.43629
G1 X104.511 Y107.969 E27.47369
G1 X105.420 Y106.916 E27.54309
G1 X114.278 Y107.639 E27.98649
G1 X114.987 Y107.699 E28.02199
G1 X115.282 Y106.795 E28.06943
G1 X107.154 Y101.865 E28.54370
G1 X106.421 Y101.171 E28.59406
G1 X106.479 Y100.727 E28.61640
G0 F9000 X106.099 Y100.550
;TYPE:WALL-OUTER
G1 F1800 X106.964 Y99.612 E28.68006
G1 X116.067 Y100.507 E29.13640
G1 X118.170 Y96.491 E29.36257
G1 X118.228 Y96.382 E29.36873
G1 X119.522 Y93.186 E29.54075
G1 X119.538 Y93.150 E29.54271
G1 X125.072 Y88.692 E29.89725
G1 X132.582 Y86.519 E30.28729
G1 X140.876 Y87.660 E30.70498
G1 X145.691 Y94.045 E31.10395
G1 X151.522 Y106.424 E31.78663
G1 X148.858 Y111.322 E32.06479
G1 X148.858 Y111.385 E32.06794
G1 X142.224 Y111.386 E32.39891
G1 X142.222 Y107.557 E32.58994
G1 X136.332 Y107.559 E32.88379
G1 X136.334 Y111.385 E33.07467
G1 X124.242 Y111.386 E33.67794
G1 X124.241 Y107.557 E33.86897
G1 X118.352 Y107.559 E34.16278
G1 X118.352 Y111.385 E34.35366
G1 X115.849 Y111.386 E34.47853
G1 X109.637 Y110.214 E34.79392
G1 X106.525 Y109.415 E34.95421
G1 X104.592 Y108.981 E35.05305
G1 X104.030 Y107.914 E35.11322
G1 X105.251 Y106.500 E35.20642
G1 X114.705 Y107.273 E35.67966
G1 X114.803 Y106.972 E35.69545
G1 X106.907 Y102.183 E36.15618
G1 X105.997 Y101.321 E36.21871
G1 X106.099 Y100.550 E36.25751
G0 F9000 X106.667 Y100.728
;TYPE:SKIN
G1 F1800 X108.391 Y102.451 E36.37911
G0 F9000 X109.829 Y103.323
G1 F1800 X106.939 Y100.433 E36.58302
G0 F9000 X107.253 Y100.182
G1 F1800 X111.267 Y104.196 E36.86623
G0 F9000 X112.705 Y105.068
G1 F1800 X107.881 Y100.244 E37.20659
G0 F9000 X108.509 Y100.306
G1 F1800 X114.142 Y105.940 E37.60406
G0 F9000 X115.321 Y107.118
G1 F1800 X117.811 Y109.608 E37.77974
G0 F9000 X117.811 Y110.174
G1 F1800 X115.182 Y107.545 E37.96523
G0 F9000 X114.903 Y107.832
G1 F1800 X117.811 Y110.739 E38.17037
G0 F9000 X117.350 Y110.844
G1 F1800 X114.287 Y107.782 E38.38645
G0 F9000 X113.671 Y107.731
G1 F1800 X116.785 Y110.845 E38.60616
G0 F9000 X116.219 Y110.845
G1 F1800 X113.055 Y107.681 E38.82940
G0 F9000 X112.439 Y107.630
G1 F1800 X115.597 Y110.788 E39.05221
G0 F9000 X114.899 Y110.657
G1 F1800 X111.822 Y107.579 E39.26934
G0 F9000 X111.206 Y107.529
G1 F1800 X114.202 Y110.525 E39.48073
G0 F9000 X113.505 Y110.394
G1 F1800 X110.590 Y107.479 E39.68640
G0 F9000 X109.974 Y107.428
G1 F1800 X112.808 Y110.262 E39.88635
G0 F9000 X112.111 Y110.131
G1 F1800 X109.358 Y107.378 E40.08059
G0 F9000 X108.742 Y107.328
G1 F1800 X111.413 Y109.999 E40.26904
G0 F9000 X110.716 Y109.868
G1 F1800 X108.125 Y107.277 E40.45185
G0 F9000 X107.509 Y107.227
G1 F1800 X110.019 Y109.736 E40.62891
G0 F9000 X109.283 Y109.566
G1 F1800 X106.893 Y107.176 E40.79754
G0 F9000 X106.277 Y107.125
G1 F1800 X108.521 Y109.370 E40.95590
G0 F9000 X107.760 Y109.175
G1 F1800 X105.661 Y107.075 E41.10403
G0 F9000 X105.293 Y107.273
G1 F1800 X106.999 Y108.979 E41.22440
G0 F9000 X106.255 Y108.801
G1 F1800 X105.032 Y107.577 E41.31072
G0 F9000 X104.769 Y107.881
G1 F1800 X105.525 Y108.636 E41.36403
G0 F9000 X114.956 Y107.652
G0 X115.230 Y106.814
G0 X109.136 Y100.368
G1 F1800 X117.811 Y109.042 E41.97606
G0 F9000 X117.811 Y108.477
G1 F1800 X109.764 Y100.430 E42.54382
G0 F9000 X110.391 Y100.491
G1 F1800 X117.811 Y107.911 E43.06734
G0 F9000 X117.811 Y107.345
G1 F1800 X111.018 Y100.553 E43.54659
G0 F9000 X111.646 Y100.615
G1 F1800 X118.049 Y107.018 E43.99836
G0 F9000 X118.615 Y107.018
G1 F1800 X112.273 Y100.677 E44.44578
G0 F9000 X112.901 Y100.739
G1 F1800 X119.180 Y107.018 E44.88880
G0 F9000 X119.746 Y107.018
G1 F1800 X113.528 Y100.800 E45.32751
G0 F9000 X114.156 Y100.862
G1 F1800 X120.311 Y107.017 E45.76178
G0 F9000 X120.877 Y107.017
G1 F1800 X114.783 Y100.924 E46.19171
G0 F9000 X115.411 Y100.986
G1 F1800 X121.442 Y107.017 E46.61723
G0 F9000 X122.008 Y107.017
G1 F1800 X116.039 Y101.048 E47.03838
G0 F9000 X116.465 Y100.909
G1 F1800 X122.573 Y107.017 E47.46933
G0 F9000 X123.139 Y107.017
G1 F1800 X116.659 Y100.537 E47.92653
G0 F9000 X116.854 Y100.166
G1 F1800 X123.704 Y107.017 E48.40987
G0 F9000 X124.270 Y107.017
G1 F1800 X117.048 Y99.795 E48.91942
G0 F9000 X117.242 Y99.423
G1 F1800 X128.664 Y110.845 E49.72530
G0 F9000 X128.098 Y110.845
G1 F1800 X124.780 Y107.526 E49.95944
G0 F9000 X124.780 Y108.092
G1 F1800 X127.533 Y110.845 E50.15368
G0 F9000 X126.967 Y110.845
G1 F1800 X124.780 Y108.658 E50.30798
G0 F9000 X124.780 Y109.223
G1 F1800 X126.401 Y110.845 E50.42239
G0 F9000 X125.836 Y110.845
G1 F1800 X124.780 Y109.789 E50.49690
G0 F9000 X124.780 Y110.355
G1 F1800 X125.270 Y110.845 E50.53147
G0 F9000 X129.230 Y110.845
G1 F1800 X117.437 Y99.052 E51.36353
G0 F9000 X117.631 Y98.680
G1 F1800 X129.795 Y110.845 E52.22180
G0 F9000 X130.361 Y110.845
G1 F1800 X117.825 Y98.309 E53.10628
G0 F9000 X118.020 Y97.938
G1 F1800 X130.927 Y110.845 E54.01694
G0 F9000 X131.492 Y110.845
G1 F1800 X118.214 Y97.567 E54.95378
G0 F9000 X118.409 Y97.196
G1 F1800 X132.058 Y110.845 E55.91679
G0 F9000 X132.624 Y110.845
G1 F1800 X118.603 Y96.824 E56.90604
G0 F9000 X118.784 Y96.440
G1 F1800 X133.189 Y110.845 E57.92239
G0 F9000 X133.755 Y110.845
G1 F1800 X118.948 Y96.037 E58.96714
G0 F9000 X119.110 Y95.634
G1 F1800 X134.321 Y110.845 E60.04036
G0 F9000 X134.886 Y110.845
G1 F1800 X119.274 Y95.232 E61.14191
G0 F9000 X119.437 Y94.830
G1 F1800 X135.452 Y110.845 E62.27185
G0 F9000 X135.793 Y110.620
G1 F1800 X119.600 Y94.427 E63.41436
G0 F9000 X119.763 Y94.024
G1 F1800 X135.793 Y110.054 E64.54536
G0 F9000 X135.792 Y109.488
G1 F1800 X119.926 Y93.621 E65.66483
G0 F9000 X120.188 Y93.318
G1 F1800 X135.792 Y108.922 E66.76577
G0 F9000 X135.792 Y108.357
G1 F1800 X120.501 Y93.065 E67.84467
G0 F9000 X120.814 Y92.813
G1 F1800 X135.792 Y107.790 E68.90141
G0 F9000 X135.792 Y107.224
G1 F1800 X121.128 Y92.560 E69.93604
G0 F9000 X121.441 Y92.308
G1 F1800 X136.151 Y107.018 E70.97391
G0 F9000 X136.716 Y107.018
G1 F1800 X121.755 Y92.056 E72.02952
G0 F9000 X122.068 Y91.804
G1 F1800 X137.282 Y107.018 E73.10295
G0 F9000 X137.848 Y107.018
G1 F1800 X122.381 Y91.551 E74.19423
G0 F9000 X122.695 Y91.299
G1 F1800 X138.413 Y107.017 E75.30322
G0 F9000 X138.979 Y107.017
G1 F1800 X123.008 Y91.047 E76.43003
G0 F9000 X123.321 Y90.794
G1 F1800 X139.544 Y107.017 E77.57465
G0 F9000 X140.110 Y107.017
G1 F1800 X123.635 Y90.542 E78.73705
G0 F9000 X123.948 Y90.290
G1 F1800 X140.675 Y107.017 E79.91723
G0 F9000 X141.241 Y107.017
G1 F1800 X124.261 Y90.038 E81.11522
G0 F9000 X124.575 Y89.785
G1 F1800 X141.806 Y107.017 E82.33100
G0 F9000 X142.372 Y107.017
G1 F1800 X124.888 Y89.533 E83.56459
G0 F9000 X125.201 Y89.280
G1 F1800 X146.765 Y110.844 E85.08605
G0 F9000 X146.199 Y110.844
G1 F1800 X142.761 Y107.405 E85.32865
G0 F9000 X142.761 Y107.971
G1 F1800 X145.634 Y110.844 E85.53136
G0 F9000 X145.069 Y110.845
G1 F1800 X142.762 Y108.538 E85.69413
G0 F9000 X142.762 Y109.103
G1 F1800 X144.503 Y110.845 E85.81700
G0 F9000 X143.937 Y110.845
G1 F1800 X142.762 Y109.670 E85.89990
G0 F9000 X142.762 Y110.235
G1 F1800 X143.372 Y110.845 E85.94294
G0 F9000 X147.331 Y110.844
G1 F1800 X125.591 Y89.104 E87.47682
G0 F9000 X126.029 Y88.977
G1 F1800 X147.897 Y110.844 E89.01969
G0 F9000 X148.462 Y110.844
G1 F1800 X126.468 Y88.850 E90.57148
G0 F9000 X126.907 Y88.723
G1 F1800 X148.688 Y110.504 E92.10825
G0 F9000 X148.886 Y110.137
G1 F1800 X127.345 Y88.596 E93.62808
G0 F9000 X127.784 Y88.469
G1 F1800 X149.086 Y109.771 E95.13105
G0 F9000 X149.285 Y109.404
G1 F1800 X128.223 Y88.342 E96.61709
G0 F9000 X128.662 Y88.215
G1 F1800 X149.485 Y109.038 E98.08627
G0 F9000 X149.684 Y108.672
G1 F1800 X129.100 Y88.088 E99.53858
G0 F9000 X129.539 Y87.961
G1 F1800 X149.883 Y108.305 E100.97396
G0 F9000 X150.082 Y107.939
G1 F1800 X129.978 Y87.834 E102.39244
G0 F9000 X130.416 Y87.707
G1 F1800 X150.282 Y107.572 E103.79406
G0 F9000 X150.481 Y107.206
G1 F1800 X130.855 Y87.580 E105.17878
G0 F9000 X131.294 Y87.453
G1 F1800 X150.680 Y106.840 E106.54660
G0 F9000 X150.879 Y106.473
G1 F1800 X131.733 Y87.326 E107.89749
G0 F9000 X132.171 Y87.199
G1 F1800 X150.506 Y105.534 E109.19112
G0 F9000 X150.002 Y104.465
G1 F1800 X132.610 Y87.072 E110.41826
G0 F9000 X133.260 Y87.157
G1 F1800 X149.498 Y103.395 E111.56394
G0 F9000 X148.995 Y102.326
G1 F1800 X133.916 Y87.247 E112.62784
G0 F9000 X134.572 Y87.337
G1 F1800 X148.491 Y101.256 E113.60990
G0 F9000 X147.988 Y100.187
G1 F1800 X135.228 Y87.428 E114.51015
G0 F9000 X135.884 Y87.517
G1 F1800 X147.484 Y99.117 E115.32860
G0 F9000 X146.980 Y98.048
G1 F1800 X136.540 Y87.608 E116.06519
G0 F9000 X137.196 Y87.698
G1 F1800 X146.477 Y96.979 E116.72002
G0 F9000 X145.973 Y95.909
G1 F1800 X137.852 Y87.789 E117.29296
G0 F9000 X138.508 Y87.879
G1 F1800 X145.469 Y94.840 E117.78410
G0 F9000 X144.327 Y93.133
G1 F1800 X139.164 Y87.969 E118.14841
G0 F9000 X139.820 Y88.060
G1 F1800 X142.590 Y90.829 E118.34382
G0 F9000 X140.852 Y88.526
G1 F1800 X140.475 Y88.150 E118.37038
G1 F2400 E114.37038
G0 F9000 X140.788 Y110.212
;TYPE:WALL-INNER
G1 F2400 E118.37038
G1 F1800 X140.789 Y113.354 E118.52714
G1 X140.794 Y114.099 E118.56431
G1 X148.732 Y114.098 E118.96033
G1 X151.120 Y127.915 E119.65989
G1 X153.412 Y132.549 E119.91781
G1 X146.630 Y132.550 E120.25617
G1 X146.628 Y128.745 E120.44600
G1 X139.938 Y128.745 E120.77976
G1 X139.940 Y132.550 E120.96960
G1 X128.648 Y132.546 E121.53296
G1 X128.648 Y128.745 E121.72259
G1 X121.958 Y128.745 E122.05635
G1 X121.958 Y132.546 E122.24599
G1 X116.530 Y132.551 E122.51679
G1 X109.565 Y133.208 E122.86582
G1 X106.190 Y133.321 E123.03429
G1 X104.091 Y133.024 E123.14005
G1 X103.767 Y131.990 E123.19411
G1 X104.467 Y130.159 E123.29191
G1 X117.101 Y127.047 E123.94106
G1 X117.036 Y126.045 E123.99116
G1 X106.086 Y124.818 E124.54088
G1 X105.869 Y124.793 E124.55177
G1 X104.583 Y124.397 E124.61891
G1 X104.360 Y123.580 E124.66116
G1 X104.634 Y123.099 E124.68877
G1 X115.764 Y119.442 E125.27326
G1 X115.718 Y118.528 E125.31892
G1 X105.149 Y116.190 E125.85895
G1 X104.085 Y115.367 E125.92606
G1 X104.173 Y114.751 E125.95711
G1 X105.349 Y114.136 E126.02332
G1 X108.734 Y113.987 E126.19236
G1 X115.823 Y114.100 E126.54607
G1 X116.947 Y114.101 E126.60215
G1 X119.786 Y114.098 E126.74379
G1 X119.786 Y110.213 E126.93761
G1 X122.808 Y110.212 E127.08838
G1 X122.808 Y114.099 E127.28230
G1 X137.768 Y114.099 E128.02866
G1 X137.768 Y110.213 E128.22254
G1 X140.788 Y110.212 E128.37320
G0 F9000 X141.188 Y109.812
;TYPE:WALL-OUTER
G1 F1800 X141.189 Y113.353 E128.54986
G1 X141.191 Y113.699 E128.56713
G1 X149.071 Y113.698 E128.96026
G1 X151.504 Y127.790 E129.67372
G1 X154.056 Y132.949 E129.96087
G1 X146.230 Y132.950 E130.35131
G1 X146.228 Y129.145 E130.54114
G1 X140.338 Y129.145 E130.83500
G1 X140.340 Y132.950 E131.02483
G1 X128.248 Y132.946 E131.62810
G1 X128.248 Y129.145 E131.81773
G1 X122.358 Y129.145 E132.11159
G1 X122.358 Y132.945 E132.30117
G1 X116.549 Y132.951 E132.59098
G1 X109.583 Y133.608 E132.94006
G1 X106.170 Y133.722 E133.11043
G1 X103.785 Y133.385 E133.23060
G1 X103.344 Y131.977 E133.30421
G1 X104.169 Y129.820 E133.41942
G1 X116.680 Y126.739 E134.06225
G1 X116.659 Y126.405 E134.07895
G1 X105.787 Y125.186 E134.62475
G1 X104.254 Y124.714 E134.70478
G1 X103.931 Y123.526 E134.76620
G1 X104.364 Y122.767 E134.80979
G1 X115.349 Y119.157 E135.38667
G1 X115.334 Y118.853 E135.40186
G1 X104.975 Y116.562 E135.93116
G1 X103.656 Y115.541 E136.01437
