;Generated with Cura_SteamEngine 15.01
; Default start code
G28 ; Home extruder
G1 Z15 F100
M107 ; Turn off fan
G90 ; Absolute positioning
M82 ; Extruder in absolute mode
M190 S50
; Activate all used extruder
M104 T0 S210
G92 E0 ; Reset extruder position
; Wait for all used extruders to reach temperature
M109 T0 S210
;Layer count: 30
;LAYER:0
M107
G0 F9000 X134.520 Y123.236 Z0.300
;TYPE:SKIRT
G1 F1800 X140.495 Y127.712 E0.37246
G1 X141.619 Y127.749 E0.42857
G1 X145.005 Y123.832 E0.68688
G1 X148.516 Y127.934 E0.95626
G1 X150.030 Y127.946 E1.03179
G1 X155.139 Y123.468 E1.37073
G1 X158.997 Y131.538 E1.81699
G1 X156.806 Y134.949 E2.01925
G1 X160.777 Y137.993 E2.26887
G1 X166.767 Y138.383 E2.56835
G1 X166.759 Y142.332 E2.76536
G1 X169.100 Y144.961 E2.94099
G1 X167.261 Y147.358 E3.09172
G1 X168.314 Y150.159 E3.24101
G1 X166.327 Y151.448 E3.35917
G1 X167.211 Y153.353 E3.46395
G1 X165.398 Y154.569 E3.57286
G1 X165.817 Y155.873 E3.64119
G1 X162.050 Y159.683 E3.90849
G1 X161.446 Y160.293 E3.95132
G1 X163.282 Y162.609 E4.09877
G1 X159.879 Y165.319 E4.31580
G1 X159.879 Y167.867 E4.44292
G1 X153.926 Y172.380 E4.81562
G1 X153.134 Y172.981 E4.86522
G1 X146.776 Y174.896 E5.19650
G1 X142.088 Y174.633 E5.43075
G1 X140.580 Y174.546 E5.50611
G1 X135.852 Y169.848 E5.83864
G1 X135.984 Y164.113 E6.12484
G1 X136.000 Y163.496 E6.15563
G1 X136.999 Y158.930 E6.38882
G1 X139.015 Y154.690 E6.62304
G1 X142.248 Y150.846 E6.87363
G1 X146.541 Y147.468 E7.14617
G1 X149.790 Y145.339 E7.33996
G1 X150.291 Y144.607 E7.38421
G1 X142.228 Y137.687 E7.91432
G1 X140.750 Y137.310 E7.99042
G1 X137.844 Y136.571 E8.14001
G1 X134.021 Y134.910 E8.34797
G1 X131.463 Y131.251 E8.57070
G1 X132.521 Y128.404 E8.72223
G1 X134.520 Y123.236 E8.99868
G1 F2400 E4.99868
G0 F9000 X136.072 Y129.755
;TYPE:WALL-INNER
G1 F2400 E8.99868
G1 F1800 X136.255 Y129.284 E9.02389
G1 X139.175 Y131.470 E9.20587
G1 X143.308 Y131.606 E9.41217
G1 X144.991 Y129.659 E9.54057
G1 X146.755 Y131.721 E9.67595
G1 X151.447 Y131.757 E9.91004
G1 X153.873 Y129.630 E10.07101
G1 X154.656 Y131.266 E10.16149
G1 X153.962 Y132.345 E10.22550
G1 X151.880 Y133.285 E10.33947
G1 X150.196 Y133.880 E10.42857
G1 X150.084 Y134.586 E10.46423
G1 X159.380 Y141.710 E11.04854
G1 X162.960 Y141.943 E11.22753
G1 X162.957 Y143.775 E11.31892
G1 X164.173 Y145.141 E11.41016
G1 X162.962 Y146.720 E11.50944
G1 X163.681 Y148.635 E11.61149
G1 X161.492 Y150.055 E11.74167
G1 X162.397 Y152.006 E11.84897
G1 X160.906 Y153.006 E11.93853
G1 X161.495 Y154.839 E12.03459
G1 X156.911 Y159.471 E12.35971
G1 X156.369 Y160.017 E12.39809
G1 X157.948 Y161.999 E12.52452
G1 X156.079 Y163.488 E12.64374
G1 X156.079 Y165.979 E12.76802
G1 X151.385 Y169.539 E13.06193
G1 X146.320 Y171.064 E13.32583
G1 X142.237 Y170.835 E13.52985
G1 X139.689 Y168.303 E13.70907
G1 X139.783 Y164.207 E13.91347
G1 X139.790 Y163.954 E13.92610
G1 X140.618 Y160.170 E14.11935
G1 X142.239 Y156.760 E14.30772
G1 X144.902 Y153.593 E14.51415
G1 X148.763 Y150.556 E14.75923
G1 X152.503 Y148.104 E14.98234
G1 X153.851 Y146.134 E15.10143
G1 X155.016 Y143.655 E15.23809
G1 X144.027 Y134.224 E15.96055
G1 X139.078 Y132.964 E16.21534
G1 X136.521 Y131.853 E16.35443
G1 X135.719 Y130.706 E16.42425
G1 X136.072 Y129.755 E16.47486
G0 F9000 X135.699 Y129.611
;TYPE:WALL-OUTER
G1 F1800 X136.073 Y128.648 E16.52640
G1 X139.314 Y131.075 E16.72841
G1 X143.130 Y131.200 E16.91889
G1 X144.992 Y129.046 E17.06094
G1 X146.940 Y131.322 E17.21040
G1 X151.298 Y131.356 E17.42783
G1 X154.007 Y128.981 E17.60757
G1 X155.113 Y131.294 E17.73548
G1 X154.235 Y132.661 E17.81653
G1 X152.036 Y133.654 E17.93691
G1 X150.554 Y134.178 E18.01533
G1 X150.517 Y134.413 E18.02720
G1 X159.527 Y141.319 E18.59356
G1 X163.361 Y141.569 E18.78525
G1 X163.357 Y143.623 E18.88772
G1 X164.692 Y145.122 E18.98787
G1 X163.415 Y146.787 E19.09255
G1 X164.169 Y148.794 E19.19952
G1 X162.001 Y150.202 E19.32849
G1 X162.904 Y152.148 E19.43552
G1 X161.379 Y153.171 E19.52713
G1 X161.950 Y154.948 E19.62025
G1 X156.904 Y160.047 E19.97815
G1 X158.510 Y162.063 E20.10674
G1 X156.479 Y163.681 E20.23629
G1 X156.479 Y166.178 E20.36087
G1 X151.569 Y169.901 E20.66828
G1 X146.368 Y171.467 E20.93927
G1 X142.062 Y171.225 E21.15444
G1 X139.285 Y168.466 E21.34974
G1 X139.391 Y163.905 E21.57735
G1 X140.237 Y160.041 E21.77469
G1 X141.899 Y156.543 E21.96790
G1 X144.625 Y153.301 E22.17922
G1 X148.529 Y150.231 E22.42700
G1 X152.218 Y147.813 E22.64706
G1 X153.503 Y145.935 E22.76059
G1 X154.525 Y143.760 E22.88048
G1 X143.838 Y134.589 E23.58306
G1 X138.946 Y133.342 E23.83493
G1 X136.257 Y132.175 E23.98118
G1 X135.271 Y130.764 E24.06705
G1 X135.699 Y129.611 E24.12841
G0 F9000 X136.231 Y129.726
;TYPE:SKIN
G1 F1800 X139.408 Y132.902 E24.35253
G0 F9000 X140.166 Y133.095
G1 F1800 X137.351 Y130.280 E24.55115
G0 F9000 X136.077 Y130.138
G1 F1800 X138.499 Y132.559 E24.72200
G0 F9000 X137.499 Y132.125
G1 F1800 X135.924 Y130.550 E24.83312
G0 F9000 X139.249 Y131.613
G1 F1800 X140.926 Y133.289 E24.95141
G0 F9000 X141.685 Y133.482
G1 F1800 X139.834 Y131.632 E25.08197
G0 F9000 X140.420 Y131.651
G1 F1800 X142.444 Y133.676 E25.22481
G0 F9000 X143.203 Y133.869
G1 F1800 X141.004 Y131.671 E25.37993
G0 F9000 X141.589 Y131.690
G1 F1800 X143.962 Y134.063 E25.54735
G0 F9000 X143.343 Y131.747
G1 F1800 X161.487 Y149.891 E26.82751
G0 F9000 X161.830 Y149.668
G1 F1800 X143.620 Y131.458 E28.11232
G0 F9000 X143.882 Y131.154
G1 F1800 X162.173 Y149.445 E29.40285
G0 F9000 X162.516 Y149.222
G1 F1800 X144.144 Y130.850 E30.69910
G0 F9000 X144.406 Y130.547
G1 F1800 X162.858 Y148.999 E32.00099
G0 F9000 X163.201 Y148.776
G1 F1800 X144.669 Y130.244 E33.30852
G0 F9000 X144.931 Y129.940
G1 F1800 X145.730 Y130.739 E33.36489
G0 F9000 X146.851 Y131.861
G1 F1800 X163.473 Y148.483 E34.53766
G0 F9000 X163.134 Y147.578
G1 F1800 X151.083 Y135.527 E35.38793
G0 F9000 X149.969 Y134.413
G1 F1800 X147.422 Y131.866 E35.56763
G0 F9000 X147.992 Y131.870
G1 F1800 X150.046 Y133.924 E35.71255
G0 F9000 X150.360 Y133.672
G1 F1800 X148.562 Y131.874 E35.83941
G0 F9000 X149.132 Y131.878
G1 F1800 X150.778 Y133.525 E35.95558
G0 F9000 X151.196 Y133.377
G1 F1800 X149.702 Y131.883 E36.06099
G0 F9000 X150.272 Y131.888
G1 F1800 X151.614 Y133.229 E36.15564
G0 F9000 X152.018 Y133.068
G1 F1800 X150.842 Y131.892 E36.23861
G0 F9000 X151.413 Y131.897
G1 F1800 X152.408 Y132.892 E36.30882
G0 F9000 X152.797 Y132.716
G1 F1800 X151.755 Y131.673 E36.38237
G0 F9000 X152.056 Y131.408
G1 F1800 X153.187 Y132.540 E36.46220
G0 F9000 X153.577 Y132.364
G1 F1800 X152.357 Y131.144 E36.54828
G0 F9000 X152.659 Y130.880
G1 F1800 X153.923 Y132.144 E36.63746
G0 F9000 X154.145 Y131.801
G1 F1800 X152.960 Y130.616 E36.72107
G0 F9000 X153.261 Y130.351
G1 F1800 X154.367 Y131.456 E36.79907
G0 F9000 X154.280 Y130.804
G1 F1800 X153.563 Y130.087 E36.84966
G0 F9000 X150.222 Y133.902
G0 X150.116 Y134.574
G0 X153.507 Y137.385
G1 F1800 X162.810 Y146.688 E37.50604
G0 F9000 X163.055 Y146.368
G1 F1800 X155.930 Y139.242 E38.00878
G0 F9000 X151.388 Y140.357
G1 F1800 X142.759 Y131.728 E38.61760
G0 F9000 X142.174 Y131.709
G1 F1800 X147.401 Y136.936 E38.98639
G0 F9000 X154.965 Y143.667
G0 X155.014 Y143.983
G1 F1800 X161.554 Y150.523 E39.44783
G0 F9000 X162.044 Y151.578
G1 F1800 X154.833 Y144.368 E39.95657
G0 F9000 X154.652 Y144.753
G1 F1800 X162.000 Y152.101 E40.47501
G0 F9000 X161.662 Y152.329
G1 F1800 X154.472 Y145.138 E40.98234
G0 F9000 X154.291 Y145.523
G1 F1800 X161.324 Y152.556 E41.47855
G0 F9000 X160.986 Y152.783
G1 F1800 X154.110 Y145.907 E41.96369
G0 F9000 X153.918 Y146.281
G1 F1800 X160.813 Y153.177 E42.45021
G0 F9000 X161.081 Y154.010
G1 F1800 X153.688 Y146.617 E42.97182
G0 F9000 X153.458 Y146.953
G1 F1800 X161.320 Y154.815 E43.52653
G0 F9000 X161.039 Y155.099
G1 F1800 X153.228 Y147.288 E44.07764
G0 F9000 X152.998 Y147.624
G1 F1800 X160.757 Y155.383 E44.62508
G0 F9000 X160.476 Y155.668
G1 F1800 X152.769 Y147.960 E45.16888
G0 F9000 X152.510 Y148.267
G1 F1800 X160.195 Y155.952 E45.71110
G0 F9000 X161.554 Y150.073
G0 X163.301 Y146.047
G1 F1800 X158.353 Y141.099 E46.06021
G0 F9000 X159.690 Y141.871
G1 F1800 X163.546 Y145.727 E46.33227
G0 F9000 X163.792 Y145.407
G1 F1800 X160.295 Y141.910 E46.57900
G0 F9000 X160.900 Y141.950
G1 F1800 X163.127 Y144.176 E46.73609
G0 F9000 X162.817 Y143.301
G1 F1800 X161.506 Y141.989 E46.82863
G0 F9000 X162.111 Y142.029
G1 F1800 X162.818 Y142.736 E46.87851
G0 F9000 X162.819 Y142.171
G1 F1800 X162.716 Y142.069 E46.88574
G0 F9000 X152.168 Y148.491
G1 F1800 X159.913 Y156.236 E47.43219
G0 F9000 X159.632 Y156.520
G1 F1800 X151.827 Y148.715 E47.98288
G0 F9000 X151.484 Y148.939
G1 F1800 X159.351 Y156.805 E48.53790
G0 F9000 X159.070 Y157.090
G1 F1800 X151.143 Y149.163 E49.09719
G0 F9000 X150.801 Y149.387
G1 F1800 X158.788 Y157.374 E49.66072
G0 F9000 X158.507 Y157.658
G1 F1800 X150.460 Y149.611 E50.22848
G0 F9000 X150.118 Y149.835
G1 F1800 X158.225 Y157.942 E50.80047
G0 F9000 X157.944 Y158.227
G1 F1800 X149.776 Y150.059 E51.37677
G0 F9000 X149.434 Y150.283
G1 F1800 X157.662 Y158.511 E51.95730
G0 F9000 X157.381 Y158.795
G1 F1800 X149.093 Y150.507 E52.54206
G0 F9000 X148.758 Y150.738
G1 F1800 X157.100 Y159.080 E53.13063
G0 F9000 X156.819 Y159.364
G1 F1800 X148.441 Y150.987 E53.72171
G0 F9000 X148.125 Y151.236
G1 F1800 X156.537 Y159.649 E54.31526
G0 F9000 X156.256 Y159.933
G1 F1800 X147.808 Y151.485 E54.91131
G0 F9000 X147.491 Y151.734
G1 F1800 X157.740 Y161.983 E55.63443
G0 F9000 X157.426 Y162.234
G1 F1800 X147.175 Y151.983 E56.35770
G0 F9000 X146.858 Y152.232
G1 F1800 X157.111 Y162.485 E57.08110
G0 F9000 X156.796 Y162.736
G1 F1800 X146.541 Y152.481 E57.80465
G0 F9000 X146.225 Y152.730
G1 F1800 X156.481 Y162.986 E58.52826
G0 F9000 X156.166 Y163.237
G1 F1800 X145.908 Y152.979 E59.25202
G0 F9000 X145.591 Y153.228
G1 F1800 X155.938 Y163.575 E59.98206
G0 F9000 X155.938 Y164.141
G1 F1800 X145.275 Y153.477 E60.73443
G0 F9000 X144.965 Y153.733
G1 F1800 X155.938 Y164.707 E61.50867
G0 F9000 X155.938 Y165.272
G1 F1800 X144.707 Y154.041 E62.30107
G0 F9000 X144.448 Y154.347
G1 F1800 X155.938 Y165.838 E63.11179
G0 F9000 X155.656 Y166.122
G1 F1800 X144.190 Y154.655 E63.92081
G0 F9000 X143.931 Y154.962
G1 F1800 X155.335 Y166.366 E64.72543
G0 F9000 X155.014 Y166.610
G1 F1800 X143.673 Y155.270 E65.52556
G0 F9000 X143.414 Y155.576
G1 F1800 X154.692 Y166.854 E66.32128
G0 F9000 X154.370 Y167.098
G1 F1800 X143.156 Y155.884 E67.11249
G0 F9000 X142.897 Y156.191
G1 F1800 X154.048 Y167.342 E67.89926
G0 F9000 X153.727 Y167.586
G1 F1800 X142.639 Y156.498 E68.68157
G0 F9000 X142.380 Y156.805
G1 F1800 X153.405 Y167.830 E69.45945
G0 F9000 X153.083 Y168.074
G1 F1800 X142.192 Y157.182 E70.22790
G0 F9000 X142.009 Y157.566
G1 F1800 X152.761 Y168.318 E70.98651
G0 F9000 X152.440 Y168.562
G1 F1800 X141.827 Y157.949 E71.73532
G0 F9000 X141.645 Y158.333
G1 F1800 X152.118 Y168.806 E72.47424
G0 F9000 X151.796 Y169.050
G1 F1800 X141.463 Y158.717 E73.20329
G0 F9000 X141.281 Y159.100
G1 F1800 X151.475 Y169.294 E73.92254
G0 F9000 X151.094 Y169.479
G1 F1800 X141.098 Y159.483 E74.62781
G0 F9000 X140.917 Y159.867
G1 F1800 X150.659 Y169.610 E75.31519
G0 F9000 X150.224 Y169.740
G1 F1800 X140.741 Y160.257 E75.98427
G0 F9000 X140.640 Y160.721
G1 F1800 X149.789 Y169.871 E76.62982
G0 F9000 X149.355 Y170.002
G1 F1800 X140.538 Y161.186 E77.25187
G0 F9000 X140.437 Y161.650
G1 F1800 X148.920 Y170.133 E77.85039
G0 F9000 X148.485 Y170.264
G1 F1800 X140.335 Y162.114 E78.42542
G0 F9000 X140.234 Y162.578
G1 F1800 X148.050 Y170.395 E78.97691
G0 F9000 X147.615 Y170.525
G1 F1800 X140.132 Y163.042 E79.50488
G0 F9000 X140.030 Y163.506
G1 F1800 X147.180 Y170.656 E80.00935
G0 F9000 X146.745 Y170.787
G1 F1800 X139.929 Y163.970 E80.49029
G0 F9000 X139.916 Y164.523
G1 F1800 X146.310 Y170.918 E80.94146
G0 F9000 X145.714 Y170.887
G1 F1800 X139.903 Y165.076 E81.35145
G0 F9000 X139.890 Y165.629
G1 F1800 X145.115 Y170.854 E81.72011
G0 F9000 X144.516 Y170.820
G1 F1800 X139.877 Y166.182 E82.04738
G0 F9000 X139.865 Y166.735
G1 F1800 X143.917 Y170.787 E82.33327
G0 F9000 X143.317 Y170.753
G1 F1800 X139.851 Y167.287 E82.57781
G0 F9000 X139.838 Y167.840
G1 F1800 X142.718 Y170.720 E82.78101
;LAYER:1
M106 S63
G0 F9000 X142.599 Y170.856 Z0.500
;TYPE:WALL-INNER
G1 F2220 X142.236 Y170.835 E82.79311
G1 X139.689 Y168.304 E82.91253
G1 X139.790 Y163.953 E83.05729
G1 X140.618 Y160.170 E83.18609
G1 X142.239 Y156.760 E83.31167
G1 X144.902 Y153.593 E83.44929
G1 X148.763 Y150.556 E83.61268
G1 X152.503 Y148.104 E83.76142
G1 X153.851 Y146.134 E83.84081
G1 X155.016 Y143.655 E83.93192
G1 X144.027 Y134.224 E84.41356
G1 X139.078 Y132.964 E84.58342
G1 X136.521 Y131.853 E84.67614
G1 X135.719 Y130.706 E84.72269
G1 X136.072 Y129.755 E84.75643
G1 X136.255 Y129.284 E84.77324
G1 X139.175 Y131.470 E84.89456
G1 X143.308 Y131.606 E85.03210
G1 X144.991 Y129.659 E85.11769
G1 X146.755 Y131.721 E85.20795
G1 X151.447 Y131.757 E85.36401
G1 X153.873 Y129.630 E85.47132
G1 X154.656 Y131.266 E85.53164
G1 X153.962 Y132.345 E85.57431
G1 X151.880 Y133.285 E85.65029
G1 X150.196 Y133.880 E85.70970
G1 X150.084 Y134.586 E85.73347
G1 X159.380 Y141.710 E86.12301
G1 X162.960 Y141.943 E86.24233
G1 X162.957 Y143.775 E86.30326
G1 X164.173 Y145.141 E86.36409
G1 X162.962 Y146.720 E86.43028
G1 X163.681 Y148.635 E86.49831
G1 X161.492 Y150.055 E86.58509
G1 X162.397 Y152.006 E86.65663
G1 X160.906 Y153.006 E86.71634
G1 X161.495 Y154.839 E86.78037
G1 X156.370 Y160.018 E87.02271
G1 X157.948 Y161.999 E87.10695
G1 X156.079 Y163.488 E87.18643
G1 X156.079 Y165.979 E87.26928
G1 X151.385 Y169.539 E87.46522
G1 X146.319 Y171.064 E87.64119
G1 X142.599 Y170.856 E87.76511
G0 F9000 X142.062 Y171.225
;TYPE:WALL-OUTER
G1 F1980 X139.285 Y168.466 E87.89531
G1 X139.391 Y163.905 E88.04705
G1 X140.237 Y160.041 E88.17861
G1 X141.899 Y156.543 E88.30742
G1 X144.625 Y153.301 E88.44830
G1 X148.529 Y150.231 E88.61349
G1 X152.218 Y147.813 E88.76019
G1 X153.503 Y145.935 E88.83588
G1 X154.525 Y143.760 E88.91580
G1 X143.838 Y134.589 E89.38419
G1 X138.946 Y133.342 E89.55211
G1 X136.257 Y132.175 E89.64960
G1 X135.271 Y130.764 E89.70685
G1 X135.699 Y129.611 E89.74776
G1 X136.073 Y128.648 E89.78212
G1 X139.314 Y131.075 E89.91679
G1 X143.130 Y131.200 E90.04378
G1 X144.992 Y129.046 E90.13848
G1 X146.940 Y131.322 E90.23812
G1 X151.298 Y131.356 E90.38307
G1 X154.007 Y128.981 E90.50290
G1 X155.113 Y131.294 E90.58817
G1 X154.235 Y132.661 E90.64221
G1 X152.036 Y133.654 E90.72246
G1 X150.554 Y134.178 E90.77474
G1 X150.517 Y134.413 E90.78265
G1 X159.527 Y141.319 E91.16023
G1 X163.361 Y141.569 E91.28802
G1 X163.357 Y143.623 E91.35634
G1 X164.692 Y145.122 E91.42310
G1 X163.415 Y146.787 E91.49289
G1 X164.169 Y148.794 E91.56420
G1 X162.001 Y150.202 E91.65018
G1 X162.904 Y152.148 E91.72153
G1 X161.379 Y153.171 E91.78261
G1 X161.950 Y154.948 E91.84469
G1 X156.904 Y160.047 E92.08329
G1 X158.510 Y162.063 E92.16901
G1 X156.479 Y163.681 E92.25538
G1 X156.479 Y166.178 E92.33843
G1 X151.569 Y169.901 E92.54338
G1 X146.368 Y171.467 E92.72403
G1 X142.062 Y171.225 E92.86748
G0 F9000 X142.403 Y170.703
;TYPE:SKIN
G1 F1980 X161.880 Y151.226 E93.78362
G0 F9000 X162.059 Y151.612
G1 F1980 X142.939 Y170.733 E94.68299
G0 F9000 X143.474 Y170.763
G1 F1980 X160.873 Y153.365 E95.50136
G0 F9000 X161.011 Y153.792
G1 F1980 X144.010 Y170.793 E96.30103
G0 F9000 X144.546 Y170.823
G1 F1980 X161.148 Y154.221 E97.08194
G0 F9000 X161.286 Y154.649
G1 F1980 X145.082 Y170.853 E97.84413
G0 F9000 X145.618 Y170.882
G1 F1980 X156.320 Y160.180 E98.34752
G0 F9000 X156.570 Y160.496
G1 F1980 X146.153 Y170.913 E98.83750
G0 F9000 X146.887 Y170.745
G1 F1980 X156.821 Y160.810 E99.30479
G0 F9000 X157.072 Y161.125
G1 F1980 X147.696 Y170.501 E99.74581
G0 F9000 X148.505 Y170.258
G1 F1980 X157.323 Y161.440 E100.16058
G0 F9000 X157.573 Y161.755
G1 F1980 X149.314 Y170.015 E100.54908
G0 F9000 X150.123 Y169.772
G1 F1980 X155.938 Y163.956 E100.82262
G0 F9000 X155.938 Y164.521
G1 F1980 X150.931 Y169.528 E101.05814
G0 F9000 X152.534 Y168.491
G1 F1980 X155.938 Y165.087 E101.21825
G0 F9000 X155.938 Y165.653
G1 F1980 X154.878 Y166.713 E101.26811
G0 F9000 X142.069 Y170.472
G1 F1980 X161.701 Y150.840 E102.19154
G0 F9000 X161.521 Y150.453
G1 F1980 X141.785 Y170.189 E103.11986
G0 F9000 X141.501 Y169.907
