;Generated with Cura_SteamEngine 15.01
; Default start code
G28 ; Home extruder
G1 Z15 F100
M107 ; Turn off fan
G90 ; Absolute positioning
M82 ; Extruder in absolute mode
M190 S50
; Activate all used extruder
M104 T0 S210
G92 E0 ; Reset extruder position
; Wait for all used extruders to reach temperature
M109 T0 S210
;Layer count: 29
;LAYER:0
M107
G0 F9000 X144.856 Y123.463 Z0.300
;TYPE:SKIRT
G1 F1800 X149.967 Y127.946 E0.33918
G1 X151.482 Y127.935 E0.41476
G1 X152.492 Y126.754 E0.49229
G1 X154.991 Y123.829 E0.68423
G1 X158.379 Y127.749 E0.94272
G1 X159.500 Y127.712 E0.99868
G1 X161.966 Y125.867 E1.15233
G1 X165.488 Y123.244 E1.37142
G1 X167.456 Y128.355 E1.64466
G1 X167.930 Y129.623 E1.71219
G1 X168.536 Y131.251 E1.79886
G1 X166.531 Y134.117 E1.97336
G1 X165.965 Y134.914 E2.02213
G1 X162.499 Y136.421 E2.21069
G1 X162.151 Y136.572 E2.22961
G1 X159.352 Y137.283 E2.37369
G1 X159.352 Y137.282 E2.37374
G1 X157.772 Y137.686 E2.45510
G1 X149.706 Y144.607 E2.98535
G1 X150.206 Y145.337 E3.02949
G1 X153.197 Y147.299 E3.20796
G1 X153.459 Y147.471 E3.22359
G1 X157.329 Y150.516 E3.46927
G1 X157.747 Y150.844 E3.49578
G1 X160.981 Y154.690 E3.74647
G1 X162.767 Y158.449 E3.95410
G1 X162.995 Y158.925 E3.98043
G1 X163.898 Y163.041 E4.19066
G1 X163.897 Y163.041 E4.19071
G1 X163.999 Y163.494 E4.21388
G1 X164.146 Y169.848 E4.53097
G1 X160.469 Y173.500 E4.78952
G1 X159.415 Y174.548 E4.86367
G1 X153.222 Y174.896 E5.17313
G1 X146.865 Y172.981 E5.50436
G1 X140.117 Y167.867 E5.92678
G1 X140.117 Y165.320 E6.05385
G1 X139.349 Y164.708 E6.10284
G1 X136.714 Y162.597 E6.27129
G1 X138.550 Y160.291 E6.41834
G1 X138.048 Y159.784 E6.45394
G1 X134.181 Y155.873 E6.72833
G1 X134.600 Y154.567 E6.79676
G1 X132.789 Y153.341 E6.90587
G1 X133.670 Y151.446 E7.01013
G1 X131.688 Y150.147 E7.12836
G1 X132.737 Y147.358 E7.27702
G1 X132.562 Y147.131 E7.29132
G1 X130.897 Y144.963 E7.42770
G1 X133.239 Y142.331 E7.60346
G1 X133.238 Y141.473 E7.64627
G1 X133.202 Y138.384 E7.80039
G1 X139.219 Y137.994 E8.10121
G1 X143.192 Y134.949 E8.35094
G1 X142.002 Y133.097 E8.46077
G1 X141.003 Y131.534 E8.55332
G1 X142.985 Y127.387 E8.78263
G1 X144.856 Y123.463 E8.99951
G1 F2400 E4.99951
G0 F9000 X146.124 Y129.630
;TYPE:WALL-INNER
G1 F2400 E8.99951
G1 F1800 X148.549 Y131.757 E9.16044
G1 X152.803 Y131.725 E9.37268
G1 X153.244 Y131.720 E9.39468
G1 X155.007 Y129.659 E9.52999
G1 X156.424 Y131.299 E9.63812
G1 X156.691 Y131.606 E9.65842
G1 X160.821 Y131.470 E9.86458
G1 X163.742 Y129.284 E10.04660
G1 X164.278 Y130.707 E10.12246
G1 X163.476 Y131.853 E10.19225
G1 X160.988 Y132.934 E10.32758
G1 X160.922 Y132.962 E10.33116
G1 X156.195 Y134.167 E10.57453
G1 X155.970 Y134.225 E10.58612
G1 X144.982 Y143.655 E11.30852
G1 X146.088 Y146.012 E11.43841
G1 X146.148 Y146.136 E11.44529
G1 X147.377 Y147.933 E11.55390
G1 X147.496 Y148.104 E11.56429
G1 X151.109 Y150.474 E11.77987
G1 X155.094 Y153.593 E12.03233
G1 X157.757 Y156.760 E12.23877
G1 X159.339 Y160.089 E12.42266
G1 X159.378 Y160.169 E12.42710
G1 X160.186 Y163.856 E12.61541
G1 X160.208 Y163.957 E12.62056
G1 X160.309 Y168.303 E12.83744
G1 X157.759 Y170.835 E13.01673
G1 X153.678 Y171.064 E13.22065
G1 X148.613 Y169.538 E13.48456
G1 X143.917 Y165.979 E13.77853
G1 X143.917 Y163.488 E13.90281
G1 X142.048 Y162.000 E14.02199
G1 X143.626 Y160.018 E14.14839
G1 X138.503 Y154.840 E14.51179
G1 X138.930 Y153.509 E14.58153
G1 X139.094 Y153.007 E14.60787
G1 X137.599 Y152.006 E14.69763
G1 X138.248 Y150.610 E14.77444
G1 X138.510 Y150.057 E14.80497
G1 X136.316 Y148.635 E14.93541
G1 X136.888 Y147.115 E15.01643
G1 X137.035 Y146.720 E15.03746
G1 X135.825 Y145.142 E15.13667
G1 X137.041 Y143.775 E15.22795
G1 X137.039 Y141.943 E15.31934
G1 X140.278 Y141.733 E15.48128
G1 X140.619 Y141.709 E15.49833
G1 X149.912 Y134.586 E16.08249
G1 X149.800 Y133.880 E16.11815
G1 X148.165 Y133.303 E16.20465
G1 X146.036 Y132.345 E16.32113
G1 X145.342 Y131.266 E16.38513
G1 X146.124 Y129.630 E16.47560
G0 F9000 X148.502 Y131.581
G0 X148.698 Y131.356
;TYPE:WALL-OUTER
G1 F1800 X153.058 Y131.322 E16.69313
G1 X155.006 Y129.046 E16.84259
G1 X156.868 Y131.200 E16.98464
G1 X160.682 Y131.075 E17.17502
G1 X163.925 Y128.648 E17.37710
G1 X164.277 Y129.562 E17.42597
G1 X164.727 Y130.764 E17.49000
G1 X163.752 Y132.157 E17.57483
G1 X163.740 Y132.174 E17.57587
G1 X161.052 Y133.343 E17.72211
G1 X156.160 Y134.589 E17.97396
G1 X145.473 Y143.760 E18.67655
G1 X146.449 Y145.840 E18.79117
G1 X146.495 Y145.935 E18.79644
G1 X147.780 Y147.813 E18.90997
G1 X151.467 Y150.231 E19.12994
G1 X155.371 Y153.301 E19.37772
G1 X158.097 Y156.543 E19.58904
G1 X159.760 Y160.041 E19.78228
G1 X160.607 Y163.905 E19.97963
G1 X160.713 Y168.466 E20.20724
G1 X157.934 Y171.225 E20.40261
G1 X153.630 Y171.467 E20.61768
G1 X148.429 Y169.901 E20.88866
G1 X143.517 Y166.178 E21.19616
G1 X143.517 Y163.681 E21.32073
G1 X141.486 Y162.063 E21.45029
G1 X143.092 Y160.047 E21.57888
G1 X138.048 Y154.948 E21.93670
G1 X138.619 Y153.171 E22.02982
G1 X137.092 Y152.148 E22.12152
G1 X137.886 Y150.439 E22.21554
G1 X137.999 Y150.202 E22.22864
G1 X135.829 Y148.794 E22.35769
G1 X136.583 Y146.787 E22.46465
G1 X135.306 Y145.122 E22.56934
G1 X136.641 Y143.623 E22.66948
G1 X136.638 Y141.569 E22.77196
G1 X140.471 Y141.319 E22.96359
G1 X149.479 Y134.413 E23.52988
G1 X149.442 Y134.178 E23.54175
G1 X148.015 Y133.674 E23.61725
G1 X145.763 Y132.661 E23.74045
G1 X144.885 Y131.294 E23.82150
G1 X145.991 Y128.981 E23.94941
G1 X148.698 Y131.356 E24.12908
G0 F9000 X148.585 Y131.897
;TYPE:SKIN
G1 F1800 X153.148 Y136.460 E24.45102
G0 F9000 X153.452 Y136.199
G1 F1800 X149.146 Y131.893 E24.75483
G0 F9000 X149.707 Y131.888
G1 F1800 X153.756 Y135.937 E25.04051
G0 F9000 X154.061 Y135.676
G1 F1800 X150.268 Y131.883 E25.30813
G0 F9000 X150.830 Y131.879
G1 F1800 X154.365 Y135.415 E25.55758
G0 F9000 X154.670 Y135.154
G1 F1800 X151.390 Y131.874 E25.78900
G0 F9000 X151.952 Y131.870
G1 F1800 X154.974 Y134.892 E26.00222
G0 F9000 X155.279 Y134.631
G1 F1800 X152.513 Y131.866 E26.19734
G0 F9000 X153.074 Y131.861
G1 F1800 X155.583 Y134.370 E26.37436
G0 F9000 X155.888 Y134.109
G1 F1800 X153.459 Y131.680 E26.54574
G0 F9000 X153.720 Y131.376
G1 F1800 X156.332 Y133.987 E26.72999
G0 F9000 X156.782 Y133.872
G1 F1800 X153.981 Y131.071 E26.92762
G0 F9000 X154.242 Y130.766
G1 F1800 X157.232 Y133.757 E27.13862
G0 F9000 X157.684 Y133.642
G1 F1800 X154.503 Y130.461 E27.36305
G0 F9000 X154.763 Y130.156
G1 F1800 X158.134 Y133.527 E27.60089
G0 F9000 X158.584 Y133.411
G1 F1800 X156.911 Y131.738 E27.71893
G0 F9000 X157.459 Y131.721
G1 F1800 X159.036 Y133.297 E27.83016
G0 F9000 X159.486 Y133.182
G1 F1800 X158.007 Y131.703 E27.93452
G0 F9000 X158.555 Y131.685
G1 F1800 X159.937 Y133.067 E28.03202
G0 F9000 X160.388 Y132.952
G1 F1800 X159.103 Y131.667 E28.12269
G0 F9000 X159.651 Y131.649
G1 F1800 X160.838 Y132.837 E28.20647
G0 F9000 X161.238 Y132.671
G1 F1800 X160.198 Y131.631 E28.27985
G0 F9000 X160.746 Y131.613
G1 F1800 X161.633 Y132.500 E28.34243
G0 F9000 X162.027 Y132.329
G1 F1800 X161.119 Y131.421 E28.40650
G0 F9000 X161.443 Y131.179
G1 F1800 X162.421 Y132.157 E28.47550
G0 F9000 X162.816 Y131.986
G1 F1800 X161.766 Y130.937 E28.54955
G0 F9000 X162.090 Y130.695
G1 F1800 X163.210 Y131.815 E28.62857
G0 F9000 X163.514 Y131.553
G1 F1800 X162.413 Y130.452 E28.70625
G0 F9000 X162.737 Y130.210
G1 F1800 X163.747 Y131.220 E28.77751
G0 F9000 X163.980 Y130.887
G1 F1800 X163.060 Y129.968 E28.84239
G0 F9000 X163.384 Y129.726
G1 F1800 X163.985 Y130.327 E28.88479
G0 F9000 X155.973 Y134.230
G0 X152.843 Y136.721
G1 F1800 X149.929 Y133.807 E29.09039
G0 F9000 X149.883 Y133.761
G1 F1800 X146.107 Y129.985 E29.35681
G0 F9000 X145.924 Y130.367
G1 F1800 X149.008 Y133.452 E29.57444
G0 F9000 X148.121 Y133.130
G1 F1800 X145.741 Y130.751 E29.74232
G0 F9000 X145.558 Y131.133
G1 F1800 X147.091 Y132.666 E29.85048
G0 F9000 X149.774 Y133.902
G0 X149.880 Y134.574
G0 X149.180 Y135.321
G1 F1800 X151.625 Y137.766 E30.02299
G0 F9000 X151.321 Y138.027
G1 F1800 X148.860 Y135.566 E30.19663
G0 F9000 X148.539 Y135.811
G1 F1800 X151.016 Y138.288 E30.37139
G0 F9000 X150.712 Y138.550
G1 F1800 X148.219 Y136.057 E30.54729
G0 F9000 X147.899 Y136.303
G1 F1800 X150.407 Y138.811 E30.72424
G0 F9000 X150.103 Y139.073
G1 F1800 X147.579 Y136.548 E30.90236
G0 F9000 X147.259 Y136.794
G1 F1800 X149.799 Y139.333 E31.08153
G0 F9000 X149.495 Y139.595
G1 F1800 X146.938 Y137.039 E31.26191
G0 F9000 X146.618 Y137.284
G1 F1800 X149.190 Y139.856 E31.44338
G0 F9000 X148.886 Y140.118
G1 F1800 X146.298 Y137.530 E31.62597
G0 F9000 X145.977 Y137.775
G1 F1800 X148.581 Y140.379 E31.80970
G0 F9000 X148.277 Y140.640
G1 F1800 X145.658 Y138.021 E31.99449
G0 F9000 X145.338 Y138.266
G1 F1800 X147.972 Y140.901 E32.18036
G0 F9000 X147.667 Y141.162
G1 F1800 X145.017 Y138.512 E32.36734
G0 F9000 X144.697 Y138.757
G1 F1800 X147.363 Y141.424 E32.55547
G0 F9000 X147.059 Y141.685
G1 F1800 X144.377 Y139.003 E32.74470
G0 F9000 X144.056 Y139.248
G1 F1800 X146.755 Y141.946 E32.93509
G0 F9000 X146.450 Y142.207
G1 F1800 X143.737 Y139.494 E33.12651
G0 F9000 X143.416 Y139.739
G1 F1800 X146.146 Y142.469 E33.31913
G0 F9000 X145.841 Y142.730
G1 F1800 X143.096 Y139.985 E33.51280
G0 F9000 X149.500 Y135.075
G1 F1800 X151.930 Y137.505 E33.68425
G0 F9000 X152.235 Y137.244
G1 F1800 X149.821 Y134.830 E33.85457
G0 F9000 X150.036 Y134.479
G1 F1800 X152.539 Y136.982 E34.03117
G0 F9000 X145.537 Y142.991
G1 F1800 X142.776 Y140.230 E34.22598
G0 F9000 X142.455 Y140.475
G1 F1800 X145.232 Y143.252 E34.42191
G0 F9000 X144.928 Y143.514
G1 F1800 X142.135 Y140.721 E34.61897
G0 F9000 X141.815 Y140.966
G1 F1800 X145.112 Y144.263 E34.85159
G0 F9000 X145.615 Y145.332
G1 F1800 X141.495 Y141.212 E35.14228
G0 F9000 X141.175 Y141.458
G1 F1800 X146.252 Y146.535 E35.50049
G0 F9000 X147.498 Y148.101
G0 X148.928 Y149.210
G1 F1800 X158.622 Y158.905 E36.18449
G0 F9000 X159.135 Y159.984
G1 F1800 X140.854 Y141.703 E37.47431
G0 F9000 X140.444 Y141.859
G1 F1800 X159.370 Y160.784 E38.80961
G0 F9000 X159.529 Y161.509
G1 F1800 X139.914 Y141.894 E40.19355
G0 F9000 X139.383 Y141.929
G1 F1800 X159.688 Y162.233 E41.62614
G0 F9000 X159.846 Y162.957
G1 F1800 X138.853 Y141.964 E43.10731
G0 F9000 X138.322 Y141.999
G1 F1800 X160.004 Y163.681 E44.63710
G0 F9000 X160.076 Y164.318
G1 F1800 X137.791 Y142.034 E46.20939
G0 F9000 X137.260 Y142.069
G1 F1800 X160.089 Y164.898 E47.82010
G0 F9000 X160.103 Y165.477
G1 F1800 X137.179 Y142.553 E49.43751
G0 F9000 X137.180 Y143.119
G1 F1800 X160.116 Y166.056 E51.05580
G0 F9000 X160.129 Y166.635
G1 F1800 X137.180 Y143.685 E52.67501
G0 F9000 X136.980 Y144.051
G1 F1800 X160.143 Y167.214 E54.30929
G0 F9000 X160.157 Y167.794
G1 F1800 X136.714 Y144.350 E55.96335
G0 F9000 X136.447 Y144.650
G1 F1800 X160.104 Y168.306 E57.63245
G0 F9000 X159.820 Y168.589
G1 F1800 X136.180 Y144.949 E59.30038
G0 F9000 X136.635 Y145.969
G1 F1800 X159.536 Y168.870 E60.91617
G0 F9000 X159.253 Y169.152
G1 F1800 X137.084 Y146.984 E62.48027
G0 F9000 X136.929 Y147.394
G1 F1800 X158.969 Y169.434 E64.03532
G0 F9000 X158.685 Y169.716
G1 F1800 X136.775 Y147.806 E65.58118
G0 F9000 X136.621 Y148.218
G1 F1800 X137.891 Y149.488 E65.67079
G0 F9000 X138.598 Y150.195
G1 F1800 X158.401 Y169.998 E67.06800
G0 F9000 X158.118 Y170.280
G1 F1800 X138.416 Y150.579 E68.45805
G0 F9000 X138.236 Y150.964
G1 F1800 X157.834 Y170.561 E69.84076
G0 F9000 X157.418 Y170.712
G1 F1800 X138.056 Y151.350 E71.20685
G0 F9000 X137.877 Y151.736
G1 F1800 X138.744 Y152.604 E71.26806
G0 F9000 X139.218 Y153.077
G1 F1800 X156.883 Y170.742 E72.51442
G0 F9000 X156.347 Y170.772
G1 F1800 X139.080 Y153.505 E73.73270
G0 F9000 X138.941 Y153.932
G1 F1800 X155.811 Y170.802 E74.92297
G0 F9000 X155.276 Y170.832
G1 F1800 X138.803 Y154.359 E76.08523
G0 F9000 X138.665 Y154.787
G1 F1800 X154.740 Y170.862 E77.21940
G0 F9000 X154.204 Y170.892
G1 F1800 X143.594 Y160.282 E77.96800
G0 F9000 X143.343 Y160.596
G1 F1800 X153.656 Y170.909 E78.69563
G0 F9000 X152.846 Y170.665
G1 F1800 X143.092 Y160.912 E79.38380
G0 F9000 X142.841 Y161.226
G1 F1800 X152.037 Y170.422 E80.03262
G0 F9000 X151.228 Y170.178
G1 F1800 X142.591 Y161.542 E80.64198
G0 F9000 X142.340 Y161.856
G1 F1800 X143.306 Y162.822 E80.71013
G0 F9000 X144.056 Y163.572
G1 F1800 X150.418 Y169.934 E81.15901
G0 F9000 X149.609 Y169.691
G1 F1800 X144.056 Y164.138 E81.55080
G0 F9000 X144.056 Y164.704
G1 F1800 X148.800 Y169.447 E81.88548
G0 F9000 X146.696 Y167.909
G1 F1800 X144.056 Y165.269 E82.07175
G0 F9000 X144.056 Y165.835
G1 F1800 X144.360 Y166.138 E82.09316
G0 F9000 X158.108 Y157.825
G1 F1800 X150.572 Y150.289 E82.62487
G0 F9000 X152.909 Y152.060
G1 F1800 X157.389 Y156.541 E82.94099
;LAYER:1
M106 S63
G0 F9000 X157.757 Y156.760 Z0.500
;TYPE:WALL-INNER
G1 F2220 X159.378 Y160.170 E83.06657
G1 X160.208 Y163.954 E83.19542
G1 X160.309 Y168.303 E83.34010
G1 X157.759 Y170.835 E83.45963
G1 X153.678 Y171.064 E83.59557
G1 X148.613 Y169.538 E83.77152
G1 X143.917 Y165.979 E83.96749
G1 X143.917 Y163.488 E84.05034
G1 X142.048 Y161.999 E84.12982
G1 X143.626 Y160.018 E84.21406
G1 X138.503 Y154.840 E84.45633
G1 X138.909 Y153.577 E84.50045
G1 X139.092 Y153.006 E84.52040
G1 X137.600 Y152.006 E84.58014
G1 X138.214 Y150.684 E84.62862
G1 X138.508 Y150.056 E84.65168
G1 X136.316 Y148.636 E84.73855
G1 X137.036 Y146.720 E84.80662
G1 X135.825 Y145.141 E84.87281
G1 X137.041 Y143.775 E84.93364
G1 X137.039 Y141.943 E84.99457
G1 X140.618 Y141.710 E85.11386
G1 X149.912 Y134.586 E85.50334
G1 X149.800 Y133.880 E85.52712
G1 X148.226 Y133.324 E85.58264
G1 X146.054 Y132.353 E85.66177
G1 X146.036 Y132.345 E85.66243
G1 X145.343 Y131.265 E85.70511
G1 X146.124 Y129.630 E85.76537
G1 X148.549 Y131.757 E85.87266
G1 X153.243 Y131.721 E86.02878
G1 X155.007 Y129.659 E86.11904
G1 X156.346 Y131.209 E86.18716
G1 X156.691 Y131.606 E86.20466
G1 X160.821 Y131.471 E86.34210
G1 X163.742 Y129.285 E86.46344
G1 X164.279 Y130.708 E86.51403
G1 X163.477 Y131.852 E86.56050
G1 X160.925 Y132.962 E86.65306
G1 X155.971 Y134.224 E86.82309
G1 X144.982 Y143.655 E87.30473
G1 X146.049 Y145.929 E87.38828
G1 X146.147 Y146.135 E87.39587
G1 X147.327 Y147.859 E87.46535
G1 X147.495 Y148.104 E87.47523
G1 X151.233 Y150.556 E87.62392
G1 X155.094 Y153.593 E87.78731
G1 X157.757 Y156.760 E87.92493
G0 F9000 X158.097 Y156.543
;TYPE:WALL-OUTER
G1 F1980 X159.760 Y160.041 E88.05375
G1 X160.607 Y163.905 E88.18532
G1 X160.713 Y168.466 E88.33706
G1 X157.934 Y171.225 E88.46731
G1 X153.630 Y171.467 E88.61069
G1 X148.429 Y169.901 E88.79134
G1 X143.517 Y166.178 E88.99634
G1 X143.517 Y163.681 E89.07939
G1 X141.486 Y162.063 E89.16576
G1 X143.092 Y160.047 E89.25149
G1 X138.048 Y154.948 E89.49004
G1 X138.620 Y153.171 E89.55213
G1 X137.092 Y152.148 E89.61329
G1 X137.998 Y150.202 E89.68468
G1 X135.829 Y148.794 E89.77069
G1 X136.583 Y146.787 E89.84200
G1 X135.306 Y145.122 E89.91179
G1 X136.641 Y143.623 E89.97855
G1 X136.637 Y141.569 E90.04687
G1 X140.471 Y141.319 E90.17466
G1 X149.479 Y134.413 E90.55218
G1 X149.442 Y134.178 E90.56009
G1 X148.078 Y133.696 E90.60821
G1 X145.762 Y132.660 E90.69260
G1 X144.885 Y131.294 E90.74659
G1 X145.991 Y128.981 E90.83186
G1 X148.698 Y131.356 E90.95164
G1 X153.058 Y131.322 E91.09666
G1 X155.006 Y129.046 E91.19630
G1 X156.868 Y131.200 E91.29100
G1 X160.682 Y131.075 E91.41792
G1 X163.925 Y128.648 E91.55264
G1 X164.258 Y129.514 E91.58350
G1 X164.727 Y130.764 E91.62791
G1 X163.739 Y132.175 E91.68520
G1 X161.052 Y133.343 E91.78265
G1 X156.160 Y134.589 E91.95055
G1 X145.473 Y143.760 E92.41894
G1 X146.495 Y145.935 E92.49887
G1 X147.780 Y147.813 E92.57455
G1 X151.467 Y150.231 E92.72120
G1 X155.371 Y153.301 E92.88639
G1 X158.097 Y156.543 E93.02727
G0 F9000 X157.529 Y156.708
;TYPE:SKIN
G1 F1980 X146.487 Y167.751 E93.54667
G0 F9000 X146.808 Y167.995
G1 F1980 X157.743 Y157.060 E94.06102
G0 F9000 X157.925 Y157.443
G1 F1980 X147.130 Y168.239 E94.56881
G0 F9000 X147.452 Y168.483
G1 F1980 X158.108 Y157.826 E95.07006
G0 F9000 X158.290 Y158.210
G1 F1980 X147.774 Y168.726 E95.56470
G0 F9000 X148.095 Y168.970
G1 F1980 X158.473 Y158.593 E96.05283
G0 F9000 X158.655 Y158.976
G1 F1980 X148.417 Y169.214 E96.53439
G0 F9000 X148.761 Y169.436
G1 F1980 X158.837 Y159.360 E97.00833
G0 F9000 X159.019 Y159.743
G1 F1980 X149.195 Y169.567 E97.47042
