;Generated with Cura_SteamEngine 15.01
; Default start code
G28 ; Home extruder
G1 Z15 F100
M107 ; Turn off fan
G90 ; Absolute positioning
M82 ; Extruder in absolute mode
M190 S50
; Activate all used extruder
M104 T0 S210
G92 E0 ; Reset extruder position
; Wait for all used extruders to reach temperature
M109 T0 S210
;Layer count: 50
;LAYER:0
M107
G0 F9000 X97.746 Y153.479 Z0.300
;TYPE:SKIRT
G1 F1800 X100.104 Y154.003 E0.12051
G1 X101.275 Y155.064 E0.19935
G1 X101.600 Y155.271 E0.21857
G1 X103.634 Y155.775 E0.32312
G1 X106.793 Y156.154 E0.48185
G1 X109.921 Y156.155 E0.63791
G1 X115.231 Y155.304 E0.90620
G1 X132.342 Y151.686 E1.77875
G1 X132.871 Y152.870 E1.84345
G1 X133.843 Y152.138 E1.90415
G1 X137.414 Y146.958 E2.21804
G1 X137.573 Y146.728 E2.23199
G1 X140.718 Y142.910 E2.47878
G1 X142.418 Y140.864 E2.61149
G1 X142.554 Y140.913 E2.61870
G1 X142.554 Y140.462 E2.64120
G1 X143.698 Y139.219 E2.72548
G1 X147.847 Y135.485 E3.00396
G1 X155.085 Y131.811 E3.40892
G1 X164.536 Y129.657 E3.89253
G1 X174.574 Y127.533 E4.40441
G1 X177.378 Y126.998 E4.54683
G1 X177.378 Y126.883 E4.55257
G1 X180.233 Y126.492 E4.69633
G1 X184.355 Y125.660 E4.90613
G1 X192.753 Y124.944 E5.32662
G1 X200.280 Y124.537 E5.70270
G1 X202.000 Y125.373 E5.79811
G1 X203.807 Y126.233 E5.89795
G1 X203.863 Y129.166 E6.04430
G1 X206.909 Y132.122 E6.25606
G1 X204.718 Y136.636 E6.50639
G1 X199.131 Y141.352 E6.87116
G1 X193.473 Y145.999 E7.23644
G1 X187.598 Y151.860 E7.65046
G1 X183.221 Y156.691 E7.97569
G1 X181.695 Y158.646 E8.09942
G1 X181.251 Y158.493 E8.12285
G1 X179.916 Y159.888 E8.21918
G1 X146.642 Y173.682 E10.01622
G1 X146.642 Y173.798 E10.02201
G1 X138.661 Y173.711 E10.42021
G1 X133.518 Y173.297 E10.67762
G1 X132.567 Y175.798 E10.81111
G1 X119.240 Y173.641 E11.48465
G1 X112.069 Y172.502 E11.84690
G1 X105.874 Y170.417 E12.17300
G1 X100.464 Y168.007 E12.46848
G1 X99.168 Y166.976 E12.55110
G1 X98.623 Y166.099 E12.60262
G1 X98.342 Y165.697 E12.62709
G1 X98.085 Y164.728 E12.67710
G1 X97.202 Y164.268 E12.72677
G1 X96.945 Y164.075 E12.74281
G1 X96.156 Y163.448 E12.79309
G1 X95.350 Y162.618 E12.85081
G1 X95.154 Y162.421 E12.86467
G1 X94.415 Y161.397 E12.92767
G1 X93.852 Y160.601 E12.97632
G1 X93.786 Y159.144 E13.04908
G1 X93.744 Y158.631 E13.07476
G1 X94.088 Y157.383 E13.13934
G1 X94.228 Y156.892 E13.16482
G1 X95.026 Y155.666 E13.23780
G1 X95.375 Y155.127 E13.26983
G1 X97.746 Y153.479 E13.41389
G1 F2400 E9.41389
G0 F9000 X98.158 Y157.821
;TYPE:WALL-INNER
G1 F2400 E13.41389
G1 F1800 X98.441 Y157.624 E13.43109
G1 X98.964 Y158.098 E13.46631
G1 X100.083 Y158.810 E13.53248
G1 X102.946 Y159.519 E13.67963
G1 X106.567 Y159.954 E13.86158
G1 X110.225 Y159.955 E14.04408
G1 X115.925 Y159.042 E14.33208
G1 X127.667 Y156.559 E14.93084
G1 X124.327 Y158.693 E15.12858
G1 X124.324 Y162.053 E15.29621
G1 X128.760 Y162.053 E15.51753
G1 X128.760 Y166.024 E15.71564
G1 X124.325 Y166.024 E15.93690
G1 X124.324 Y169.376 E16.10414
G1 X127.483 Y171.126 E16.28431
G1 X119.846 Y169.890 E16.67028
G1 X112.979 Y168.799 E17.01717
G1 X107.253 Y166.871 E17.31860
G1 X102.452 Y164.733 E17.58080
G1 X102.049 Y164.413 E17.60647
G1 X101.845 Y164.084 E17.62579
G1 X101.770 Y163.801 E17.64039
G1 X101.678 Y162.909 E17.68513
G1 X101.663 Y162.761 E17.69255
G1 X101.407 Y162.322 E17.71791
G1 X101.058 Y161.992 E17.74187
G1 X99.240 Y161.045 E17.84414
G1 X98.714 Y160.627 E17.87766
G1 X98.057 Y159.951 E17.92469
G1 X97.598 Y159.316 E17.96378
G1 X97.584 Y158.999 E17.97961
G1 X97.726 Y158.484 E18.00626
G1 X98.158 Y157.821 E18.04574
G0 F9000 X101.879 Y162.891
G1 F1800 X103.795 Y163.748 E18.15045
G1 X105.090 Y164.140 E18.21796
G1 X105.127 Y163.200 E18.26489
G1 X105.437 Y163.668 E18.29290
G1 X106.303 Y163.940 E18.33818
G1 X107.927 Y163.701 E18.42008
G1 X109.617 Y162.875 E18.51392
G1 X108.744 Y161.728 E18.58584
G1 X108.666 Y161.625 E18.59228
G1 X107.426 Y160.863 E18.66489
G1 X106.373 Y160.617 E18.71884
G1 X104.788 Y160.696 E18.79802
G1 X103.810 Y161.082 E18.85047
G1 X103.003 Y161.658 E18.89994
G1 X101.879 Y162.891 E18.98318
G0 F9000 X101.274 Y162.888
;TYPE:WALL-OUTER
G1 F1800 X101.090 Y162.573 E19.00138
G1 X100.823 Y162.321 E19.01969
G1 X99.022 Y161.383 E19.12100
G1 X98.443 Y160.923 E19.15789
G1 X97.755 Y160.215 E19.20715
G1 X97.204 Y159.453 E19.25406
G1 X97.182 Y158.954 E19.27898
G1 X97.357 Y158.318 E19.31189
G1 X97.866 Y157.536 E19.35844
G1 X98.463 Y157.121 E19.39471
G1 X98.488 Y157.126 E19.39599
G1 X99.207 Y157.779 E19.44444
G1 X100.242 Y158.437 E19.50563
G1 X103.018 Y159.125 E19.64832
G1 X106.591 Y159.554 E19.82785
G1 X110.193 Y159.555 E20.00756
G1 X115.852 Y158.649 E20.29348
G1 X129.607 Y155.740 E20.99490
G1 X129.032 Y156.161 E21.03046
G1 X124.726 Y158.912 E21.28538
G1 X124.725 Y161.653 E21.42213
G1 X129.160 Y161.654 E21.64339
G1 X129.160 Y166.424 E21.88137
G1 X124.725 Y166.424 E22.10263
G1 X124.724 Y169.140 E22.23814
G1 X129.058 Y171.541 E22.48532
G1 X129.578 Y171.871 E22.51605
G1 X112.889 Y169.190 E23.35934
G1 X107.107 Y167.244 E23.66371
G1 X102.242 Y165.077 E23.92941
G1 X101.745 Y164.682 E23.96108
G1 X101.473 Y164.244 E23.98681
G1 X101.376 Y163.876 E24.00579
G1 X101.274 Y162.888 E24.05535
G0 F9000 X102.547 Y162.752
G1 F1800 X103.935 Y163.373 E24.13121
G1 X104.711 Y163.607 E24.17165
G1 X104.735 Y162.991 E24.20240
G1 X104.874 Y162.507 E24.22752
G1 X105.231 Y162.187 E24.25144
G1 X105.481 Y162.137 E24.26416
G1 X105.401 Y162.257 E24.27136
G1 X105.390 Y162.872 E24.30205
G1 X105.692 Y163.329 E24.32937
G1 X106.336 Y163.531 E24.36305
G1 X107.807 Y163.314 E24.43723
G1 X109.004 Y162.730 E24.50368
G1 X108.423 Y161.967 E24.55152
G1 X108.392 Y161.926 E24.55409
G1 X107.272 Y161.238 E24.61966
G1 X106.337 Y161.019 E24.66757
G1 X104.874 Y161.092 E24.74065
G1 X104.003 Y161.436 E24.78738
G1 X103.270 Y161.959 E24.83230
G1 X102.547 Y162.752 E24.88584
G0 F9000 X102.145 Y162.390
;TYPE:SKIN
G1 F1800 X98.029 Y158.274 E25.17624
G0 F9000 X98.251 Y157.931
G1 F1800 X102.414 Y162.094 E25.46997
G0 F9000 X102.684 Y161.798
G1 F1800 X99.472 Y158.587 E25.69655
G0 F9000 X97.828 Y158.639
G1 F1800 X100.984 Y161.795 E25.91923
G0 F9000 X101.650 Y162.462
G1 F1800 X101.875 Y162.686 E25.93507
G0 F9000 X101.851 Y163.228
G1 F1800 X103.803 Y165.180 E26.07279
G0 F9000 X102.784 Y164.726
G1 F1800 X101.934 Y163.876 E26.13276
G0 F9000 X102.519 Y163.330
G1 F1800 X104.824 Y165.635 E26.29539
G0 F9000 X105.843 Y166.089
G1 F1800 X103.542 Y163.787 E26.45778
G0 F9000 X104.396 Y164.076
G1 F1800 X106.863 Y166.543 E26.63184
G0 F9000 X107.787 Y166.901
G1 F1800 X105.207 Y164.321 E26.81387
G0 F9000 X105.244 Y163.792
G1 F1800 X108.639 Y167.188 E27.05344
G0 F9000 X109.492 Y167.475
G1 F1800 X106.013 Y163.996 E27.29890
G0 F9000 X106.618 Y164.035
G1 F1800 X110.345 Y167.762 E27.56186
G0 F9000 X111.197 Y168.048
G1 F1800 X107.111 Y163.962 E27.85015
G0 F9000 X107.603 Y163.889
G1 F1800 X112.050 Y168.335 E28.16388
G0 F9000 X112.903 Y168.623
G1 F1800 X108.067 Y163.787 E28.50508
G0 F9000 X108.447 Y163.601
G1 F1800 X113.600 Y168.755 E28.86869
G0 F9000 X114.274 Y168.863
G1 F1800 X108.827 Y163.416 E29.25300
G0 F9000 X109.207 Y163.230
G1 F1800 X114.948 Y168.971 E29.65806
G0 F9000 X115.622 Y169.079
G1 F1800 X109.588 Y163.045 E30.08379
G0 F9000 X109.191 Y162.083
G1 F1800 X116.296 Y169.188 E30.58509
G0 F9000 X116.970 Y169.296
G1 F1800 X107.768 Y160.093 E31.23438
G0 F9000 X108.333 Y160.093
G1 F1800 X117.644 Y169.404 E31.89132
G0 F9000 X118.318 Y169.512
G1 F1800 X108.900 Y160.094 E32.55581
G0 F9000 X109.465 Y160.094
G1 F1800 X118.991 Y169.620 E33.22792
G0 F9000 X119.665 Y169.728
G1 F1800 X110.031 Y160.094 E33.90765
G0 F9000 X110.547 Y160.045
G1 F1800 X120.338 Y169.836 E34.59846
G0 F9000 X121.012 Y169.944
G1 F1800 X111.035 Y159.967 E35.30239
G0 F9000 X111.522 Y159.888
G1 F1800 X121.686 Y170.052 E36.01951
G0 F9000 X122.360 Y170.161
G1 F1800 X112.010 Y159.811 E36.74976
G0 F9000 X112.498 Y159.733
G1 F1800 X123.034 Y170.269 E37.49313
G0 F9000 X123.708 Y170.377
G1 F1800 X112.985 Y159.654 E38.24970
G0 F9000 X113.473 Y159.577
G1 F1800 X124.382 Y170.485 E39.01935
G0 F9000 X125.056 Y170.593
G1 F1800 X113.960 Y159.498 E39.80220
G0 F9000 X114.448 Y159.420
G1 F1800 X124.184 Y169.156 E40.48913
G0 F9000 X124.184 Y168.590
G1 F1800 X114.935 Y159.342 E41.14166
G0 F9000 X115.423 Y159.264
G1 F1800 X124.184 Y168.024 E41.75976
G0 F9000 X124.184 Y167.459
G1 F1800 X115.911 Y159.185 E42.34350
G0 F9000 X116.379 Y159.089
G1 F1800 X124.184 Y166.894 E42.89419
G0 F9000 X124.184 Y166.328
G1 F1800 X116.846 Y158.990 E43.41192
G0 F9000 X117.313 Y158.891
G1 F1800 X124.305 Y165.883 E43.90524
G0 F9000 X124.870 Y165.883
G1 F1800 X117.780 Y158.792 E44.40552
G0 F9000 X118.248 Y158.694
G1 F1800 X125.436 Y165.883 E44.91271
G0 F9000 X126.002 Y165.883
G1 F1800 X118.714 Y158.595 E45.42691
G0 F9000 X119.181 Y158.496
G1 F1800 X126.567 Y165.883 E45.94807
G0 F9000 X127.133 Y165.883
G1 F1800 X119.648 Y158.398 E46.47618
G0 F9000 X105.909 Y160.498
G1 F1800 X105.360 Y159.948 E46.51495
G0 F9000 X105.370 Y160.525
G1 F1800 X104.717 Y159.871 E46.56106
G0 F9000 X104.074 Y159.794
G1 F1800 X104.832 Y160.552 E46.61454
G0 F9000 X104.408 Y160.694
G1 F1800 X103.432 Y159.717 E46.68343
G0 F9000 X102.767 Y159.618
G1 F1800 X104.002 Y160.854 E46.77061
G0 F9000 X103.624 Y161.041
G1 F1800 X102.015 Y159.432 E46.88413
G0 F9000 X101.263 Y159.246
G1 F1800 X103.294 Y161.276 E47.02739
G0 F9000 X102.963 Y161.512
G1 F1800 X100.511 Y159.060 E47.20039
G0 F9000 X99.803 Y161.180
G1 F1800 X97.728 Y159.105 E47.34680
G0 F9000 X106.003 Y160.026
G1 F1800 X106.471 Y160.494 E47.37982
G0 F9000 X106.636 Y160.093
G1 F1800 X107.210 Y160.667 E47.42031
G0 F9000 X107.202 Y160.093
G1 F1800 X108.410 Y161.301 E47.50555
G0 F9000 X120.115 Y158.299
G1 F1800 X127.699 Y165.883 E48.04064
G0 F9000 X128.264 Y165.883
G1 F1800 X124.574 Y162.192 E48.30102
G0 F9000 X124.184 Y161.803
G1 F1800 X120.582 Y158.200 E48.55520
G0 F9000 X121.049 Y158.102
G1 F1800 X124.185 Y161.238 E48.77646
G0 F9000 X124.185 Y160.672
G1 F1800 X121.516 Y158.003 E48.96477
G0 F9000 X121.983 Y157.904
G1 F1800 X124.186 Y160.107 E49.12021
G0 F9000 X124.383 Y161.994
G0 X125.140 Y162.192
G1 F1800 X128.619 Y165.672 E49.36570
G0 F9000 X128.619 Y165.106
G1 F1800 X125.705 Y162.192 E49.57130
G0 F9000 X126.271 Y162.192
G1 F1800 X128.619 Y164.540 E49.73697
G0 F9000 X128.619 Y163.975
G1 F1800 X126.837 Y162.192 E49.86273
G0 F9000 X127.402 Y162.192
G1 F1800 X128.619 Y163.409 E49.94860
G0 F9000 X128.619 Y162.843
G1 F1800 X127.968 Y162.192 E49.99453
G0 F9000 X128.534 Y162.192
G1 F1800 X128.619 Y162.278 E50.00056
G0 F9000 X124.384 Y166.083
G0 X124.352 Y169.359
G0 X124.861 Y169.833
G1 F1800 X125.729 Y170.701 E50.06180
G0 F9000 X126.128 Y170.535
G1 F1800 X126.403 Y170.810 E50.08121
G0 F9000 X124.352 Y169.359
G0 X124.384 Y166.083
G0 X124.186 Y159.541
G1 F1800 X122.450 Y157.805 E50.20369
G0 F9000 X122.917 Y157.706
G1 F1800 X124.187 Y158.976 E50.29330
G0 F9000 X124.310 Y158.534
G1 F1800 X123.384 Y157.608 E50.35863
G0 F9000 X123.851 Y157.509
G1 F1800 X124.656 Y158.314 E50.41543
G0 F9000 X125.001 Y158.094
G1 F1800 X124.317 Y157.410 E50.46369
G0 F9000 X124.785 Y157.312
G1 F1800 X125.518 Y157.762 E50.50317
G1 X125.485 Y157.163 E50.53414
G1 X126.209 Y157.322 E50.55652
G1 X126.186 Y157.015 E50.57188
G1 F2400 E46.57188
G0 F9000 X127.835 Y159.640
;TYPE:WALL-INNER
G1 F2400 E50.57188
G1 F1800 X131.302 Y158.718 E50.75086
G1 X131.491 Y158.666 E50.76064
G1 X136.620 Y154.805 E51.08092
G1 X140.546 Y149.110 E51.42602
G1 X142.844 Y146.306 E51.60689
G1 X142.844 Y154.013 E51.99139
G1 X147.280 Y154.013 E52.21270
G1 X147.279 Y157.984 E52.41082
G1 X142.844 Y157.984 E52.63208
G1 X142.843 Y169.956 E53.22937
G1 X138.833 Y169.912 E53.42944
G1 X131.181 Y169.296 E53.81243
G1 X127.836 Y168.546 E53.98346
G1 X127.835 Y168.000 E54.01070
G1 X132.211 Y168.000 E54.22902
G1 X132.211 Y160.078 E54.62425
G1 X127.836 Y160.078 E54.84252
G1 X127.835 Y159.640 E54.86437
G0 F9000 X127.435 Y159.340
;TYPE:WALL-OUTER
G1 F1800 X131.197 Y158.332 E55.05868
G1 X131.311 Y158.301 E55.06457
G1 X136.327 Y154.524 E55.37783
G1 X140.296 Y148.769 E55.72661
G1 X143.244 Y145.193 E55.95783
G1 X143.244 Y153.613 E56.37790
G1 X147.680 Y153.614 E56.59922
G1 X147.679 Y158.384 E56.83719
G1 X143.244 Y158.384 E57.05846
G1 X143.243 Y170.361 E57.65599
G1 X138.811 Y170.312 E57.87712
G1 X131.126 Y169.693 E58.26177
G1 X127.551 Y168.891 E58.44456
G1 X127.436 Y168.855 E58.45057
G1 X127.436 Y167.600 E58.51318
G1 X131.811 Y167.600 E58.73145
G1 X131.811 Y160.478 E59.08677
G1 X127.435 Y160.478 E59.30509
G1 X127.435 Y159.340 E59.36186
G0 F9000 X128.271 Y159.667
;TYPE:SKIN
G1 F1800 X128.629 Y159.742 E59.38089
G1 X129.136 Y159.682 E59.40827
G1 X129.672 Y159.936 E59.43786
G0 F9000 X130.238 Y159.936
G1 F1800 X129.611 Y159.310 E59.48206
G0 F9000 X130.058 Y159.191
G1 F1800 X130.804 Y159.936 E59.53466
G0 F9000 X131.369 Y159.936
G1 F1800 X130.505 Y159.072 E59.59562
G0 F9000 X130.952 Y158.954
G1 F1800 X131.935 Y159.936 E59.66494
G0 F9000 X131.399 Y158.835
G1 F1800 X142.374 Y169.810 E60.43929
G0 F9000 X142.703 Y169.573
G1 F1800 X131.765 Y158.635 E61.21102
G0 F9000 X132.088 Y158.392
G1 F1800 X142.703 Y169.007 E61.95997
G0 F9000 X142.703 Y168.442
G1 F1800 X132.410 Y158.149 E62.68619
G0 F9000 X132.733 Y157.906
G1 F1800 X142.703 Y167.876 E63.38963
G0 F9000 X142.703 Y167.310
G1 F1800 X133.056 Y157.663 E64.07028
G0 F9000 X133.378 Y157.420
G1 F1800 X142.703 Y166.744 E64.72817
G0 F9000 X142.703 Y166.179
G1 F1800 X133.701 Y157.177 E65.36331
G0 F9000 X134.024 Y156.934
G1 F1800 X142.703 Y165.613 E65.97566
G0 F9000 X142.703 Y165.047
G1 F1800 X134.346 Y156.691 E66.56526
G0 F9000 X134.669 Y156.448
G1 F1800 X142.703 Y164.482 E67.13210
G0 F9000 X142.703 Y163.916
G1 F1800 X134.992 Y156.205 E67.67615
G0 F9000 X135.314 Y155.962
G1 F1800 X142.704 Y163.351 E68.19752
G0 F9000 X142.704 Y162.785
G1 F1800 X135.637 Y155.719 E68.69610
G0 F9000 X135.960 Y155.476
G1 F1800 X142.704 Y162.220 E69.17193
G0 F9000 X142.704 Y161.654
G1 F1800 X136.283 Y155.233 E69.62497
G0 F9000 X136.605 Y154.990
G1 F1800 X142.704 Y161.088 E70.05525
G0 F9000 X142.704 Y160.523
G1 F1800 X136.869 Y154.688 E70.46694
G0 F9000 X137.100 Y154.353
G1 F1800 X142.704 Y159.957 E70.86233
G0 F9000 X142.704 Y159.391
G1 F1800 X137.331 Y154.019 E71.24139
G0 F9000 X137.561 Y153.684
G1 F1800 X142.704 Y158.826 E71.60422
G0 F9000 X142.704 Y158.260
G1 F1800 X137.793 Y153.349 E71.95072
G0 F9000 X138.023 Y153.014
G1 F1800 X142.852 Y157.843 E72.29143
G0 F9000 X143.418 Y157.843
G1 F1800 X138.254 Y152.679 E72.65578
G0 F9000 X138.485 Y152.344
G1 F1800 X143.983 Y157.843 E73.04373
G0 F9000 X144.549 Y157.843
G1 F1800 X138.716 Y152.010 E73.45528
G0 F9000 X138.947 Y151.675
G1 F1800 X145.115 Y157.843 E73.89046
G0 F9000 X145.680 Y157.843
G1 F1800 X139.178 Y151.340 E74.34925
G0 F9000 X139.409 Y151.006
G1 F1800 X146.246 Y157.843 E74.83164
G0 F9000 X146.812 Y157.843
G1 F1800 X143.121 Y154.152 E75.09206
G0 F9000 X143.686 Y154.152
G1 F1800 X147.139 Y157.604 E75.33565
G0 F9000 X147.139 Y157.039
G1 F1800 X144.252 Y154.152 E75.53934
G0 F9000 X144.818 Y154.152
G1 F1800 X147.139 Y156.473 E75.70310
G0 F9000 X147.140 Y155.908
G1 F1800 X145.383 Y154.152 E75.82703
G0 F9000 X145.949 Y154.152
G1 F1800 X147.140 Y155.342 E75.91103
G0 F9000 X147.140 Y154.777
G1 F1800 X146.515 Y154.152 E75.95513
G0 F9000 X147.081 Y154.152
G1 F1800 X147.140 Y154.211 E75.95929
G0 F9000 X142.903 Y153.954
G0 X142.704 Y153.734
G1 F1800 X139.640 Y150.671 E76.17543
G0 F9000 X139.871 Y150.336
G1 F1800 X142.704 Y153.169 E76.37532
G0 F9000 X142.704 Y152.603
G1 F1800 X140.101 Y150.001 E76.55894
G0 F9000 X140.333 Y149.666
G1 F1800 X142.704 Y152.037 E76.72623
G0 F9000 X142.704 Y151.472
G1 F1800 X140.563 Y149.331 E76.87728
G0 F9000 X140.808 Y149.010
G1 F1800 X142.704 Y150.906 E77.01106
G0 F9000 X142.704 Y150.340
G1 F1800 X141.062 Y148.699 E77.12687
G0 F9000 X141.318 Y148.389
G1 F1800 X142.704 Y149.775 E77.22466
G0 F9000 X142.704 Y149.209
G1 F1800 X141.572 Y148.078 E77.30450
G0 F9000 X141.827 Y147.766
G1 F1800 X142.704 Y148.643 E77.36637
G0 F9000 X142.704 Y148.078
G1 F1800 X142.081 Y147.455 E77.41033
G0 F9000 X142.336 Y147.144
G1 F1800 X142.704 Y147.229 E77.43629
G1 X142.591 Y146.834 E77.45678
G0 F9000 X132.351 Y160.352
G1 F1800 X141.802 Y169.803 E78.12360
