;Generated with Cura_SteamEngine 15.01
; Default start code
G28 ; Home extruder
G1 Z15 F100
M107 ; Turn off fan
G90 ; Absolute positioning
M82 ; Extruder in absolute mode
M190 S50
; Activate all used extruder
M104 T0 S210
G92 E0 ; Reset extruder position
; Wait for all used extruders to reach temperature
M109 T0 S210
;Layer count: 25
;LAYER:0
M107
G0 F9000 X134.539 Y139.243 Z0.300
;TYPE:SKIRT
G1 F1800 X135.761 Y138.344 E0.07569
G1 X156.405 Y123.156 E1.35433
G1 X160.001 Y125.165 E1.55983
G1 X159.689 Y128.937 E1.74866
G1 X160.421 Y129.174 E1.78705
G1 X163.280 Y130.120 E1.93729
G1 X162.508 Y133.705 E2.12024
G1 X166.402 Y134.170 E2.31590
G1 X164.714 Y138.139 E2.53108
G1 X169.724 Y139.788 E2.79422
G1 X167.027 Y142.774 E2.99496
G1 X171.224 Y144.744 E3.22627
G1 X167.408 Y147.458 E3.45989
G1 X169.875 Y149.880 E3.63237
G1 X167.366 Y152.624 E3.81787
G1 X170.988 Y155.441 E4.04679
G1 X166.983 Y157.290 E4.26686
G1 X169.666 Y160.292 E4.46773
G1 X164.640 Y161.911 E4.73117
G1 X166.330 Y165.889 E4.94680
G1 X162.405 Y166.331 E5.14386
G1 X163.159 Y169.937 E5.32765
G1 X159.557 Y171.079 E5.51617
G1 X159.844 Y174.853 E5.70500
G1 X156.243 Y176.840 E5.91019
G1 X134.557 Y160.766 E7.25691
G1 X132.054 Y157.234 E7.47288
G1 X130.836 Y155.513 E7.57807
G1 X132.626 Y152.053 E7.77242
G1 X138.673 Y152.055 E8.07411
G1 X138.674 Y148.056 E8.27362
G1 X132.645 Y148.055 E8.57441
G1 X130.844 Y144.640 E8.76703
G1 X134.539 Y139.243 E9.09334
G1 F2400 E5.09334
G0 F9000 X137.310 Y141.921
;TYPE:WALL-INNER
G1 F2400 E9.09334
G1 F1800 X155.936 Y128.218 E10.24698
G1 X155.654 Y131.627 E10.41764
G1 X158.846 Y132.659 E10.58500
G1 X157.915 Y136.984 E10.80572
G1 X160.923 Y137.343 E10.95686
G1 X159.598 Y140.456 E11.12565
G1 X162.992 Y141.573 E11.30391
G1 X160.769 Y144.035 E11.46940
G1 X163.718 Y145.419 E11.63192
G1 X161.507 Y146.991 E11.76727
G1 X164.595 Y150.022 E11.98314
G1 X161.767 Y153.114 E12.19219
G1 X163.721 Y154.610 E12.31497
G1 X160.731 Y155.991 E12.47928
G1 X162.940 Y158.467 E12.64483
G1 X159.539 Y159.562 E12.82308
G1 X160.843 Y162.684 E12.99188
G1 X158.603 Y162.936 E13.10434
G1 X157.833 Y163.027 E13.14302
G1 X158.737 Y167.353 E13.36351
G1 X156.114 Y168.184 E13.50078
G1 X155.540 Y168.368 E13.53085
G1 X155.800 Y171.781 E13.70162
G1 X137.309 Y158.075 E14.84993
G1 X135.734 Y155.854 E14.98577
G1 X142.472 Y155.856 E15.32193
G1 X142.475 Y145.265 E15.85032
G1 X142.477 Y144.256 E15.90066
G1 X135.713 Y144.255 E16.23812
G1 X137.310 Y141.921 E16.37921
G0 F9000 X137.018 Y141.639
;TYPE:WALL-OUTER
G1 F1800 X156.407 Y127.375 E17.58010
G1 X156.079 Y131.344 E17.77879
G1 X159.313 Y132.390 E17.94836
G1 X158.398 Y136.639 E18.16521
G1 X161.500 Y137.009 E18.32106
G1 X160.137 Y140.212 E18.49473
G1 X163.701 Y141.385 E18.68192
G1 X161.428 Y143.902 E18.85112
G1 X164.509 Y145.347 E19.02090
G1 X162.128 Y147.040 E19.16665
G1 X165.151 Y150.007 E19.37797
G1 X162.357 Y153.062 E19.58452
G1 X164.489 Y154.696 E19.71853
G1 X161.389 Y156.128 E19.88889
G1 X163.648 Y158.659 E20.05815
G1 X160.076 Y159.809 E20.24536
G1 X161.418 Y163.021 E20.41903
G1 X158.649 Y163.333 E20.55805
G1 X158.314 Y163.373 E20.57489
G1 X159.202 Y167.625 E20.79160
G1 X155.963 Y168.652 E20.96112
G1 X156.265 Y172.624 E21.15986
G1 X137.018 Y158.357 E22.35513
G1 X134.960 Y155.454 E22.53267
G1 X142.072 Y155.456 E22.88749
G1 X142.076 Y144.656 E23.42630
G1 X134.954 Y144.655 E23.78162
G1 X137.018 Y141.639 E23.96395
G0 F9000 X137.330 Y142.138
;TYPE:SKIN
G1 F1800 X139.305 Y144.114 E24.10333
G0 F9000 X138.740 Y144.114
G1 F1800 X137.100 Y142.474 E24.21904
G0 F9000 X136.870 Y142.810
G1 F1800 X138.174 Y144.114 E24.31105
G0 F9000 X137.608 Y144.114
G1 F1800 X136.640 Y143.145 E24.37938
G0 F9000 X136.410 Y143.481
G1 F1800 X137.042 Y144.114 E24.42401
G0 F9000 X136.477 Y144.114
G1 F1800 X136.180 Y143.817 E24.44496
G0 F9000 X137.622 Y141.865
G1 F1800 X139.871 Y144.114 E24.60364
G0 F9000 X140.437 Y144.114
G1 F1800 X137.948 Y141.625 E24.77925
G0 F9000 X138.274 Y141.386
G1 F1800 X141.002 Y144.114 E24.97173
G0 F9000 X141.568 Y144.114
G1 F1800 X138.600 Y141.146 E25.18114
G0 F9000 X138.926 Y140.906
G1 F1800 X142.134 Y144.114 E25.40748
G0 F9000 X142.616 Y144.596
G1 F1800 X160.591 Y162.570 E26.67568
G0 F9000 X160.083 Y162.628
G1 F1800 X142.616 Y145.161 E27.90807
G0 F9000 X142.616 Y145.727
G1 F1800 X159.575 Y162.686 E29.10462
G0 F9000 X159.067 Y162.744
G1 F1800 X142.615 Y146.292 E30.26539
G0 F9000 X142.615 Y146.858
G1 F1800 X158.560 Y162.802 E31.39036
G0 F9000 X158.053 Y162.861
G1 F1800 X142.615 Y147.423 E32.47960
G0 F9000 X142.614 Y147.988
G1 F1800 X157.700 Y163.074 E33.54400
G0 F9000 X157.850 Y163.789
G1 F1800 X142.614 Y148.554 E34.61894
G0 F9000 X142.614 Y149.120
G1 F1800 X157.999 Y164.504 E35.70440
G0 F9000 X158.148 Y165.219
G1 F1800 X142.614 Y149.685 E36.80041
G0 F9000 X142.614 Y150.250
G1 F1800 X158.298 Y165.935 E37.90704
G0 F9000 X158.447 Y166.650
G1 F1800 X142.614 Y150.816 E39.02418
G0 F9000 X142.613 Y151.381
G1 F1800 X158.509 Y167.277 E40.14572
G0 F9000 X158.080 Y167.413
G1 F1800 X142.613 Y151.947 E41.23697
G0 F9000 X142.613 Y152.513
G1 F1800 X157.650 Y167.550 E42.29791
G0 F9000 X157.220 Y167.686
G1 F1800 X142.612 Y153.078 E43.32858
G0 F9000 X142.612 Y153.643
G1 F1800 X156.791 Y167.822 E44.32899
G0 F9000 X156.362 Y167.959
G1 F1800 X142.612 Y154.209 E45.29913
G0 F9000 X142.612 Y154.774
G1 F1800 X155.932 Y168.094 E46.23892
G0 F9000 X155.503 Y168.231
G1 F1800 X142.612 Y155.340 E47.14845
G0 F9000 X142.612 Y155.905
G1 F1800 X155.427 Y168.721 E48.05266
G0 F9000 X155.474 Y169.333
G1 F1800 X142.135 Y155.994 E48.99379
G0 F9000 X141.569 Y155.994
G1 F1800 X155.521 Y169.946 E49.97818
G0 F9000 X155.567 Y170.558
G1 F1800 X141.004 Y155.994 E51.00572
G0 F9000 X140.438 Y155.994
G1 F1800 X155.613 Y171.170 E52.07643
G0 F9000 X154.578 Y170.700
G1 F1800 X139.872 Y155.994 E53.11402
G0 F9000 X139.306 Y155.994
G1 F1800 X152.392 Y169.080 E54.03731
G0 F9000 X150.207 Y167.460
G1 F1800 X138.740 Y155.994 E54.84633
G0 F9000 X138.175 Y155.994
G1 F1800 X148.021 Y165.840 E55.54102
G0 F9000 X145.835 Y164.220
G1 F1800 X137.609 Y155.994 E56.12141
G0 F9000 X137.043 Y155.994
G1 F1800 X143.650 Y162.600 E56.58753
G0 F9000 X141.464 Y160.980
G1 F1800 X136.477 Y155.994 E56.93936
G0 F9000 X136.232 Y156.314
G1 F1800 X139.278 Y159.359 E57.15423
G0 F9000 X142.413 Y155.797
G0 X142.417 Y144.315
G0 X139.252 Y140.666
G1 F1800 X160.275 Y161.689 E58.63752
G0 F9000 X159.871 Y160.719
G1 F1800 X139.577 Y140.426 E60.06933
G0 F9000 X139.903 Y140.186
G1 F1800 X159.466 Y159.748 E61.44957
G0 F9000 X159.658 Y159.375
G1 F1800 X140.229 Y139.947 E62.82036
G0 F9000 X140.555 Y139.707
G1 F1800 X160.086 Y159.237 E64.19834
G0 F9000 X160.514 Y159.100
G1 F1800 X140.881 Y139.467 E65.58356
G0 F9000 X141.207 Y139.227
G1 F1800 X160.942 Y158.962 E66.97597
G0 F9000 X161.370 Y158.824
G1 F1800 X141.533 Y138.988 E68.37554
G0 F9000 X141.859 Y138.748
G1 F1800 X161.798 Y158.687 E69.78234
G0 F9000 X162.226 Y158.549
G1 F1800 X142.185 Y138.508 E71.19634
G0 F9000 X142.511 Y138.269
G1 F1800 X162.655 Y158.412 E72.61758
G0 F9000 X160.865 Y156.019
G0 X161.445 Y155.505
G1 F1800 X143.489 Y137.549 E73.88447
G0 F9000 X143.815 Y137.310
G1 F1800 X161.831 Y155.326 E75.15560
G0 F9000 X162.219 Y155.148
G1 F1800 X144.140 Y137.069 E76.43117
G0 F9000 X144.466 Y136.830
G1 F1800 X162.606 Y154.969 E77.71101
G0 F9000 X162.993 Y154.790
G1 F1800 X144.792 Y136.590 E78.99515
G0 F9000 X145.118 Y136.350
G1 F1800 X161.722 Y152.954 E80.16665
G0 F9000 X161.992 Y152.658
G1 F1800 X145.444 Y136.110 E81.33420
G0 F9000 X145.770 Y135.871
G1 F1800 X162.262 Y152.363 E82.49780
G0 F9000 X162.532 Y152.067
G1 F1800 X146.096 Y135.631 E83.65745
G0 F9000 X146.422 Y135.391
G1 F1800 X162.803 Y151.772 E84.81322
G0 F9000 X163.073 Y151.477
G1 F1800 X146.748 Y135.152 E85.96504
G0 F9000 X147.074 Y134.912
G1 F1800 X163.343 Y151.181 E87.11290
G0 F9000 X163.613 Y150.885
G1 F1800 X147.400 Y134.672 E88.25682
G0 F9000 X147.726 Y134.433
G1 F1800 X163.884 Y150.590 E89.39682
G0 F9000 X164.154 Y150.295
G1 F1800 X148.052 Y134.193 E90.53290
G0 F9000 X148.377 Y133.952
G1 F1800 X161.352 Y146.927 E91.44836
G0 F9000 X161.682 Y146.692
G1 F1800 X148.703 Y133.713 E92.36409
G0 F9000 X149.029 Y133.473
G1 F1800 X162.013 Y146.457 E93.28019
G0 F9000 X162.343 Y146.221
G1 F1800 X149.355 Y133.233 E94.19656
G0 F9000 X149.681 Y132.994
G1 F1800 X160.648 Y143.960 E94.97030
G0 F9000 X160.916 Y143.663
G1 F1800 X150.007 Y132.754 E95.73999
G0 F9000 X150.333 Y132.514
G1 F1800 X161.184 Y143.365 E96.50559
G0 F9000 X161.453 Y143.068
G1 F1800 X150.659 Y132.274 E97.26717
G0 F9000 X150.985 Y132.035
G1 F1800 X159.434 Y140.483 E97.86325
G0 F9000 X159.531 Y140.581
G1 F1800 X161.721 Y142.771 E98.01777
G0 F9000 X161.990 Y142.474
G1 F1800 X160.375 Y140.859 E98.13172
G0 F9000 X161.218 Y141.137
G1 F1800 X162.258 Y142.176 E98.20506
G0 F9000 X162.527 Y141.879
G1 F1800 X162.062 Y141.414 E98.23787
G0 F9000 X160.974 Y144.287
G1 F1800 X162.674 Y145.987 E98.35781
G0 F9000 X163.005 Y145.751
G1 F1800 X162.039 Y144.785 E98.42597
G0 F9000 X163.104 Y145.284
G1 F1800 X163.336 Y145.516 E98.44234
G0 F9000 X161.619 Y147.001
G0 X161.863 Y153.105
G0 X163.014 Y154.246
G1 F1800 X163.379 Y154.611 E98.46809
G0 F9000 X161.058 Y155.684
G1 F1800 X143.163 Y137.789 E99.73068
G0 F9000 X142.837 Y138.029
G1 F1800 X160.671 Y155.863 E100.98896
G0 F9000 X159.603 Y140.087
G1 F1800 X151.311 Y131.795 E101.57401
G0 F9000 X151.637 Y131.555
G1 F1800 X159.772 Y139.690 E102.14798
G0 F9000 X159.941 Y139.293
G1 F1800 X157.754 Y137.106 E102.30228
G0 F9000 X157.747 Y137.099
G1 F1800 X151.963 Y131.316 E102.71034
G0 F9000 X152.289 Y131.076
G1 F1800 X157.847 Y136.634 E103.10248
G0 F9000 X157.947 Y136.168
G1 F1800 X152.614 Y130.835 E103.47876
G0 F9000 X152.940 Y130.596
G1 F1800 X158.047 Y135.702 E103.83905
G0 F9000 X158.147 Y135.237
G1 F1800 X153.266 Y130.356 E104.18343
G0 F9000 X153.592 Y130.116
G1 F1800 X158.247 Y134.771 E104.51186
G0 F9000 X158.347 Y134.305
G1 F1800 X155.894 Y131.852 E104.68494
G0 F9000 X155.526 Y131.484
G1 F1800 X153.918 Y129.877 E104.79835
G0 F9000 X154.244 Y129.637
G1 F1800 X155.569 Y130.961 E104.89181
G0 F9000 X155.612 Y130.439
G1 F1800 X154.570 Y129.397 E104.96532
G0 F9000 X154.896 Y129.158
G1 F1800 X155.655 Y129.916 E105.01884
G0 F9000 X155.698 Y129.394
G1 F1800 X155.385 Y128.798 E105.05243
G1 X155.741 Y128.871 E105.07056
G0 F9000 X155.700 Y131.595
G0 X156.730 Y132.122
G1 F1800 X158.447 Y133.840 E105.19174
G0 F9000 X158.548 Y133.375
G1 F1800 X157.566 Y132.393 E105.26102
G0 F9000 X158.401 Y132.663
G1 F1800 X158.647 Y132.909 E105.27838
G0 F9000 X157.994 Y136.927
G0 X158.396 Y137.182
G1 F1800 X160.110 Y138.896 E105.39931
G0 F9000 X160.279 Y138.500
G1 F1800 X159.038 Y137.260 E105.48683
G0 F9000 X159.680 Y137.336
G1 F1800 X160.447 Y138.102 E105.54091
G0 F9000 X160.616 Y137.706
G1 F1800 X160.323 Y137.412 E105.56162
;LAYER:1
M106 S63
G0 F9000 X157.915 Y136.984 Z0.500
;TYPE:WALL-INNER
G1 F2220 X160.923 Y137.343 E105.66238
G1 X159.598 Y140.456 E105.77491
G1 X162.992 Y141.573 E105.89375
G1 X160.769 Y144.035 E106.00407
G1 X163.718 Y145.419 E106.11242
G1 X161.507 Y146.991 E106.20265
G1 X164.595 Y150.023 E106.34659
G1 X161.767 Y153.114 E106.48594
G1 X163.721 Y154.611 E106.56781
G1 X160.731 Y155.991 E106.67734
G1 X162.940 Y158.467 E106.78770
G1 X159.539 Y159.562 E106.90653
G1 X160.844 Y162.684 E107.01908
G1 X158.730 Y162.922 E107.08984
G1 X157.832 Y163.025 E107.11990
G1 X158.737 Y167.353 E107.26696
G1 X155.540 Y168.367 E107.37852
G1 X155.800 Y171.781 E107.49239
G1 X137.307 Y158.074 E108.25801
G1 X135.733 Y155.854 E108.34852
G1 X142.472 Y155.856 E108.57266
G1 X142.476 Y144.256 E108.95848
G1 X135.713 Y144.255 E109.18342
G1 X137.310 Y141.921 E109.27748
G1 X155.936 Y128.218 E110.04657
G1 X155.654 Y131.627 E110.16034
G1 X158.846 Y132.659 E110.27192
G1 X157.915 Y136.984 E110.41907
G0 F9000 X158.398 Y136.639
;TYPE:WALL-OUTER
G1 F1980 X161.500 Y137.009 E110.52297
G1 X160.137 Y140.212 E110.63875
G1 X163.701 Y141.385 E110.76354
G1 X161.428 Y143.902 E110.87634
G1 X164.509 Y145.347 E110.98953
G1 X162.128 Y147.040 E111.08670
G1 X165.151 Y150.007 E111.22758
G1 X162.357 Y153.062 E111.36527
G1 X164.489 Y154.696 E111.45462
G1 X161.389 Y156.128 E111.56819
G1 X163.648 Y158.659 E111.68103
G1 X160.076 Y159.809 E111.80584
G1 X161.418 Y163.021 E111.92162
G1 X158.313 Y163.372 E112.02555
G1 X159.202 Y167.625 E112.17006
G1 X155.963 Y168.652 E112.28308
G1 X156.265 Y172.624 E112.41557
G1 X137.018 Y158.357 E113.21242
G1 X134.960 Y155.454 E113.33078
G1 X142.072 Y155.456 E113.56732
G1 X142.076 Y144.656 E113.92653
G1 X134.954 Y144.655 E114.16341
G1 X137.018 Y141.639 E114.28496
G1 X156.407 Y127.375 E115.08556
G1 X156.079 Y131.344 E115.21801
G1 X159.313 Y132.390 E115.33106
G1 X158.398 Y136.639 E115.47563
G0 F9000 X158.389 Y137.181
;TYPE:SKIN
G1 F1980 X142.613 Y152.957 E116.21768
G0 F9000 X142.613 Y153.522
G1 F1980 X158.894 Y137.241 E116.98349
G0 F9000 X159.399 Y137.302
G1 F1980 X142.612 Y154.089 E117.77310
G0 F9000 X142.612 Y154.654
G1 F1980 X159.905 Y137.362 E118.58648
G0 F9000 X157.883 Y137.121
G1 F1980 X142.613 Y152.391 E119.30474
G0 F9000 X142.614 Y151.825
G1 F1980 X157.858 Y136.581 E120.02177
G0 F9000 X158.012 Y135.860
G1 F1980 X142.614 Y151.259 E120.74607
G0 F9000 X142.614 Y150.693
G1 F1980 X158.167 Y135.140 E121.47763
G0 F9000 X158.322 Y134.419
G1 F1980 X142.614 Y150.127 E122.21649
G0 F9000 X142.614 Y149.561
G1 F1980 X158.477 Y133.699 E122.96261
G0 F9000 X158.632 Y132.978
G1 F1980 X142.614 Y148.995 E123.71603
G0 F9000 X142.614 Y148.430
G1 F1980 X158.387 Y132.657 E124.45794
G0 F9000 X157.959 Y132.519
G1 F1980 X142.615 Y147.863 E125.17968
G0 F9000 X142.615 Y147.298
G1 F1980 X157.532 Y132.380 E125.88135
G0 F9000 X157.104 Y132.243
G1 F1980 X142.615 Y146.732 E126.56287
G0 F9000 X142.615 Y146.166
G1 F1980 X156.677 Y132.105 E127.22428
G0 F9000 X156.250 Y131.966
G1 F1980 X142.616 Y145.600 E127.86558
G0 F9000 X142.616 Y145.034
G1 F1980 X155.822 Y131.828 E128.48675
G0 F9000 X155.518 Y131.567
G1 F1980 X142.616 Y144.468 E129.09360
G0 F9000 X142.404 Y144.115
G1 F1980 X155.569 Y130.950 E129.71284
G0 F9000 X155.620 Y130.333
G1 F1980 X141.838 Y144.115 E130.36110
G0 F9000 X141.272 Y144.115
G1 F1980 X155.670 Y129.717 E131.03834
G0 F9000 X155.721 Y129.100
G1 F1980 X140.707 Y144.115 E131.74457
G0 F9000 X140.141 Y144.115
G1 F1980 X155.664 Y128.592 E132.47473
G0 F9000 X153.524 Y130.166
G1 F1980 X139.575 Y144.115 E133.13085
G0 F9000 X139.010 Y144.114
G1 F1980 X151.385 Y131.740 E133.71290
G0 F9000 X149.244 Y133.315
G1 F1980 X138.445 Y144.114 E134.22086
G0 F9000 X137.879 Y144.114
G1 F1980 X147.105 Y134.889 E134.65480
G0 F9000 X144.965 Y136.463
G1 F1980 X137.313 Y144.114 E135.01470
G0 F9000 X136.748 Y144.114
G1 F1980 X142.825 Y138.037 E135.30054
G0 F9000 X140.685 Y139.611
G1 F1980 X136.182 Y144.114 E135.51235
G0 F9000 X136.761 Y142.969
G1 F1980 X138.545 Y141.185 E135.59626
G0 F9000 X142.417 Y144.315
G0 X142.413 Y155.797
G0 X138.445 Y155.993
G1 F1980 X137.016 Y157.422 E135.66348
G0 F9000 X137.251 Y157.753
G1 F1980 X139.011 Y155.993 E135.74626
G0 F9000 X139.576 Y155.994
G1 F1980 X137.515 Y158.055 E135.84321
G0 F9000 X137.840 Y158.295
G1 F1980 X140.142 Y155.994 E135.95146
G0 F9000 X140.707 Y155.994
G1 F1980 X138.165 Y158.536 E136.07103
G0 F9000 X138.490 Y158.777
G1 F1980 X141.273 Y155.994 E136.20193
G0 F9000 X141.839 Y155.994
G1 F1980 X138.814 Y159.018 E136.34420
G0 F9000 X139.140 Y159.258
G1 F1980 X142.404 Y155.994 E136.49773
G0 F9000 X142.612 Y155.786
G1 F1980 X160.559 Y137.839 E137.34190
G0 F9000 X160.410 Y137.422
G1 F1980 X142.612 Y155.220 E138.17906
G0 F9000 X140.114 Y159.981
G1 F1980 X159.519 Y140.577 E139.09179
G0 F9000 X159.944 Y140.717
G1 F1980 X140.439 Y160.222 E140.00924
G0 F9000 X140.764 Y160.463
G1 F1980 X160.370 Y140.857 E140.93145
G0 F9000 X160.796 Y140.997
G1 F1980 X141.089 Y160.704 E141.85841
G0 F9000 X141.414 Y160.944
G1 F1980 X161.221 Y141.137 E142.79007
G0 F9000 X161.646 Y141.277
G1 F1980 X141.738 Y161.185 E143.72648
G0 F9000 X142.064 Y161.426
G1 F1980 X162.072 Y141.417 E144.66762
G0 F9000 X162.498 Y141.557
G1 F1980 X142.388 Y161.667 E145.61353
G0 F9000 X142.713 Y161.907
G1 F1980 X160.539 Y144.082 E146.45199
G0 F9000 X160.924 Y144.262
G1 F1980 X143.038 Y162.148 E147.29329
