;Generated with Cura_SteamEngine 15.01
; Default start code
G28 ; Home extruder
G1 Z15 F100
M107 ; Turn off fan
G90 ; Absolute positioning
M82 ; Extruder in absolute mode
M190 S50
; Activate all used extruder
M104 T0 S210
G92 E0 ; Reset extruder position
; Wait for all used extruders to reach temperature
M109 T0 S210
;Layer count: 80
;LAYER:0
M107
G0 F9000 X98.957 Y94.500 Z0.300
G0 X98.804 Y94.775
;TYPE:SKIRT
G1 F1800 X98.957 Y94.500 E0.01570
G1 X99.667 Y93.794 E0.06565
G1 X99.860 Y93.557 E0.08090
G1 X101.044 Y92.730 E0.15295
G1 X101.894 Y92.329 E0.19984
G1 X102.177 Y92.180 E0.21580
G1 X103.226 Y91.901 E0.26995
G1 X103.652 Y91.784 E0.29199
G1 X104.789 Y91.773 E0.34872
G1 X114.853 Y91.735 E0.85082
G1 X119.886 Y91.754 E1.10192
G1 X132.202 Y91.753 E1.71637
G1 X134.938 Y91.754 E1.85287
G1 X147.265 Y91.753 E2.46786
G1 X150.001 Y91.754 E2.60436
G1 X162.327 Y91.753 E3.21931
G1 X165.063 Y91.754 E3.35581
G1 X177.390 Y91.753 E3.97081
G1 X180.115 Y91.754 E4.10676
G1 X185.146 Y91.736 E4.35776
G1 X195.214 Y91.772 E4.86005
G1 X196.338 Y91.786 E4.91614
G1 X197.354 Y92.057 E4.96860
G1 X197.658 Y92.118 E4.98406
G1 X198.910 Y92.705 E5.05305
G1 X199.653 Y93.220 E5.09815
G1 X199.936 Y93.394 E5.11473
G1 X200.594 Y94.057 E5.16133
G1 X200.831 Y94.249 E5.17655
G1 X201.658 Y95.433 E5.24860
G1 X202.059 Y96.283 E5.29549
G1 X202.208 Y96.566 E5.31145
G1 X202.480 Y97.590 E5.36430
G1 X202.604 Y98.041 E5.38764
G1 X202.615 Y99.178 E5.44437
G1 X202.653 Y108.876 E5.92821
G1 X202.634 Y113.727 E6.17023
G1 X202.635 Y125.593 E6.76222
G1 X202.634 Y128.229 E6.89373
G1 X202.635 Y140.107 E7.48633
G1 X202.634 Y142.743 E7.61784
G1 X202.635 Y154.622 E8.21049
G1 X202.634 Y157.258 E8.34200
G1 X202.635 Y169.136 E8.93459
G1 X202.634 Y171.772 E9.06610
G1 X202.635 Y183.650 E9.65870
G1 X202.634 Y186.286 E9.79021
G1 X202.652 Y191.123 E10.03153
G1 X202.616 Y200.826 E10.51562
G1 X202.602 Y201.949 E10.57165
G1 X202.331 Y202.965 E10.62411
G1 X202.270 Y203.269 E10.63958
G1 X201.683 Y204.522 E10.70861
G1 X201.195 Y205.224 E10.75126
G1 X201.042 Y205.499 E10.76696
G1 X200.332 Y206.205 E10.81692
G1 X200.139 Y206.442 E10.83217
G1 X198.955 Y207.269 E10.90422
G1 X198.105 Y207.670 E10.95111
G1 X197.822 Y207.819 E10.96706
G1 X196.773 Y208.098 E11.02122
G1 X196.347 Y208.215 E11.04326
G1 X195.210 Y208.226 E11.09999
G1 X185.146 Y208.264 E11.60209
G1 X180.113 Y208.245 E11.85318
G1 X167.797 Y208.246 E12.46763
G1 X165.061 Y208.245 E12.60413
G1 X152.735 Y208.246 E13.21908
G1 X149.999 Y208.245 E13.35558
G1 X137.672 Y208.246 E13.97057
G1 X134.936 Y208.245 E14.10707
G1 X122.609 Y208.246 E14.72207
G1 X119.884 Y208.245 E14.85802
G1 X114.853 Y208.263 E15.10902
G1 X104.785 Y208.227 E15.61132
G1 X103.661 Y208.213 E15.66740
G1 X102.645 Y207.942 E15.71986
G1 X102.341 Y207.881 E15.73533
G1 X101.089 Y207.294 E15.80432
G1 X100.346 Y206.779 E15.84942
G1 X100.063 Y206.605 E15.86599
G1 X99.405 Y205.942 E15.91259
G1 X99.168 Y205.750 E15.92781
G1 X98.341 Y204.566 E15.99986
G1 X97.940 Y203.716 E16.04675
G1 X97.791 Y203.433 E16.06271
G1 X97.512 Y202.384 E16.11686
G1 X97.395 Y201.958 E16.13890
G1 X97.384 Y200.822 E16.19558
G1 X97.346 Y191.124 E16.67942
G1 X97.365 Y186.272 E16.92149
G1 X97.364 Y174.406 E17.51349
G1 X97.365 Y171.770 E17.64500
G1 X97.364 Y159.892 E18.23759
G1 X97.365 Y157.256 E18.36910
G1 X97.364 Y145.377 E18.96175
G1 X97.365 Y142.741 E19.09326
G1 X97.364 Y130.863 E19.68586
G1 X97.365 Y128.227 E19.81737
G1 X97.364 Y116.349 E20.40996
G1 X97.365 Y113.713 E20.54147
G1 X97.347 Y108.876 E20.78279
G1 X97.383 Y99.174 E21.26683
G1 X97.397 Y98.050 E21.32291
G1 X97.668 Y97.034 E21.37537
G1 X97.729 Y96.730 E21.39084
G1 X98.316 Y95.477 E21.45987
G1 X98.804 Y94.775 E21.50253
G1 F2400 E17.50253
G0 F9000 X102.004 Y96.829
;TYPE:WALL-INNER
G1 F2400 E21.50253
G1 F1800 X102.457 Y96.378 E21.53442
G1 X102.957 Y96.029 E21.56484
G1 X103.560 Y95.745 E21.59809
G1 X104.181 Y95.579 E21.63016
G1 X104.817 Y95.573 E21.66190
G1 X114.853 Y95.535 E22.16260
G1 X119.873 Y95.554 E22.41305
G1 X180.126 Y95.554 E25.41908
G1 X185.146 Y95.536 E25.66953
G1 X195.180 Y95.572 E26.17013
G1 X195.816 Y95.580 E26.20187
G1 X196.453 Y95.750 E26.23476
G1 X197.007 Y96.009 E26.26527
G1 X197.555 Y96.390 E26.29857
G1 X198.010 Y96.846 E26.33071
G1 X198.359 Y97.346 E26.36113
G1 X198.643 Y97.949 E26.39438
G1 X198.809 Y98.570 E26.42645
G1 X198.815 Y99.202 E26.45798
G1 X198.853 Y108.874 E26.94052
G1 X198.834 Y113.713 E27.18194
G1 X198.834 Y186.286 E30.80263
G1 X198.852 Y191.121 E31.04385
G1 X198.816 Y200.792 E31.52634
G1 X198.808 Y201.427 E31.55802
G1 X198.638 Y202.064 E31.59091
G1 X198.379 Y202.618 E31.62142
G1 X197.995 Y203.170 E31.65497
G1 X197.542 Y203.621 E31.68686
G1 X197.042 Y203.970 E31.71728
G1 X196.439 Y204.254 E31.75054
G1 X195.818 Y204.420 E31.78261
G1 X195.182 Y204.426 E31.81434
G1 X185.146 Y204.464 E32.31504
G1 X180.126 Y204.445 E32.56549
G1 X119.873 Y204.445 E35.57152
G1 X114.853 Y204.463 E35.82197
G1 X104.819 Y204.427 E36.32258
G1 X104.183 Y204.419 E36.35431
G1 X103.546 Y204.249 E36.38720
G1 X102.992 Y203.990 E36.41771
G1 X102.444 Y203.609 E36.45101
G1 X101.989 Y203.153 E36.48315
G1 X101.640 Y202.653 E36.51357
G1 X101.356 Y202.050 E36.54682
G1 X101.190 Y201.429 E36.57889
G1 X101.184 Y200.794 E36.61057
G1 X101.146 Y191.126 E37.09292
G1 X101.165 Y186.286 E37.33439
G1 X101.165 Y113.713 E40.95507
G1 X101.147 Y108.878 E41.19629
G1 X101.183 Y99.208 E41.67873
G1 X101.191 Y98.572 E41.71046
G1 X101.361 Y97.935 E41.74336
G1 X101.620 Y97.381 E41.77387
G1 X102.004 Y96.829 E41.80741
G0 F9000 X101.694 Y96.574
;TYPE:WALL-OUTER
G1 F1800 X102.197 Y96.073 E41.84283
G1 X102.757 Y95.681 E41.87694
G1 X103.418 Y95.369 E41.91340
G1 X104.100 Y95.187 E41.94862
G1 X104.813 Y95.173 E41.98420
G1 X114.854 Y95.135 E42.48515
G1 X180.125 Y95.154 E45.74153
G1 X185.146 Y95.136 E45.99203
G1 X195.185 Y95.172 E46.49288
G1 X195.873 Y95.181 E46.52721
G1 X196.586 Y95.371 E46.56402
G1 X197.209 Y95.663 E46.59835
G1 X197.811 Y96.080 E46.63488
G1 X198.315 Y96.586 E46.67052
G1 X198.707 Y97.146 E46.70462
G1 X199.019 Y97.807 E46.74108
G1 X199.201 Y98.489 E46.77630
G1 X199.215 Y99.201 E46.81183
G1 X199.253 Y108.875 E47.29447
G1 X199.234 Y186.285 E51.15647
G1 X199.252 Y191.122 E51.39779
G1 X199.216 Y200.797 E51.88048
G1 X199.207 Y201.484 E51.91476
G1 X199.017 Y202.197 E51.95157
G1 X198.726 Y202.820 E51.98588
G1 X198.305 Y203.425 E52.02265
G1 X197.802 Y203.926 E52.05807
G1 X197.242 Y204.318 E52.09217
G1 X196.581 Y204.630 E52.12864
G1 X195.899 Y204.812 E52.16386
G1 X195.186 Y204.826 E52.19943
G1 X185.145 Y204.864 E52.70039
G1 X119.874 Y204.845 E55.95677
G1 X114.853 Y204.863 E56.20727
G1 X104.814 Y204.827 E56.70812
G1 X104.126 Y204.818 E56.74245
G1 X103.413 Y204.628 E56.77926
G1 X102.790 Y204.336 E56.81359
G1 X102.188 Y203.919 E56.85012
G1 X101.684 Y203.413 E56.88575
G1 X101.292 Y202.853 E56.91986
G1 X100.980 Y202.192 E56.95632
G1 X100.798 Y201.510 E56.99154
G1 X100.784 Y200.798 E57.02707
G1 X100.746 Y191.125 E57.50966
G1 X100.765 Y113.714 E61.37171
G1 X100.747 Y108.877 E61.61303
G1 X100.783 Y99.203 E62.09567
G1 X100.792 Y98.515 E62.13000
G1 X100.982 Y97.802 E62.16681
G1 X101.273 Y97.179 E62.20112
G1 X101.694 Y96.574 E62.23789
G0 F9000 X102.203 Y96.829
;TYPE:SKIN
G1 F1800 X198.675 Y193.301 E69.04451
G0 F9000 X198.675 Y192.736
G1 F1800 X102.485 Y96.546 E75.83123
G0 F9000 X102.808 Y96.302
G1 F1800 X198.675 Y192.170 E82.59520
G0 F9000 X198.675 Y191.604
G1 F1800 X103.159 Y96.088 E89.33437
G0 F9000 X103.543 Y95.907
G1 F1800 X198.675 Y191.039 E96.04645
G0 F9000 X198.675 Y190.472
G1 F1800 X103.980 Y95.777 E102.72769
G0 F9000 X104.487 Y95.719
G1 F1800 X198.675 Y189.906 E109.37313
G0 F9000 X198.675 Y189.341
G1 F1800 X105.053 Y95.719 E115.97867
G0 F9000 X105.619 Y95.719
G1 F1800 X198.675 Y188.775 E122.54427
G0 F9000 X198.675 Y188.209
G1 F1800 X106.184 Y95.719 E129.06998
G0 F9000 X106.750 Y95.719
G1 F1800 X198.675 Y187.644 E135.55578
G0 F9000 X198.675 Y187.078
G1 F1800 X107.316 Y95.719 E142.00165
G0 F9000 X107.881 Y95.719
G1 F1800 X198.675 Y186.512 E148.40762
G0 F9000 X198.675 Y185.947
G1 F1800 X108.447 Y95.719 E154.77370
G0 F9000 X109.013 Y95.719
G1 F1800 X198.675 Y185.381 E161.09984
G0 F9000 X198.675 Y184.815
G1 F1800 X109.578 Y95.719 E167.38607
G0 F9000 X110.144 Y95.719
G1 F1800 X198.675 Y184.250 E173.63241
G0 F9000 X198.675 Y183.684
G1 F1800 X110.710 Y95.719 E179.83882
G0 F9000 X111.275 Y95.719
G1 F1800 X198.675 Y183.118 E186.00533
G0 F9000 X198.675 Y182.553
G1 F1800 X111.841 Y95.719 E192.13193
G0 F9000 X112.407 Y95.719
G1 F1800 X198.675 Y181.987 E198.21861
G0 F9000 X198.675 Y181.421
G1 F1800 X112.973 Y95.719 E204.26535
G0 F9000 X113.538 Y95.719
G1 F1800 X198.675 Y180.855 E210.27219
G0 F9000 X198.674 Y180.289
G1 F1800 X114.104 Y95.719 E216.23906
G0 F9000 X114.670 Y95.719
G1 F1800 X198.674 Y179.723 E222.16599
G0 F9000 X198.674 Y179.158
G1 F1800 X115.235 Y95.719 E228.05307
G0 F9000 X115.801 Y95.719
G1 F1800 X198.674 Y178.592 E233.90020
G0 F9000 X198.674 Y178.026
G1 F1800 X116.367 Y95.719 E239.70741
G0 F9000 X116.932 Y95.719
G1 F1800 X198.674 Y177.461 E245.47475
G0 F9000 X198.674 Y176.895
G1 F1800 X117.498 Y95.719 E251.20215
G0 F9000 X118.064 Y95.719
G1 F1800 X198.674 Y176.329 E256.88962
G0 F9000 X198.674 Y175.764
G1 F1800 X118.629 Y95.719 E262.53723
G0 F9000 X119.195 Y95.719
G1 F1800 X198.674 Y175.198 E268.14490
G0 F9000 X198.674 Y174.632
G1 F1800 X119.761 Y95.719 E273.71264
G0 F9000 X101.953 Y97.145
G1 F1800 X198.675 Y193.867 E280.53690
G0 F9000 X198.675 Y194.433
G1 F1800 X101.725 Y97.483 E287.37725
G0 F9000 X101.544 Y97.867
G1 F1800 X198.675 Y194.998 E294.23036
G0 F9000 X198.675 Y195.564
G1 F1800 X101.408 Y98.297 E301.09308
G0 F9000 X101.327 Y98.782
G1 F1800 X198.675 Y196.130 E307.96150
G0 F9000 X198.675 Y196.695
G1 F1800 X101.322 Y99.342 E314.83028
G0 F9000 X101.322 Y99.907
G1 F1800 X198.675 Y197.261 E321.69910
G0 F9000 X198.675 Y197.827
G1 F1800 X101.322 Y100.473 E328.56791
G0 F9000 X101.322 Y101.039
G1 F1800 X198.675 Y198.392 E335.43669
G0 F9000 X198.675 Y198.958
G1 F1800 X101.322 Y101.604 E342.30551
G0 F9000 X101.322 Y102.170
G1 F1800 X198.675 Y199.524 E349.17432
G0 F9000 X198.675 Y200.090
G1 F1800 X101.322 Y102.736 E356.04314
G0 F9000 X101.322 Y103.301
G1 F1800 X198.675 Y200.655 E362.91195
G0 F9000 X198.670 Y201.216
G1 F1800 X101.322 Y103.867 E369.78042
G0 F9000 X101.322 Y104.433
G1 F1800 X198.590 Y201.701 E376.64320
G0 F9000 X198.453 Y202.130
G1 F1800 X101.322 Y104.998 E383.49635
G0 F9000 X101.322 Y105.564
G1 F1800 X198.272 Y202.515 E390.33673
G0 F9000 X198.045 Y202.853
G1 F1800 X101.322 Y106.130 E397.16106
G0 F9000 X101.322 Y106.696
G1 F1800 X197.795 Y203.169 E403.96775
G0 F9000 X197.512 Y203.452
G1 F1800 X101.322 Y107.261 E410.75451
G0 F9000 X101.322 Y107.827
G1 F1800 X197.190 Y203.695 E417.51852
G0 F9000 X196.839 Y203.910
G1 F1800 X101.322 Y108.393 E424.25776
G0 F9000 X101.322 Y108.959
G1 F1800 X196.454 Y204.091 E430.96983
G0 F9000 X196.018 Y204.220
G1 F1800 X101.322 Y109.525 E437.65111
G0 F9000 X101.322 Y110.090
G1 F1800 X195.510 Y204.278 E444.29659
G0 F9000 X194.945 Y204.278
G1 F1800 X101.322 Y110.656 E450.90216
G0 F9000 X101.322 Y111.222
G1 F1800 X194.379 Y204.278 E457.46780
G0 F9000 X193.813 Y204.278
G1 F1800 X101.322 Y111.787 E463.99354
G0 F9000 X101.322 Y112.353
G1 F1800 X193.248 Y204.278 E470.47938
G0 F9000 X192.682 Y204.278
G1 F1800 X101.322 Y112.919 E476.92528
G0 F9000 X101.322 Y113.484
G1 F1800 X192.116 Y204.278 E483.33129
G0 F9000 X191.550 Y204.278
G1 F1800 X101.322 Y114.050 E489.69736
G0 F9000 X101.322 Y114.616
G1 F1800 X190.985 Y204.278 E496.02354
G0 F9000 X190.419 Y204.278
G1 F1800 X101.322 Y115.182 E502.30978
G0 F9000 X101.322 Y115.747
G1 F1800 X189.853 Y204.278 E508.55612
G0 F9000 X189.288 Y204.278
G1 F1800 X101.322 Y116.313 E514.76256
G0 F9000 X101.322 Y116.879
G1 F1800 X188.722 Y204.278 E520.92906
G0 F9000 X188.156 Y204.278
G1 F1800 X101.322 Y117.444 E527.05567
G0 F9000 X101.323 Y118.011
G1 F1800 X187.591 Y204.278 E533.14231
G0 F9000 X187.026 Y204.279
G1 F1800 X101.323 Y118.576 E539.18912
G0 F9000 X101.323 Y119.142
G1 F1800 X186.460 Y204.279 E545.19600
G0 F9000 X185.894 Y204.279
G1 F1800 X101.323 Y119.708 E551.16294
G0 F9000 X101.323 Y120.273
G1 F1800 X185.329 Y204.279 E557.09001
G0 F9000 X184.763 Y204.279
G1 F1800 X101.323 Y120.839 E562.97716
G0 F9000 X101.323 Y121.405
G1 F1800 X184.197 Y204.279 E568.82436
G0 F9000 X183.632 Y204.279
G1 F1800 X101.323 Y121.970 E574.63171
G0 F9000 X101.323 Y122.536
G1 F1800 X183.066 Y204.279 E580.39912
G0 F9000 X182.500 Y204.279
G1 F1800 X101.323 Y123.102 E586.12659
G0 F9000 X101.323 Y123.668
G1 F1800 X181.935 Y204.279 E591.81417
G0 F9000 X181.369 Y204.279
G1 F1800 X101.323 Y124.233 E597.46185
G0 F9000 X101.323 Y124.799
G1 F1800 X180.803 Y204.279 E603.06959
G0 F9000 X180.237 Y204.279
G1 F1800 X101.323 Y125.365 E608.63740
G0 F9000 X101.323 Y125.930
G1 F1800 X179.672 Y204.279 E614.16535
G0 F9000 X179.107 Y204.280
G1 F1800 X101.323 Y126.496 E619.65343
G0 F9000 X101.323 Y127.062
G1 F1800 X178.541 Y204.280 E625.10157
G0 F9000 X177.975 Y204.280
G1 F1800 X101.324 Y127.628 E630.50975
G0 F9000 X101.324 Y128.194
G1 F1800 X177.410 Y204.280 E635.87803
G0 F9000 X176.844 Y204.280
G1 F1800 X101.324 Y128.759 E641.20641
G0 F9000 X101.324 Y129.325
G1 F1800 X176.278 Y204.280 E646.49485
G0 F9000 X175.713 Y204.280
G1 F1800 X101.324 Y129.891 E651.74340
G0 F9000 X101.324 Y130.456
G1 F1800 X175.147 Y204.280 E656.95205
G0 F9000 X174.581 Y204.280
G1 F1800 X101.324 Y131.022 E662.12076
G0 F9000 X101.324 Y131.588
G1 F1800 X174.016 Y204.280 E667.24957
G0 F9000 X173.450 Y204.280
G1 F1800 X101.324 Y132.154 E672.33845
G0 F9000 X101.324 Y132.719
G1 F1800 X172.884 Y204.280 E677.38743
G0 F9000 X172.319 Y204.280
G1 F1800 X101.324 Y133.285 E682.39651
G0 F9000 X101.324 Y133.851
G1 F1800 X171.753 Y204.280 E687.36566
G0 F9000 X171.187 Y204.280
G1 F1800 X101.324 Y134.416 E692.29490
G0 F9000 X101.324 Y134.982
G1 F1800 X170.622 Y204.281 E697.18429
G0 F9000 X170.057 Y204.281
G1 F1800 X101.324 Y135.548 E702.03377
G0 F9000 X101.324 Y136.113
G1 F1800 X169.491 Y204.281 E706.84336
G0 F9000 X168.925 Y204.281
G1 F1800 X101.324 Y136.680 E711.61297
G0 F9000 X101.324 Y137.245
G1 F1800 X168.360 Y204.281 E716.34273
G0 F9000 X167.794 Y204.281
G1 F1800 X101.324 Y137.811 E721.03254
G0 F9000 X101.324 Y138.377
G1 F1800 X167.228 Y204.281 E725.68243
G0 F9000 X166.662 Y204.281
G1 F1800 X101.324 Y138.942 E730.29241
G0 F9000 X101.324 Y139.508
G1 F1800 X166.097 Y204.281 E734.86250
G0 F9000 X165.531 Y204.281
G1 F1800 X101.324 Y140.074 E739.39265
G0 F9000 X101.324 Y140.640
G1 F1800 X164.965 Y204.281 E743.88286
G0 F9000 X164.400 Y204.281
G1 F1800 X101.324 Y141.205 E748.33321
G0 F9000 X101.324 Y141.771
G1 F1800 X163.834 Y204.281 E752.74363
G0 F9000 X163.268 Y204.281
G1 F1800 X101.324 Y142.337 E757.11412
G0 F9000 X101.324 Y142.902
G1 F1800 X162.703 Y204.281 E761.44474
G0 F9000 X162.138 Y204.281
G1 F1800 X101.324 Y143.468 E765.73546
G0 F9000 X101.324 Y144.034
G1 F1800 X161.572 Y204.281 E769.98624
G0 F9000 X161.006 Y204.281
G1 F1800 X101.324 Y144.599 E774.19713
G0 F9000 X101.324 Y145.165
G1 F1800 X160.441 Y204.281 E778.36812
G0 F9000 X159.875 Y204.281
G1 F1800 X101.325 Y145.731 E782.49914
G0 F9000 X101.325 Y146.297
G1 F1800 X159.309 Y204.281 E786.59022
G0 F9000 X158.744 Y204.281
G1 F1800 X101.325 Y146.863 E790.64141
G0 F9000 X101.325 Y147.428
G1 F1800 X158.178 Y204.281 E794.65269
G0 F9000 X157.612 Y204.281
G1 F1800 X101.325 Y147.994 E798.62405
G0 F9000 X101.325 Y148.560
G1 F1800 X157.047 Y204.281 E802.55550
G0 F9000 X156.481 Y204.281
G1 F1800 X101.325 Y149.125 E806.44705
G0 F9000 X101.325 Y149.691
G1 F1800 X155.915 Y204.281 E810.29867
G0 F9000 X155.349 Y204.281
G1 F1800 X101.325 Y150.257 E814.11036
G0 F9000 X101.325 Y150.823
G1 F1800 X154.784 Y204.281 E817.88214
G0 F9000 X154.219 Y204.282
G1 F1800 X101.325 Y151.388 E821.61410
G0 F9000 X101.325 Y151.954
G1 F1800 X153.653 Y204.282 E825.30612
G0 F9000 X153.087 Y204.282
G1 F1800 X101.325 Y152.520 E828.95821
G0 F9000 X101.325 Y153.085
G1 F1800 X152.522 Y204.282 E832.57044
G0 F9000 X151.956 Y204.282
G1 F1800 X101.325 Y153.651 E836.14273
G0 F9000 X101.325 Y154.217
G1 F1800 X151.390 Y204.282 E839.67508
G0 F9000 X150.825 Y204.282
