;Generated with Cura_SteamEngine 15.01
; Default start code
G28 ; Home extruder
G1 Z15 F100
M107 ; Turn off fan
G90 ; Absolute positioning
M82 ; Extruder in absolute mode
M190 S50
; Activate all used extruder
M104 T0 S210
G92 E0 ; Reset extruder position
; Wait for all used extruders to reach temperature
M109 T0 S210
;Layer count: 80
;LAYER:0
M107
G0 F9000 X88.445 Y63.201 Z0.300
;TYPE:SKIRT
G1 F1800 X89.424 Y62.059 E0.07504
G1 X90.614 Y61.139 E0.15009
G1 X91.964 Y60.477 E0.22510
G1 X93.381 Y60.110 E0.29813
G1 X94.424 Y60.030 E0.35032
G1 X205.482 Y60.031 E5.89102
G1 X205.939 Y60.040 E5.91383
G1 X207.317 Y60.250 E5.98337
G1 X208.728 Y60.774 E6.05846
G1 X210.003 Y61.569 E6.13342
G1 X211.094 Y62.605 E6.20849
G1 X211.955 Y63.842 E6.28368
G1 X212.547 Y65.224 E6.35868
G1 X212.849 Y66.693 E6.43351
G1 X212.872 Y79.164 E7.05569
G1 X212.871 Y232.629 E14.71209
G1 X212.834 Y233.380 E14.74960
G1 X212.547 Y234.775 E14.82066
G1 X211.955 Y236.157 E14.89566
G1 X211.094 Y237.394 E14.97086
G1 X210.003 Y238.430 E15.04592
G1 X208.728 Y239.225 E15.12088
G1 X207.317 Y239.749 E15.19597
G1 X205.910 Y239.964 E15.26698
G1 X194.207 Y239.969 E15.85085
G1 X94.427 Y239.968 E20.82889
G1 X93.383 Y239.890 E20.88112
G1 X91.964 Y239.522 E20.95426
G1 X90.614 Y238.860 E21.02927
G1 X89.424 Y237.940 E21.10431
G1 X88.445 Y236.798 E21.17936
G1 X87.713 Y235.483 E21.25444
G1 X87.264 Y234.046 E21.32955
G1 X87.127 Y232.714 E21.39636
G1 X87.128 Y67.289 E29.64945
G1 X87.263 Y65.955 E29.71634
G1 X87.713 Y64.516 E29.79156
G1 X88.445 Y63.201 E29.86664
G1 F2400 E25.86664
G0 F9000 X91.579 Y65.384
;TYPE:WALL-INNER
G1 F2400 E29.86664
G1 F1800 X92.054 Y64.829 E29.90309
G1 X92.634 Y64.381 E29.93965
G1 X93.291 Y64.058 E29.97618
G1 X94.008 Y63.873 E30.01312
G1 X94.567 Y63.830 E30.04109
G1 X205.441 Y63.831 E35.57262
G1 X205.616 Y63.834 E35.58135
G1 X206.360 Y63.948 E35.61890
G1 X207.044 Y64.202 E35.65530
G1 X207.665 Y64.589 E35.69181
G1 X208.197 Y65.094 E35.72840
G1 X208.616 Y65.696 E35.76500
G1 X208.901 Y66.362 E35.80114
G1 X209.050 Y67.085 E35.83797
G1 X209.072 Y79.167 E36.44074
G1 X209.071 Y232.550 E44.09305
G1 X209.053 Y232.897 E44.11039
G1 X208.901 Y233.637 E44.14807
G1 X208.616 Y234.303 E44.18422
G1 X208.197 Y234.905 E44.22081
G1 X207.665 Y235.410 E44.25740
G1 X207.044 Y235.797 E44.29391
G1 X206.360 Y236.051 E44.33031
G1 X205.621 Y236.164 E44.36761
G1 X94.565 Y236.168 E49.90822
G1 X94.008 Y236.126 E49.93608
G1 X93.291 Y235.941 E49.97303
G1 X92.634 Y235.618 E50.00955
G1 X92.054 Y235.170 E50.04611
G1 X91.579 Y234.615 E50.08256
G1 X91.224 Y233.978 E50.11894
G1 X91.005 Y233.277 E50.15558
G1 X90.927 Y232.518 E50.19365
G1 X90.928 Y67.480 E58.42743
G1 X91.005 Y66.723 E58.46539
G1 X91.224 Y66.021 E58.50208
G1 X91.579 Y65.384 E58.53846
G0 F9000 X91.249 Y65.154
;TYPE:WALL-OUTER
G1 F1800 X91.780 Y64.535 E58.57915
G1 X92.418 Y64.042 E58.61937
G1 X93.151 Y63.682 E58.66011
G1 X93.945 Y63.476 E58.70104
G1 X94.549 Y63.430 E58.73126
G1 X205.448 Y63.431 E64.26403
G1 X205.647 Y63.435 E64.27396
G1 X206.462 Y63.559 E64.31509
G1 X207.218 Y63.840 E64.35533
G1 X207.912 Y64.273 E64.39614
G1 X208.503 Y64.834 E64.43679
G1 X208.965 Y65.497 E64.47711
G1 X209.286 Y66.247 E64.51781
G1 X209.450 Y67.043 E64.55836
G1 X209.471 Y232.540 E72.81504
G1 X209.451 Y232.953 E72.83566
G1 X209.286 Y233.752 E72.87637
G1 X208.965 Y234.502 E72.91707
G1 X208.503 Y235.165 E72.95738
G1 X207.912 Y235.726 E72.99804
G1 X207.218 Y236.159 E73.03885
G1 X206.462 Y236.440 E73.07909
G1 X205.649 Y236.564 E73.12012
G1 X94.549 Y236.568 E78.66292
G1 X93.945 Y236.523 E78.69313
G1 X93.151 Y236.317 E78.73406
G1 X92.418 Y235.957 E78.77480
G1 X91.780 Y235.464 E78.81503
G1 X91.249 Y234.845 E78.85571
G1 X90.854 Y234.135 E78.89625
G1 X90.611 Y233.358 E78.93687
G1 X90.527 Y232.540 E78.97789
G1 X90.528 Y67.460 E87.21377
G1 X90.611 Y66.641 E87.25483
G1 X90.854 Y65.864 E87.29545
G1 X91.249 Y65.154 E87.33599
G0 F9000 X91.728 Y65.423
;TYPE:SKIN
G1 F1800 X208.924 Y182.620 E95.60483
G0 F9000 X208.924 Y183.185
G1 F1800 X91.518 Y65.779 E103.88846
G0 F9000 X91.327 Y66.154
G1 F1800 X208.924 Y183.751 E112.18556
G0 F9000 X208.924 Y184.317
G1 F1800 X91.193 Y66.586 E120.49212
G0 F9000 X91.110 Y67.068
G1 F1800 X208.925 Y184.883 E128.80461
G0 F9000 X208.925 Y185.449
G1 F1800 X91.066 Y67.590 E137.12019
G0 F9000 X91.066 Y68.156
G1 F1800 X208.925 Y186.015 E145.43578
G0 F9000 X208.925 Y186.580
G1 F1800 X91.066 Y68.722 E153.75134
G0 F9000 X91.066 Y69.287
G1 F1800 X208.925 Y187.146 E162.06693
G0 F9000 X208.925 Y187.712
G1 F1800 X91.066 Y69.853 E170.38251
G0 F9000 X91.066 Y70.419
G1 F1800 X208.925 Y188.277 E178.69807
G0 F9000 X208.925 Y188.843
G1 F1800 X91.066 Y70.985 E187.01362
G0 F9000 X91.066 Y71.550
G1 F1800 X208.925 Y189.409 E195.32921
G0 F9000 X208.926 Y189.975
G1 F1800 X91.066 Y72.116 E203.64484
G0 F9000 X91.066 Y72.682
G1 F1800 X208.926 Y190.541 E211.96046
G0 F9000 X208.926 Y191.106
G1 F1800 X91.066 Y73.247 E220.27608
G0 F9000 X91.066 Y73.813
G1 F1800 X208.926 Y191.672 E228.59171
G0 F9000 X208.926 Y192.238
G1 F1800 X91.066 Y74.379 E236.90733
G0 F9000 X91.066 Y74.944
G1 F1800 X208.926 Y192.803 E245.22296
G0 F9000 X208.926 Y193.369
G1 F1800 X91.066 Y75.510 E253.53858
G0 F9000 X91.066 Y76.076
G1 F1800 X208.926 Y193.935 E261.85421
G0 F9000 X208.926 Y194.501
G1 F1800 X91.066 Y76.641 E270.16987
G0 F9000 X91.066 Y77.207
G1 F1800 X208.926 Y195.066 E278.48549
G0 F9000 X208.926 Y195.633
G1 F1800 X91.066 Y77.773 E286.80115
G0 F9000 X91.066 Y78.338
G1 F1800 X208.926 Y196.198 E295.11681
G0 F9000 X208.926 Y196.764
G1 F1800 X91.066 Y78.904 E303.43247
G0 F9000 X91.066 Y79.470
G1 F1800 X208.926 Y197.330 E311.74813
G0 F9000 X208.926 Y197.895
G1 F1800 X91.066 Y80.036 E320.06375
G0 F9000 X91.066 Y80.601
G1 F1800 X208.926 Y198.461 E328.37941
G0 F9000 X208.926 Y199.027
G1 F1800 X91.066 Y81.167 E336.69507
G0 F9000 X91.066 Y81.733
G1 F1800 X208.926 Y199.592 E345.01070
G0 F9000 X208.924 Y182.054
G1 F1800 X91.988 Y65.118 E353.26116
G0 F9000 X92.272 Y64.836
G1 F1800 X208.924 Y181.488 E361.49159
G0 F9000 X208.924 Y180.923
G1 F1800 X92.592 Y64.590 E369.69948
G0 F9000 X92.949 Y64.382
G1 F1800 X208.924 Y180.357 E377.88214
G0 F9000 X208.924 Y179.791
G1 F1800 X93.328 Y64.195 E386.03806
G0 F9000 X93.776 Y64.078
G1 F1800 X208.924 Y179.226 E394.16238
G0 F9000 X208.923 Y178.659
G1 F1800 X94.258 Y63.993 E402.25265
G0 F9000 X94.800 Y63.970
G1 F1800 X208.923 Y178.094 E410.30467
G0 F9000 X208.923 Y177.528
G1 F1800 X95.366 Y63.970 E418.31677
G0 F9000 X95.931 Y63.970
G1 F1800 X208.923 Y176.962 E426.28897
G0 F9000 X208.923 Y176.396
G1 F1800 X96.497 Y63.970 E434.22123
G0 F9000 X97.063 Y63.970
G1 F1800 X208.923 Y175.831 E442.11359
G0 F9000 X208.923 Y175.265
G1 F1800 X97.628 Y63.970 E449.96605
G0 F9000 X98.194 Y63.970
G1 F1800 X208.923 Y174.699 E457.77858
G0 F9000 X208.923 Y174.134
G1 F1800 X98.760 Y63.970 E465.55121
G0 F9000 X99.325 Y63.970
G1 F1800 X208.923 Y173.567 E473.28391
G0 F9000 X208.923 Y173.002
G1 F1800 X99.891 Y63.970 E480.97670
G0 F9000 X100.457 Y63.970
G1 F1800 X208.923 Y172.436 E488.62957
G0 F9000 X208.923 Y171.870
G1 F1800 X101.022 Y63.970 E496.24253
G0 F9000 X101.588 Y63.970
G1 F1800 X208.923 Y171.305 E503.81559
G0 F9000 X208.923 Y170.739
G1 F1800 X102.154 Y63.970 E511.34872
G0 F9000 X102.719 Y63.970
G1 F1800 X208.923 Y170.173 E518.84195
G0 F9000 X208.923 Y169.608
G1 F1800 X103.285 Y63.970 E526.29528
G0 F9000 X103.851 Y63.970
G1 F1800 X208.923 Y169.042 E533.70868
G0 F9000 X208.922 Y168.475
G1 F1800 X104.417 Y63.970 E541.08207
G0 F9000 X104.982 Y63.970
G1 F1800 X208.922 Y167.910 E548.41560
G0 F9000 X208.922 Y167.344
G1 F1800 X105.548 Y63.970 E555.70920
G0 F9000 X106.114 Y63.970
G1 F1800 X208.922 Y166.778 E562.96286
G0 F9000 X208.922 Y166.213
G1 F1800 X106.679 Y63.970 E570.17665
G0 F9000 X107.245 Y63.970
G1 F1800 X208.922 Y165.647 E577.35051
G0 F9000 X208.922 Y165.081
G1 F1800 X107.811 Y63.970 E584.48444
G0 F9000 X108.376 Y63.970
G1 F1800 X208.922 Y164.516 E591.57850
G0 F9000 X208.922 Y163.950
G1 F1800 X108.942 Y63.970 E598.63263
G0 F9000 X109.508 Y63.970
G1 F1800 X208.922 Y163.384 E605.64683
G0 F9000 X208.921 Y162.818
G1 F1800 X110.073 Y63.970 E612.62109
G0 F9000 X110.639 Y63.970
G1 F1800 X208.921 Y162.252 E619.55541
G0 F9000 X208.921 Y161.687
G1 F1800 X111.205 Y63.970 E626.44984
G0 F9000 X111.770 Y63.970
G1 F1800 X208.921 Y161.121 E633.30437
G0 F9000 X208.921 Y160.555
G1 F1800 X112.336 Y63.970 E640.11896
G0 F9000 X112.902 Y63.970
G1 F1800 X208.921 Y159.989 E646.89362
G0 F9000 X208.921 Y159.424
G1 F1800 X113.468 Y63.970 E653.62838
G0 F9000 X114.033 Y63.970
G1 F1800 X208.921 Y158.858 E660.32324
G0 F9000 X208.921 Y158.292
G1 F1800 X114.599 Y63.970 E666.97817
G0 F9000 X115.165 Y63.970
G1 F1800 X208.921 Y157.726 E673.59316
G0 F9000 X208.921 Y157.160
G1 F1800 X115.730 Y63.970 E680.16825
G0 F9000 X116.296 Y63.970
G1 F1800 X208.921 Y156.595 E686.70345
G0 F9000 X208.921 Y156.029
G1 F1800 X116.862 Y63.970 E693.19871
G0 F9000 X117.427 Y63.970
G1 F1800 X208.921 Y155.463 E699.65407
G0 F9000 X208.921 Y154.898
G1 F1800 X117.993 Y63.970 E706.06953
G0 F9000 X118.559 Y63.970
G1 F1800 X208.921 Y154.332 E712.44506
G0 F9000 X208.921 Y153.766
G1 F1800 X119.124 Y63.970 E718.78068
G0 F9000 X119.690 Y63.970
G1 F1800 X208.921 Y153.201 E725.07641
G0 F9000 X208.921 Y152.635
G1 F1800 X120.256 Y63.970 E731.33221
G0 F9000 X120.821 Y63.970
G1 F1800 X208.920 Y152.068 E737.54803
G0 F9000 X208.920 Y151.503
G1 F1800 X121.387 Y63.970 E743.72396
G0 F9000 X121.953 Y63.970
G1 F1800 X208.920 Y150.937 E749.85995
G0 F9000 X208.920 Y150.371
G1 F1800 X122.518 Y63.970 E755.95604
G0 F9000 X123.084 Y63.970
G1 F1800 X208.920 Y149.806 E762.01224
G0 F9000 X208.920 Y149.240
G1 F1800 X123.650 Y63.970 E768.02850
G0 F9000 X124.216 Y63.970
G1 F1800 X208.920 Y148.674 E774.00482
G0 F9000 X208.920 Y148.109
G1 F1800 X124.781 Y63.970 E779.94128
G0 F9000 X125.347 Y63.970
G1 F1800 X208.920 Y147.543 E785.83781
G0 F9000 X208.919 Y146.977
G1 F1800 X125.913 Y63.970 E791.69436
G0 F9000 X126.478 Y63.970
G1 F1800 X208.919 Y146.411 E797.51102
G0 F9000 X208.919 Y145.845
G1 F1800 X127.044 Y63.970 E803.28775
G0 F9000 X127.610 Y63.970
G1 F1800 X208.919 Y145.280 E809.02457
G0 F9000 X208.919 Y144.714
G1 F1800 X128.175 Y63.970 E814.72150
G0 F9000 X128.741 Y63.970
G1 F1800 X208.919 Y144.148 E820.37849
G0 F9000 X208.919 Y143.582
G1 F1800 X129.307 Y63.970 E825.99554
G0 F9000 X129.872 Y63.970
G1 F1800 X208.919 Y143.017 E831.57274
G0 F9000 X208.919 Y142.451
G1 F1800 X130.438 Y63.970 E837.10999
G0 F9000 X131.004 Y63.970
G1 F1800 X208.919 Y141.885 E842.60732
G0 F9000 X208.918 Y141.319
G1 F1800 X131.569 Y63.970 E848.06471
G0 F9000 X132.135 Y63.970
G1 F1800 X208.918 Y140.753 E853.48216
G0 F9000 X208.918 Y140.188
G1 F1800 X132.701 Y63.970 E858.85972
G0 F9000 X133.267 Y63.970
G1 F1800 X208.918 Y139.622 E864.19734
G0 F9000 X208.918 Y139.056
G1 F1800 X133.832 Y63.970 E869.49506
G0 F9000 X134.398 Y63.970
G1 F1800 X208.918 Y138.491 E874.75289
G0 F9000 X208.918 Y137.925
G1 F1800 X134.964 Y63.970 E879.97078
G0 F9000 X135.529 Y63.970
G1 F1800 X208.918 Y137.359 E885.14877
G0 F9000 X208.918 Y136.794
G1 F1800 X136.095 Y63.970 E890.28686
G0 F9000 X136.661 Y63.970
G1 F1800 X208.918 Y136.227 E895.38498
G0 F9000 X208.918 Y135.661
G1 F1800 X137.226 Y63.970 E900.44320
G0 F9000 X137.792 Y63.970
G1 F1800 X208.918 Y135.096 E905.46153
G0 F9000 X208.918 Y134.530
G1 F1800 X138.358 Y63.970 E910.43992
G0 F9000 X138.923 Y63.970
G1 F1800 X208.918 Y133.964 E915.37841
G0 F9000 X208.918 Y133.399
G1 F1800 X139.489 Y63.970 E920.27700
G0 F9000 X140.055 Y63.970
G1 F1800 X208.918 Y132.833 E925.13565
G0 F9000 X208.918 Y132.267
G1 F1800 X140.620 Y63.970 E929.95441
G0 F9000 X141.186 Y63.970
G1 F1800 X208.918 Y131.702 E934.73327
G0 F9000 X208.917 Y131.135
G1 F1800 X141.752 Y63.970 E939.47212
G0 F9000 X142.317 Y63.970
G1 F1800 X208.917 Y130.570 E944.17111
G0 F9000 X208.917 Y130.004
G1 F1800 X142.883 Y63.970 E948.83017
G0 F9000 X143.449 Y63.970
G1 F1800 X208.917 Y129.438 E953.44929
G0 F9000 X208.917 Y128.873
G1 F1800 X144.015 Y63.970 E958.02851
G0 F9000 X144.580 Y63.970
G1 F1800 X208.917 Y128.307 E962.56783
G0 F9000 X208.917 Y127.741
G1 F1800 X145.146 Y63.970 E967.06722
G0 F9000 X145.712 Y63.970
G1 F1800 X208.917 Y127.175 E971.52668
G0 F9000 X208.917 Y126.610
G1 F1800 X146.277 Y63.970 E975.94627
G0 F9000 X146.843 Y63.970
G1 F1800 X208.917 Y126.044 E980.32592
G0 F9000 X208.916 Y125.478
G1 F1800 X147.409 Y63.970 E984.66561
G0 F9000 X147.974 Y63.970
G1 F1800 X208.916 Y124.912 E988.96540
G0 F9000 X208.916 Y124.346
G1 F1800 X148.540 Y63.970 E993.22525
G0 F9000 X149.106 Y63.970
G1 F1800 X208.916 Y123.781 E997.44520
G0 F9000 X208.916 Y123.215
G1 F1800 X149.671 Y63.970 E1001.62526
G0 F9000 X150.238 Y63.971
G1 F1800 X208.916 Y122.649 E1005.76531
G0 F9000 X208.916 Y122.084
G1 F1800 X150.803 Y63.971 E1009.86549
G0 F9000 X151.369 Y63.971
G1 F1800 X208.916 Y121.518 E1013.92575
G0 F9000 X208.916 Y120.952
G1 F1800 X151.935 Y63.971 E1017.94606
G0 F9000 X152.501 Y63.971
G1 F1800 X208.916 Y120.386 E1021.92645
G0 F9000 X208.916 Y119.820
G1 F1800 X153.066 Y63.971 E1025.86693
G0 F9000 X153.632 Y63.971
G1 F1800 X208.916 Y119.254 E1029.76748
G0 F9000 X208.916 Y118.689
G1 F1800 X154.198 Y63.971 E1033.62813
G0 F9000 X154.763 Y63.971
G1 F1800 X208.916 Y118.123 E1037.44888
G0 F9000 X208.916 Y117.557
G1 F1800 X155.329 Y63.971 E1041.22970
G0 F9000 X155.895 Y63.971
G1 F1800 X208.916 Y116.992 E1044.97062
G0 F9000 X208.916 Y116.426
G1 F1800 X156.460 Y63.971 E1048.67163
G0 F9000 X157.026 Y63.971
G1 F1800 X208.916 Y115.860 E1052.33272
G0 F9000 X208.916 Y115.295
G1 F1800 X157.592 Y63.971 E1055.95390
G0 F9000 X158.157 Y63.971
G1 F1800 X208.915 Y114.728 E1059.53512
G0 F9000 X208.915 Y114.163
G1 F1800 X158.723 Y63.971 E1063.07644
G0 F9000 X159.289 Y63.971
G1 F1800 X208.915 Y113.597 E1066.57782
G0 F9000 X208.915 Y113.031
G1 F1800 X159.854 Y63.971 E1070.03930
G0 F9000 X160.420 Y63.971
G1 F1800 X208.915 Y112.466 E1073.46089
G0 F9000 X208.915 Y111.900
G1 F1800 X160.986 Y63.971 E1076.84254
G0 F9000 X161.551 Y63.971
G1 F1800 X208.915 Y111.334 E1080.18429
G0 F9000 X208.915 Y110.768
G1 F1800 X162.117 Y63.971 E1083.48610
G0 F9000 X162.683 Y63.971
G1 F1800 X208.915 Y110.203 E1086.74802
G0 F9000 X208.914 Y109.636
G1 F1800 X163.249 Y63.971 E1089.96993
G0 F9000 X163.814 Y63.971
G1 F1800 X208.914 Y109.071 E1093.15198
G0 F9000 X208.914 Y108.505
G1 F1800 X164.380 Y63.971 E1096.29410
G0 F9000 X164.946 Y63.971
G1 F1800 X208.914 Y107.939 E1099.39628
G0 F9000 X208.914 Y107.374
G1 F1800 X165.511 Y63.971 E1102.45859
G0 F9000 X166.077 Y63.971
G1 F1800 X208.914 Y106.808 E1105.48097
G0 F9000 X208.914 Y106.242
G1 F1800 X166.643 Y63.971 E1108.46342
G0 F9000 X167.208 Y63.971
G1 F1800 X208.914 Y105.677 E1111.40600
G0 F9000 X208.914 Y105.111
G1 F1800 X167.774 Y63.971 E1114.30865
G0 F9000 X168.340 Y63.971
G1 F1800 X208.914 Y104.545 E1117.17137
G0 F9000 X208.913 Y103.979
G1 F1800 X168.905 Y63.971 E1119.99415
G0 F9000 X169.471 Y63.971
G1 F1800 X208.913 Y103.413 E1122.77700
G0 F9000 X208.913 Y102.847
G1 F1800 X170.037 Y63.971 E1125.51991
G0 F9000 X170.602 Y63.971
G1 F1800 X208.913 Y102.282 E1128.22296
G0 F9000 X208.913 Y101.716
G1 F1800 X171.168 Y63.971 E1130.88607
G0 F9000 X171.734 Y63.971
G1 F1800 X208.913 Y101.150 E1133.50925
G0 F9000 X208.913 Y100.585
G1 F1800 X172.300 Y63.971 E1136.09253
G0 F9000 X172.865 Y63.971
G1 F1800 X208.913 Y100.019 E1138.63591
G0 F9000 X208.913 Y99.453
G1 F1800 X173.431 Y63.971 E1141.13936
G0 F9000 X173.997 Y63.971
G1 F1800 X208.913 Y98.887 E1143.60287
G0 F9000 X208.913 Y98.321
G1 F1800 X174.562 Y63.971 E1146.02648
G0 F9000 X175.128 Y63.971
G1 F1800 X208.913 Y97.756 E1148.41020
G0 F9000 X208.913 Y97.190
G1 F1800 X175.694 Y63.971 E1150.75398
G0 F9000 X176.259 Y63.971
G1 F1800 X208.913 Y96.624 E1153.05786
G0 F9000 X208.913 Y96.059
G1 F1800 X176.825 Y63.971 E1155.32184
G0 F9000 X177.391 Y63.971
G1 F1800 X208.913 Y95.493 E1157.54589
G0 F9000 X208.913 Y94.927
G1 F1800 X177.956 Y63.971 E1159.73003
G0 F9000 X178.522 Y63.971
G1 F1800 X208.913 Y94.361 E1161.87425
G0 F9000 X208.913 Y93.796
G1 F1800 X179.088 Y63.971 E1163.97856
G0 F9000 X179.653 Y63.971
G1 F1800 X208.912 Y93.229 E1166.04291
G0 F9000 X208.912 Y92.664
