;Generated with Cura_SteamEngine 15.01
; Default start code
G28 ; Home extruder
G1 Z15 F100
M107 ; Turn off fan
G90 ; Absolute positioning
M82 ; Extruder in absolute mode
M190 S50
; Activate all used extruder
M104 T0 S210
G92 E0 ; Reset extruder position
; Wait for all used extruders to reach temperature
M109 T0 S210
;Layer count: 80
;LAYER:0
M107
G0 F9000 X109.675 Y109.908 Z0.300
G0 X109.457 Y110.181
;TYPE:SKIRT
G1 F1800 X109.675 Y109.908 E0.01743
G1 X110.277 Y109.374 E0.05758
G1 X110.531 Y109.143 E0.07471
G1 X111.202 Y108.709 E0.11457
G1 X111.484 Y108.520 E0.13151
G1 X112.263 Y108.173 E0.17406
G1 X112.523 Y108.050 E0.18841
G1 X113.349 Y107.825 E0.23112
G1 X113.641 Y107.742 E0.24626
G1 X114.425 Y107.653 E0.28563
G1 X114.779 Y107.598 E0.30350
G1 X115.162 Y107.620 E0.32264
G1 X118.946 Y107.608 E0.51143
G1 X129.056 Y107.643 E1.01582
G1 X170.944 Y107.643 E3.10562
G1 X181.053 Y107.609 E3.60996
G1 X185.004 Y107.619 E3.80708
G1 X185.799 Y107.657 E3.84679
G1 X186.570 Y107.808 E3.88598
G1 X186.872 Y107.859 E3.90126
G1 X187.685 Y108.153 E3.94439
G1 X187.962 Y108.248 E3.95900
G1 X188.688 Y108.644 E4.00026
G1 X188.967 Y108.789 E4.01595
G1 X189.644 Y109.307 E4.05848
G1 X189.883 Y109.485 E4.07334
G1 X190.468 Y110.094 E4.11548
G1 X190.680 Y110.310 E4.13057
G1 X191.146 Y110.974 E4.17105
G1 X191.342 Y111.248 E4.18785
G1 X191.695 Y111.964 E4.22768
G1 X191.849 Y112.268 E4.24468
G1 X192.089 Y113.031 E4.28459
G1 X192.196 Y113.356 E4.30166
G1 X192.316 Y114.142 E4.34132
G1 X192.381 Y114.530 E4.36095
G1 X192.379 Y115.086 E4.38869
G1 X192.391 Y118.945 E4.58122
G1 X192.356 Y129.055 E5.08561
G1 X192.356 Y170.955 E7.17601
G1 X192.390 Y181.053 E7.67981
G1 X192.380 Y184.963 E7.87488
G1 X192.368 Y185.536 E7.90347
G1 X192.252 Y186.272 E7.94064
G1 X192.203 Y186.614 E7.95788
G1 X191.959 Y187.377 E7.99784
G1 X191.865 Y187.695 E8.01439
G1 X191.507 Y188.414 E8.05446
G1 X191.357 Y188.727 E8.07178
G1 X190.869 Y189.418 E8.11398
G1 X190.702 Y189.663 E8.12877
G1 X190.157 Y190.226 E8.16787
G1 X189.916 Y190.485 E8.18552
G1 X189.281 Y190.968 E8.22532
G1 X189.005 Y191.185 E8.24284
G1 X188.259 Y191.589 E8.28516
G1 X187.989 Y191.738 E8.30055
G1 X187.219 Y192.014 E8.34135
G1 X186.925 Y192.124 E8.35702
G1 X186.061 Y192.291 E8.40092
G1 X185.628 Y192.364 E8.42283
G1 X181.059 Y192.391 E8.65078
G1 X170.944 Y192.356 E9.15542
G1 X129.056 Y192.356 E11.24522
G1 X118.947 Y192.390 E11.74956
G1 X115.151 Y192.380 E11.93895
G1 X114.820 Y192.397 E11.95548
G1 X113.974 Y192.294 E11.99800
G1 X113.668 Y192.262 E12.01335
G1 X112.867 Y192.042 E12.05479
G1 X112.573 Y191.967 E12.06993
G1 X111.827 Y191.630 E12.11077
G1 X111.537 Y191.509 E12.12645
G1 X110.849 Y191.061 E12.16741
G1 X110.555 Y190.875 E12.18476
G1 X109.955 Y190.337 E12.22497
G1 X109.715 Y190.134 E12.24065
G1 X109.167 Y189.467 E12.28372
G1 X108.974 Y189.240 E12.29859
G1 X108.560 Y188.541 E12.33912
G1 X108.559 Y188.541 E12.33917
G1 X108.383 Y188.250 E12.35613
G1 X108.088 Y187.513 E12.39574
G1 X107.955 Y187.194 E12.41298
G1 X107.751 Y186.313 E12.45810
G1 X107.668 Y185.878 E12.48019
G1 X107.620 Y185.018 E12.52316
G1 X107.608 Y181.054 E12.72093
G1 X107.643 Y170.944 E13.22532
G1 X107.643 Y129.044 E15.31572
G1 X107.609 Y118.946 E15.81952
G1 X107.619 Y114.977 E16.01753
G1 X107.673 Y114.068 E16.06296
G1 X107.872 Y113.170 E16.10885
G1 X107.941 Y112.847 E16.12533
G1 X108.262 Y112.054 E16.16801
G1 X108.368 Y111.778 E16.18276
G1 X108.791 Y111.070 E16.22390
G1 X108.945 Y110.799 E16.23946
G1 X109.457 Y110.181 E16.27949
G1 F2400 E12.27949
G0 F9000 X112.421 Y112.559
;TYPE:WALL-INNER
G1 F2400 E16.27949
G1 F1800 X112.441 Y112.534 E16.28109
G1 X112.835 Y112.184 E16.30738
G1 X112.856 Y112.165 E16.30880
G1 X113.304 Y111.875 E16.33542
G1 X113.330 Y111.858 E16.33697
G1 X113.814 Y111.643 E16.36339
G1 X113.844 Y111.629 E16.36505
G1 X114.350 Y111.491 E16.39121
G1 X114.380 Y111.482 E16.39277
G1 X114.914 Y111.422 E16.41958
G1 X114.962 Y111.415 E16.42200
G1 X115.059 Y111.420 E16.42685
G1 X118.945 Y111.408 E16.62072
G1 X129.044 Y111.443 E17.12457
G1 X170.956 Y111.443 E19.21557
G1 X181.054 Y111.409 E19.71936
G1 X184.918 Y111.419 E19.91214
G1 X185.336 Y111.439 E19.93301
G1 X185.869 Y111.543 E19.96011
G1 X186.396 Y111.728 E19.98797
G1 X186.890 Y111.991 E20.01589
G1 X186.917 Y112.005 E20.01741
G1 X187.337 Y112.327 E20.04381
G1 X187.727 Y112.727 E20.07169
G1 X187.749 Y112.749 E20.07324
G1 X188.052 Y113.181 E20.09956
G1 X188.072 Y113.209 E20.10128
G1 X188.304 Y113.680 E20.12747
G1 X188.478 Y114.214 E20.15549
G1 X188.568 Y114.767 E20.18345
G1 X188.580 Y114.840 E20.18714
G1 X188.579 Y115.075 E20.19886
G1 X188.591 Y118.942 E20.39179
G1 X188.556 Y129.043 E20.89573
G1 X188.556 Y170.956 E22.98678
G1 X188.590 Y181.052 E23.49047
G1 X188.580 Y184.912 E23.68305
G1 X188.574 Y185.198 E23.69732
G1 X188.491 Y185.730 E23.72419
G1 X188.487 Y185.757 E23.72555
G1 X188.325 Y186.267 E23.75224
G1 X188.316 Y186.298 E23.75385
G1 X188.081 Y186.770 E23.78016
G1 X187.762 Y187.230 E23.80809
G1 X187.376 Y187.636 E23.83604
G1 X187.355 Y187.659 E23.83759
G1 X186.935 Y187.978 E23.86390
G1 X186.447 Y188.249 E23.89175
G1 X185.920 Y188.443 E23.91977
G1 X185.375 Y188.553 E23.94751
G1 X185.298 Y188.566 E23.95140
G1 X181.054 Y188.591 E24.16314
G1 X170.956 Y188.556 E24.66694
G1 X129.044 Y188.556 E26.75793
G1 X118.946 Y188.590 E27.26173
G1 X115.061 Y188.580 E27.45555
G1 X114.958 Y188.585 E27.46070
G1 X114.407 Y188.519 E27.48838
G1 X114.374 Y188.515 E27.49004
G1 X113.863 Y188.374 E27.51649
G1 X113.833 Y188.366 E27.51804
G1 X113.349 Y188.148 E27.54452
G1 X113.323 Y188.137 E27.54593
G1 X112.880 Y187.849 E27.57229
G1 X112.457 Y187.477 E27.60039
G1 X112.100 Y187.051 E27.62812
G1 X111.811 Y186.573 E27.65599
G1 X111.597 Y186.055 E27.68395
G1 X111.469 Y185.529 E27.71096
G1 X111.420 Y184.909 E27.74199
G1 X111.408 Y181.057 E27.93417
G1 X111.443 Y170.956 E28.43811
G1 X111.443 Y129.043 E30.52916
G1 X111.409 Y118.947 E31.03285
G1 X111.419 Y115.094 E31.22508
G1 X111.448 Y114.596 E31.24997
G1 X111.582 Y113.992 E31.28083
G1 X111.786 Y113.476 E31.30852
G1 X111.797 Y113.448 E31.31002
G1 X112.069 Y112.992 E31.33651
G1 X112.084 Y112.967 E31.33796
G1 X112.421 Y112.559 E31.36436
G0 F9000 X112.111 Y112.306
;TYPE:WALL-OUTER
G1 F1800 X112.147 Y112.261 E31.36724
G1 X112.568 Y111.887 E31.39533
G1 X112.614 Y111.845 E31.39844
G1 X113.084 Y111.541 E31.42637
G1 X113.136 Y111.507 E31.42946
G1 X113.647 Y111.279 E31.45738
G1 X113.703 Y111.253 E31.46046
G1 X114.243 Y111.106 E31.48838
G1 X114.299 Y111.089 E31.49130
G1 X114.861 Y111.025 E31.51952
G1 X114.942 Y111.013 E31.52361
G1 X115.070 Y111.020 E31.53000
G1 X118.946 Y111.008 E31.72338
G1 X170.955 Y111.043 E34.31812
G1 X181.054 Y111.009 E34.82196
G1 X184.916 Y111.019 E35.01464
G1 X185.391 Y111.041 E35.03836
G1 X185.941 Y111.150 E35.06634
G1 X186.003 Y111.160 E35.06947
G1 X186.529 Y111.351 E35.09739
G1 X186.584 Y111.370 E35.10029
G1 X187.078 Y111.638 E35.12833
G1 X187.130 Y111.666 E35.13128
G1 X187.578 Y112.008 E35.15939
G1 X187.631 Y112.047 E35.16268
G1 X188.014 Y112.448 E35.19034
G1 X188.057 Y112.492 E35.19341
G1 X188.379 Y112.950 E35.22134
G1 X188.417 Y113.003 E35.22460
G1 X188.662 Y113.501 E35.25229
G1 X188.689 Y113.553 E35.25521
G1 X188.859 Y114.091 E35.28336
G1 X188.963 Y114.704 E35.31438
G1 X188.980 Y114.806 E35.31954
G1 X188.979 Y115.075 E35.33296
G1 X188.991 Y118.943 E35.52593
G1 X188.956 Y170.955 E38.12082
G1 X188.990 Y181.053 E38.62462
G1 X188.980 Y184.921 E38.81759
G1 X188.973 Y185.232 E38.83311
G1 X188.886 Y185.789 E38.86124
G1 X188.878 Y185.848 E38.86421
G1 X188.707 Y186.385 E38.89233
G1 X188.689 Y186.446 E38.89550
G1 X188.440 Y186.945 E38.92332
G1 X188.414 Y187.002 E38.92645
G1 X188.091 Y187.458 E38.95433
G1 X188.057 Y187.507 E38.95730
G1 X187.667 Y187.911 E38.98532
G1 X187.623 Y187.958 E38.98853
G1 X187.180 Y188.295 E39.01630
G1 X187.131 Y188.333 E39.01939
G1 X186.639 Y188.600 E39.04732
G1 X186.583 Y188.630 E39.05049
G1 X186.057 Y188.818 E39.07836
G1 X185.999 Y188.840 E39.08145
G1 X185.455 Y188.945 E39.10909
G1 X185.331 Y188.966 E39.11537
G1 X181.054 Y188.991 E39.32875
G1 X129.045 Y188.956 E41.92349
G1 X118.946 Y188.990 E42.42734
G1 X115.070 Y188.980 E42.62071
G1 X114.942 Y188.986 E42.62710
G1 X114.362 Y188.916 E42.65625
G1 X114.300 Y188.910 E42.65936
G1 X113.760 Y188.761 E42.68731
G1 X113.698 Y188.745 E42.69050
G1 X113.190 Y188.515 E42.71832
G1 X113.132 Y188.490 E42.72147
G1 X112.664 Y188.186 E42.74931
G1 X112.614 Y188.154 E42.75228
G1 X112.194 Y187.778 E42.78040
G1 X112.145 Y187.736 E42.78362
G1 X111.793 Y187.307 E42.81130
G1 X111.752 Y187.259 E42.81445
G1 X111.468 Y186.779 E42.84228
G1 X111.227 Y186.206 E42.87329
G1 X111.203 Y186.147 E42.87647
G1 X111.077 Y185.605 E42.90423
G1 X111.051 Y185.468 E42.91119
G1 X111.020 Y184.914 E42.93887
G1 X111.008 Y181.056 E43.13135
G1 X111.043 Y129.044 E45.72624
G1 X111.009 Y118.946 E46.23003
G1 X111.019 Y115.087 E46.42256
G1 X111.051 Y114.536 E46.45009
G1 X111.191 Y113.907 E46.48224
G1 X111.205 Y113.844 E46.48546
G1 X111.414 Y113.329 E46.51319
G1 X111.436 Y113.272 E46.51624
G1 X111.724 Y112.791 E46.54421
G1 X111.754 Y112.737 E46.54729
G1 X112.111 Y112.306 E46.57521
G0 F9000 X112.454 Y112.736
;TYPE:SKIN
G1 F1800 X187.265 Y187.548 E51.85357
G0 F9000 X187.541 Y187.258
G1 F1800 X112.739 Y112.456 E57.13125
G0 F9000 X113.052 Y112.204
G1 F1800 X187.791 Y186.942 E62.40446
G0 F9000 X188.011 Y186.596
G1 F1800 X113.395 Y111.981 E67.66898
G0 F9000 X113.787 Y111.807
G1 F1800 X188.195 Y186.215 E72.91887
G0 F9000 X188.330 Y185.785
G1 F1800 X114.217 Y111.671 E78.14798
G0 F9000 X114.697 Y111.586
G1 F1800 X188.414 Y185.303 E83.34911
G0 F9000 X188.439 Y184.762
G1 F1800 X115.237 Y111.560 E88.51391
G0 F9000 X115.802 Y111.560
G1 F1800 X188.439 Y184.197 E93.63884
G0 F9000 X188.439 Y183.631
G1 F1800 X116.368 Y111.560 E98.72384
G0 F9000 X116.934 Y111.560
G1 F1800 X188.439 Y183.065 E103.76890
G0 F9000 X188.439 Y182.500
G1 F1800 X117.499 Y111.560 E108.77410
G0 F9000 X118.065 Y111.560
G1 F1800 X188.439 Y181.934 E113.73937
G0 F9000 X188.439 Y181.368
G1 F1800 X118.631 Y111.560 E118.66470
G0 F9000 X119.196 Y111.560
G1 F1800 X188.439 Y180.802 E123.55013
G0 F9000 X188.439 Y180.237
G1 F1800 X119.762 Y111.560 E128.39567
G0 F9000 X112.198 Y113.046
G1 F1800 X186.944 Y187.793 E133.66944
G0 F9000 X186.592 Y188.006
G1 F1800 X111.986 Y113.400 E138.93329
G0 F9000 X111.811 Y113.791
G1 F1800 X186.206 Y188.186 E144.18226
G0 F9000 X185.780 Y188.326
G1 F1800 X111.674 Y114.219 E149.41087
G0 F9000 X111.582 Y114.693
G1 F1800 X185.309 Y188.420 E154.61271
G0 F9000 X184.747 Y188.424
G1 F1800 X111.558 Y115.235 E159.77659
G0 F9000 X111.558 Y115.801
G1 F1800 X184.182 Y188.424 E164.90057
G0 F9000 X183.616 Y188.424
G1 F1800 X111.558 Y116.367 E169.98462
G0 F9000 X111.558 Y116.932
G1 F1800 X183.050 Y188.424 E175.02876
G0 F9000 X182.485 Y188.424
G1 F1800 X111.558 Y117.498 E180.03301
G0 F9000 X111.558 Y118.064
G1 F1800 X181.920 Y188.425 E184.99740
G0 F9000 X181.354 Y188.425
G1 F1800 X111.558 Y118.629 E189.92188
G0 F9000 X111.558 Y119.195
G1 F1800 X180.788 Y188.425 E194.80643
G0 F9000 X180.223 Y188.425
G1 F1800 X111.558 Y119.761 E199.65108
G0 F9000 X111.558 Y120.326
G1 F1800 X179.657 Y188.425 E204.45583
G0 F9000 X179.091 Y188.425
G1 F1800 X111.558 Y120.892 E209.22065
G0 F9000 X111.558 Y121.458
G1 F1800 X178.526 Y188.426 E213.94561
G0 F9000 X177.961 Y188.426
G1 F1800 X111.558 Y122.024 E218.63066
G0 F9000 X111.558 Y122.589
G1 F1800 X177.395 Y188.426 E223.27582
G0 F9000 X176.829 Y188.426
G1 F1800 X111.558 Y123.155 E227.88104
G0 F9000 X111.558 Y123.721
G1 F1800 X176.264 Y188.426 E232.44636
G0 F9000 X175.698 Y188.426
G1 F1800 X111.558 Y124.286 E236.97179
G0 F9000 X111.558 Y124.852
G1 F1800 X175.133 Y188.426 E241.45731
G0 F9000 X174.567 Y188.426
G1 F1800 X111.558 Y125.418 E245.90290
G0 F9000 X111.558 Y125.983
G1 F1800 X174.002 Y188.426 E250.30863
G0 F9000 X173.436 Y188.426
G1 F1800 X111.558 Y126.549 E254.67442
G0 F9000 X111.558 Y127.115
G1 F1800 X172.870 Y188.426 E259.00027
G0 F9000 X172.304 Y188.426
G1 F1800 X111.558 Y127.680 E263.28623
G0 F9000 X111.558 Y128.246
G1 F1800 X171.739 Y188.427 E267.53233
G0 F9000 X171.174 Y188.427
G1 F1800 X111.558 Y128.812 E271.73852
G0 F9000 X111.558 Y129.377
G1 F1800 X170.608 Y188.427 E275.90482
G0 F9000 X170.042 Y188.427
G1 F1800 X111.558 Y129.943 E280.03118
G0 F9000 X111.558 Y130.509
G1 F1800 X169.477 Y188.427 E284.11764
G0 F9000 X168.911 Y188.427
G1 F1800 X111.558 Y131.074 E288.16421
G0 F9000 X111.558 Y131.640
G1 F1800 X168.346 Y188.428 E292.17091
G0 F9000 X167.780 Y188.428
G1 F1800 X111.558 Y132.206 E296.13767
G0 F9000 X111.558 Y132.772
G1 F1800 X167.215 Y188.428 E300.06454
G0 F9000 X166.649 Y188.428
G1 F1800 X111.558 Y133.337 E303.95151
G0 F9000 X111.558 Y133.903
G1 F1800 X166.083 Y188.428 E307.79854
G0 F9000 X165.518 Y188.428
G1 F1800 X111.558 Y134.469 E311.60568
G0 F9000 X111.558 Y135.034
G1 F1800 X164.953 Y188.429 E315.37298
G0 F9000 X164.387 Y188.429
G1 F1800 X111.558 Y135.600 E319.10035
G0 F9000 X111.558 Y136.166
G1 F1800 X163.821 Y188.429 E322.78779
G0 F9000 X163.256 Y188.429
G1 F1800 X111.558 Y136.731 E326.43536
G0 F9000 X111.558 Y137.297
G1 F1800 X162.690 Y188.429 E330.04300
G0 F9000 X162.124 Y188.429
G1 F1800 X111.558 Y137.863 E333.61071
G0 F9000 X111.558 Y138.428
G1 F1800 X161.559 Y188.429 E337.13855
G0 F9000 X160.994 Y188.429
G1 F1800 X111.558 Y138.994 E340.62649
G0 F9000 X111.558 Y139.560
G1 F1800 X160.428 Y188.429 E344.07450
G0 F9000 X159.862 Y188.429
G1 F1800 X111.558 Y140.125 E347.48260
G0 F9000 X111.558 Y140.691
G1 F1800 X159.297 Y188.429 E350.85081
G0 F9000 X158.731 Y188.429
G1 F1800 X111.558 Y141.257 E354.17909
G0 F9000 X111.558 Y141.822
G1 F1800 X158.166 Y188.430 E357.46753
G0 F9000 X157.600 Y188.430
G1 F1800 X111.558 Y142.388 E360.71605
G0 F9000 X111.558 Y142.954
G1 F1800 X157.034 Y188.430 E363.92462
G0 F9000 X156.469 Y188.430
G1 F1800 X111.558 Y143.520 E367.09330
G0 F9000 X111.558 Y144.085
G1 F1800 X155.903 Y188.430 E370.22208
G0 F9000 X155.337 Y188.430
G1 F1800 X111.558 Y144.651 E373.31093
G0 F9000 X111.558 Y145.217
G1 F1800 X154.772 Y188.431 E376.35991
G0 F9000 X154.207 Y188.431
G1 F1800 X111.558 Y145.782 E379.36902
G0 F9000 X111.558 Y146.348
G1 F1800 X153.641 Y188.431 E382.33821
G0 F9000 X153.075 Y188.431
G1 F1800 X111.558 Y146.914 E385.26746
G0 F9000 X111.558 Y147.479
G1 F1800 X152.510 Y188.431 E388.15684
G0 F9000 X151.944 Y188.431
G1 F1800 X111.558 Y148.045 E391.00629
G0 F9000 X111.558 Y148.611
G1 F1800 X151.379 Y188.431 E393.81584
G0 F9000 X150.813 Y188.431
G1 F1800 X111.558 Y149.176 E396.58549
G0 F9000 X111.558 Y149.742
G1 F1800 X150.248 Y188.431 E399.31525
G0 F9000 X149.682 Y188.431
G1 F1800 X111.559 Y150.308 E402.00503
G0 F9000 X111.559 Y150.874
G1 F1800 X149.116 Y188.431 E404.65488
G0 F9000 X148.551 Y188.431
G1 F1800 X111.559 Y151.440 E407.26483
G0 F9000 X111.559 Y152.006
G1 F1800 X147.986 Y188.432 E409.83492
G0 F9000 X147.420 Y188.432
G1 F1800 X111.559 Y152.571 E412.36510
G0 F9000 X111.559 Y153.137
G1 F1800 X146.854 Y188.432 E414.85536
G0 F9000 X146.289 Y188.432
G1 F1800 X111.559 Y153.703 E417.30571
G0 F9000 X111.559 Y154.268
G1 F1800 X145.723 Y188.432 E419.71617
G0 F9000 X145.157 Y188.432
G1 F1800 X111.559 Y154.834 E422.08669
G0 F9000 X111.559 Y155.400
G1 F1800 X144.592 Y188.433 E424.41734
G0 F9000 X144.027 Y188.433
G1 F1800 X111.559 Y155.965 E426.70813
G0 F9000 X111.559 Y156.531
G1 F1800 X143.461 Y188.433 E428.95899
G0 F9000 X142.895 Y188.433
G1 F1800 X111.559 Y157.097 E431.16992
G0 F9000 X111.559 Y157.662
G1 F1800 X142.329 Y188.433 E433.34094
G0 F9000 X141.765 Y188.434
G1 F1800 X111.559 Y158.228 E435.47214
G0 F9000 X111.559 Y158.794
G1 F1800 X141.199 Y188.434 E437.56340
G0 F9000 X140.633 Y188.434
G1 F1800 X111.559 Y159.359 E439.61476
G0 F9000 X111.559 Y159.925
G1 F1800 X140.067 Y188.434 E441.62619
G0 F9000 X139.502 Y188.434
G1 F1800 X111.559 Y160.491 E443.59772
G0 F9000 X111.559 Y161.057
G1 F1800 X138.936 Y188.434 E445.52932
G0 F9000 X138.371 Y188.434
G1 F1800 X111.559 Y161.622 E447.42105
G0 F9000 X111.559 Y162.188
G1 F1800 X137.805 Y188.434 E449.27285
G0 F9000 X137.240 Y188.434
G1 F1800 X111.559 Y162.754 E451.08474
G0 F9000 X111.559 Y163.319
G1 F1800 X136.674 Y188.434 E452.85674
