;Generated with Cura_SteamEngine 15.01
; Default start code
G28 ; Home extruder
G1 Z15 F100
M107 ; Turn off fan
G90 ; Absolute positioning
M82 ; Extruder in absolute mode
M190 S50
; Activate all used extruder
M104 T0 S210
G92 E0 ; Reset extruder position
; Wait for all used extruders to reach temperature
M109 T0 S210
;Layer count: 80
;LAYER:0
M107
G0 F9000 X109.815 Y103.465 Z0.300
;TYPE:SKIRT
G1 F1800 X110.704 Y102.707 E0.05829
G1 X111.698 Y102.098 E0.11644
G1 X112.775 Y101.652 E0.17460
G1 X113.909 Y101.379 E0.23279
G1 X114.943 Y101.298 E0.28454
G1 X126.785 Y101.247 E0.87534
G1 X129.058 Y101.256 E0.98874
G1 X142.018 Y101.255 E1.63532
G1 X143.018 Y101.256 E1.68521
G1 X155.988 Y101.255 E2.33229
G1 X156.988 Y101.256 E2.38218
G1 X169.958 Y101.255 E3.02925
G1 X170.947 Y101.256 E3.07859
G1 X173.215 Y101.248 E3.19175
G1 X185.057 Y101.298 E3.78255
G1 X186.090 Y101.379 E3.83425
G1 X187.224 Y101.652 E3.89244
G1 X188.301 Y102.098 E3.95059
G1 X189.295 Y102.707 E4.00875
G1 X190.184 Y103.465 E4.06704
G1 X190.942 Y104.354 E4.12532
G1 X191.551 Y105.348 E4.18348
G1 X191.997 Y106.425 E4.24164
G1 X192.270 Y107.559 E4.29983
G1 X192.351 Y108.592 E4.35153
G1 X192.402 Y120.257 E4.93350
G1 X192.393 Y122.496 E5.04521
G1 X192.394 Y135.260 E5.68200
G1 X192.393 Y136.244 E5.73110
G1 X192.394 Y149.019 E6.36844
G1 X192.393 Y150.003 E6.41754
G1 X192.394 Y162.777 E7.05483
G1 X192.393 Y163.761 E7.10393
G1 X192.394 Y176.535 E7.74122
G1 X192.393 Y177.519 E7.79032
G1 X192.401 Y179.742 E7.90122
G1 X192.351 Y191.406 E8.48315
G1 X192.270 Y192.440 E8.53489
G1 X191.997 Y193.574 E8.59308
G1 X191.551 Y194.651 E8.65124
G1 X190.942 Y195.645 E8.70940
G1 X190.184 Y196.534 E8.76768
G1 X189.295 Y197.292 E8.82597
G1 X188.301 Y197.901 E8.88413
G1 X187.224 Y198.347 E8.94228
G1 X186.090 Y198.620 E9.00048
G1 X185.058 Y198.701 E9.05212
G1 X174.693 Y198.752 E9.56924
G1 X172.702 Y198.743 E9.66857
G1 X159.335 Y198.744 E10.33545
G1 X158.303 Y198.743 E10.38694
G1 X144.925 Y198.744 E11.05437
G1 X143.893 Y198.743 E11.10586
G1 X130.514 Y198.744 E11.77334
G1 X129.493 Y198.743 E11.82428
G1 X127.153 Y198.751 E11.94102
G1 X114.943 Y198.701 E12.55019
G1 X113.909 Y198.620 E12.60193
G1 X112.775 Y198.347 E12.66012
G1 X111.698 Y197.901 E12.71828
G1 X110.704 Y197.292 E12.77644
G1 X109.815 Y196.534 E12.83472
G1 X109.057 Y195.645 E12.89301
G1 X108.448 Y194.651 E12.95117
G1 X108.002 Y193.574 E13.00932
G1 X107.729 Y192.440 E13.06752
G1 X107.648 Y191.406 E13.11926
G1 X107.597 Y179.742 E13.70119
G1 X107.606 Y177.503 E13.81289
G1 X107.605 Y164.739 E14.44969
G1 X107.606 Y163.755 E14.49878
G1 X107.605 Y150.981 E15.13608
G1 X107.606 Y149.997 E15.18517
G1 X107.605 Y137.222 E15.82252
G1 X107.606 Y136.238 E15.87161
G1 X107.605 Y123.464 E16.50891
G1 X107.606 Y122.480 E16.55800
G1 X107.598 Y120.257 E16.66891
G1 X107.648 Y108.592 E17.25088
G1 X107.729 Y107.559 E17.30258
G1 X108.002 Y106.425 E17.36077
G1 X108.448 Y105.348 E17.41892
G1 X109.057 Y104.354 E17.47708
G1 X109.815 Y103.465 E17.53537
G1 F2400 E13.53537
G0 F9000 X112.511 Y106.161
;TYPE:WALL-INNER
G1 F2400 E17.53537
G1 F1800 X112.943 Y105.791 E17.56375
G1 X113.430 Y105.494 E17.59220
G1 X113.956 Y105.276 E17.62061
G1 X114.505 Y105.143 E17.64879
G1 X115.098 Y105.097 E17.67847
G1 X126.786 Y105.047 E18.26159
G1 X129.044 Y105.056 E18.37424
G1 X170.956 Y105.056 E20.46524
G1 X173.213 Y105.048 E20.57784
G1 X184.902 Y105.097 E21.16101
G1 X185.494 Y105.143 E21.19064
G1 X186.043 Y105.276 E21.21882
G1 X186.569 Y105.494 E21.24723
G1 X187.056 Y105.791 E21.27569
G1 X187.488 Y106.161 E21.30406
G1 X187.858 Y106.593 E21.33244
G1 X188.155 Y107.080 E21.36090
G1 X188.373 Y107.606 E21.38930
G1 X188.506 Y108.155 E21.41749
G1 X188.552 Y108.747 E21.44711
G1 X188.602 Y120.255 E22.02125
G1 X188.593 Y122.482 E22.13236
G1 X188.593 Y177.517 E24.87807
G1 X188.601 Y179.738 E24.98887
G1 X188.552 Y191.251 E25.56326
G1 X188.506 Y191.844 E25.59294
G1 X188.373 Y192.393 E25.62112
G1 X188.155 Y192.919 E25.64953
G1 X187.858 Y193.406 E25.67798
G1 X187.488 Y193.838 E25.70636
G1 X187.056 Y194.208 E25.73474
G1 X186.569 Y194.505 E25.76320
G1 X186.043 Y194.723 E25.79160
G1 X185.494 Y194.856 E25.81979
G1 X184.902 Y194.902 E25.84941
G1 X174.692 Y194.952 E26.35880
G1 X172.718 Y194.943 E26.45728
G1 X129.484 Y194.943 E28.61423
G1 X127.154 Y194.951 E28.73048
G1 X115.098 Y194.902 E29.33196
G1 X114.505 Y194.856 E29.36163
G1 X113.956 Y194.723 E29.38981
G1 X113.430 Y194.505 E29.41822
G1 X112.943 Y194.208 E29.44668
G1 X112.511 Y193.838 E29.47506
G1 X112.141 Y193.406 E29.50343
G1 X111.844 Y192.919 E29.53189
G1 X111.626 Y192.393 E29.56030
G1 X111.493 Y191.844 E29.58848
G1 X111.447 Y191.251 E29.61815
G1 X111.397 Y179.744 E30.19225
G1 X111.406 Y177.517 E30.30335
G1 X111.406 Y122.482 E33.04906
G1 X111.398 Y120.261 E33.15987
G1 X111.447 Y108.747 E33.73431
G1 X111.493 Y108.155 E33.76393
G1 X111.626 Y107.606 E33.79211
G1 X111.844 Y107.080 E33.82052
G1 X112.141 Y106.593 E33.84898
G1 X112.511 Y106.161 E33.87736
G0 F9000 X112.227 Y105.877
;TYPE:WALL-OUTER
G1 F1800 X112.707 Y105.467 E33.90885
G1 X113.245 Y105.138 E33.94031
G1 X113.835 Y104.893 E33.97218
G1 X114.443 Y104.747 E34.00338
G1 X115.078 Y104.697 E34.03516
G1 X126.786 Y104.647 E34.61928
G1 X170.955 Y104.656 E36.82288
G1 X173.214 Y104.648 E36.93558
G1 X184.922 Y104.697 E37.51970
G1 X185.556 Y104.747 E37.55143
G1 X186.164 Y104.893 E37.58263
G1 X186.754 Y105.138 E37.61450
G1 X187.292 Y105.467 E37.64596
G1 X187.772 Y105.877 E37.67745
G1 X188.182 Y106.357 E37.70895
G1 X188.511 Y106.895 E37.74041
G1 X188.756 Y107.485 E37.77228
G1 X188.902 Y108.093 E37.80348
G1 X188.952 Y108.725 E37.83511
G1 X189.002 Y120.256 E38.41040
G1 X188.993 Y177.516 E41.26711
G1 X189.001 Y179.740 E41.37807
G1 X188.952 Y191.271 E41.95335
G1 X188.902 Y191.906 E41.98513
G1 X188.756 Y192.514 E42.01633
G1 X188.511 Y193.104 E42.04820
G1 X188.182 Y193.642 E42.07966
G1 X187.772 Y194.122 E42.11116
G1 X187.292 Y194.532 E42.14265
G1 X186.754 Y194.861 E42.17411
G1 X186.164 Y195.106 E42.20598
G1 X185.556 Y195.252 E42.23718
G1 X184.922 Y195.302 E42.26891
G1 X174.691 Y195.352 E42.77934
G1 X129.485 Y195.343 E45.03468
G1 X127.154 Y195.351 E45.15097
G1 X115.078 Y195.302 E45.75345
G1 X114.443 Y195.252 E45.78523
G1 X113.835 Y195.106 E45.81643
G1 X113.245 Y194.861 E45.84830
G1 X112.707 Y194.532 E45.87976
G1 X112.227 Y194.122 E45.91125
G1 X111.817 Y193.642 E45.94275
G1 X111.488 Y193.104 E45.97421
G1 X111.243 Y192.514 E46.00608
G1 X111.097 Y191.906 E46.03728
G1 X111.047 Y191.271 E46.06906
G1 X110.997 Y179.743 E46.64420
G1 X111.006 Y122.483 E49.50091
G1 X110.998 Y120.259 E49.61187
G1 X111.047 Y108.725 E50.18730
G1 X111.097 Y108.093 E50.21893
G1 X111.243 Y107.485 E50.25013
G1 X111.488 Y106.895 E50.28200
G1 X111.817 Y106.357 E50.31346
G1 X112.227 Y105.877 E50.34496
G0 F9000 X112.693 Y106.188
;TYPE:SKIN
G1 F1800 X188.412 Y181.906 E55.68731
G0 F9000 X188.412 Y181.341
G1 F1800 X112.998 Y105.927 E61.00817
G0 F9000 X113.346 Y105.709
G1 F1800 X188.412 Y180.775 E66.30448
G0 F9000 X188.412 Y180.209
G1 F1800 X113.726 Y105.523 E71.57398
G0 F9000 X114.142 Y105.374
G1 F1800 X188.412 Y179.644 E76.81413
G0 F9000 X188.412 Y179.078
G1 F1800 X114.609 Y105.276 E82.02130
G0 F9000 X115.136 Y105.237
G1 F1800 X188.412 Y178.512 E87.19128
G0 F9000 X188.412 Y177.946
G1 F1800 X115.702 Y105.237 E92.32133
G0 F9000 X116.268 Y105.237
G1 F1800 X188.412 Y177.381 E97.41148
G0 F9000 X188.412 Y176.815
G1 F1800 X116.833 Y105.237 E102.46173
G0 F9000 X117.399 Y105.237
G1 F1800 X188.412 Y176.249 E107.47204
G0 F9000 X188.412 Y175.684
G1 F1800 X117.965 Y105.237 E112.44246
G0 F9000 X118.530 Y105.237
G1 F1800 X188.412 Y175.118 E117.37298
G0 F9000 X188.412 Y174.552
G1 F1800 X119.096 Y105.237 E122.26356
G0 F9000 X119.662 Y105.237
G1 F1800 X188.412 Y173.987 E127.11424
G0 F9000 X188.412 Y173.421
G1 F1800 X120.227 Y105.237 E131.92503
G0 F9000 X120.793 Y105.237
G1 F1800 X188.412 Y172.855 E136.69588
G0 F9000 X188.412 Y172.290
G1 F1800 X121.359 Y105.237 E141.42683
G0 F9000 X121.925 Y105.237
G1 F1800 X188.412 Y171.724 E146.11785
G0 F9000 X188.412 Y171.158
G1 F1800 X122.490 Y105.237 E150.76896
G0 F9000 X123.056 Y105.237
G1 F1800 X188.412 Y170.593 E155.38018
G0 F9000 X188.412 Y170.027
G1 F1800 X123.622 Y105.237 E159.95147
G0 F9000 X124.187 Y105.237
G1 F1800 X188.412 Y169.461 E164.48285
G0 F9000 X188.412 Y168.895
G1 F1800 X124.753 Y105.237 E168.97430
G0 F9000 X125.319 Y105.237
G1 F1800 X188.412 Y168.330 E173.42586
G0 F9000 X188.412 Y167.764
G1 F1800 X125.884 Y105.237 E177.83751
G0 F9000 X126.450 Y105.237
G1 F1800 X188.412 Y167.198 E182.20923
G0 F9000 X188.412 Y166.633
G1 F1800 X127.016 Y105.237 E186.54105
G0 F9000 X127.581 Y105.237
G1 F1800 X188.412 Y166.067 E190.83297
G0 F9000 X188.412 Y165.501
G1 F1800 X128.147 Y105.237 E195.08495
G0 F9000 X128.713 Y105.237
G1 F1800 X188.412 Y164.936 E199.29704
G0 F9000 X188.412 Y164.370
G1 F1800 X129.278 Y105.237 E203.46923
G0 F9000 X129.844 Y105.237
G1 F1800 X188.412 Y163.804 E207.60148
G0 F9000 X188.412 Y163.239
G1 F1800 X130.410 Y105.237 E211.69384
G0 F9000 X130.975 Y105.237
G1 F1800 X188.412 Y162.673 E215.74629
G0 F9000 X188.412 Y162.107
G1 F1800 X131.541 Y105.237 E219.75881
G0 F9000 X132.107 Y105.237
G1 F1800 X188.412 Y161.542 E223.73143
G0 F9000 X188.412 Y160.976
G1 F1800 X132.673 Y105.237 E227.66412
G0 F9000 X133.238 Y105.237
G1 F1800 X188.412 Y160.410 E231.55691
G0 F9000 X188.412 Y159.845
G1 F1800 X133.804 Y105.237 E235.40980
G0 F9000 X134.370 Y105.237
G1 F1800 X188.412 Y159.279 E239.22275
G0 F9000 X188.412 Y158.713
G1 F1800 X134.935 Y105.237 E242.99581
G0 F9000 X135.501 Y105.237
G1 F1800 X188.412 Y158.147 E246.72893
G0 F9000 X188.412 Y157.582
G1 F1800 X136.067 Y105.237 E250.42215
G0 F9000 X136.632 Y105.237
G1 F1800 X188.412 Y157.016 E254.07548
G0 F9000 X188.412 Y156.450
G1 F1800 X137.198 Y105.237 E257.68887
G0 F9000 X137.764 Y105.237
G1 F1800 X188.412 Y155.885 E261.26236
G0 F9000 X188.412 Y155.319
G1 F1800 X138.329 Y105.237 E264.79595
G0 F9000 X138.895 Y105.237
G1 F1800 X188.412 Y154.753 E268.28960
G0 F9000 X188.412 Y154.188
G1 F1800 X139.461 Y105.237 E271.74336
G0 F9000 X140.026 Y105.237
G1 F1800 X188.412 Y153.622 E275.15722
G0 F9000 X188.412 Y153.056
G1 F1800 X140.592 Y105.237 E278.53114
G0 F9000 X141.158 Y105.237
G1 F1800 X188.412 Y152.491 E281.86517
G0 F9000 X188.412 Y151.925
G1 F1800 X141.723 Y105.237 E285.15929
G0 F9000 X142.289 Y105.237
G1 F1800 X188.412 Y151.359 E288.41349
G0 F9000 X188.412 Y150.794
G1 F1800 X142.855 Y105.237 E291.62778
G0 F9000 X143.421 Y105.237
G1 F1800 X188.412 Y150.228 E294.80214
G0 F9000 X188.412 Y149.662
G1 F1800 X143.986 Y105.237 E297.93659
G0 F9000 X144.552 Y105.237
G1 F1800 X188.412 Y149.097 E301.03115
G0 F9000 X188.412 Y148.531
G1 F1800 X145.118 Y105.237 E304.08578
G0 F9000 X145.683 Y105.237
G1 F1800 X188.412 Y147.965 E307.10051
G0 F9000 X188.412 Y147.399
G1 F1800 X146.249 Y105.237 E310.07530
G0 F9000 X146.815 Y105.237
G1 F1800 X188.412 Y146.834 E313.01019
G0 F9000 X188.412 Y146.268
G1 F1800 X147.380 Y105.237 E315.90519
G0 F9000 X147.946 Y105.237
G1 F1800 X188.412 Y145.702 E318.76025
G0 F9000 X188.412 Y145.137
G1 F1800 X148.512 Y105.237 E321.57541
G0 F9000 X149.077 Y105.237
G1 F1800 X188.412 Y144.571 E324.35067
G0 F9000 X188.412 Y144.005
G1 F1800 X149.643 Y105.237 E327.08599
G0 F9000 X150.209 Y105.237
G1 F1800 X188.412 Y143.440 E329.78142
G0 F9000 X188.412 Y142.874
G1 F1800 X150.774 Y105.237 E332.43695
G0 F9000 X151.340 Y105.237
G1 F1800 X188.412 Y142.308 E335.05255
G0 F9000 X188.412 Y141.743
G1 F1800 X151.906 Y105.237 E337.62824
G0 F9000 X152.472 Y105.237
G1 F1800 X188.412 Y141.177 E340.16400
G0 F9000 X188.412 Y140.611
G1 F1800 X153.037 Y105.237 E342.65986
G0 F9000 X153.603 Y105.237
G1 F1800 X188.412 Y140.046 E345.11583
G0 F9000 X188.412 Y139.480
G1 F1800 X154.169 Y105.237 E347.53186
G0 F9000 X154.734 Y105.237
G1 F1800 X188.412 Y138.914 E349.90799
G0 F9000 X188.412 Y138.348
G1 F1800 X155.300 Y105.237 E352.24418
G0 F9000 X155.866 Y105.237
G1 F1800 X188.412 Y137.783 E354.54048
G0 F9000 X188.412 Y137.217
G1 F1800 X156.431 Y105.237 E356.79687
G0 F9000 X156.997 Y105.237
G1 F1800 X188.412 Y136.651 E359.01334
G0 F9000 X188.412 Y136.086
G1 F1800 X157.563 Y105.237 E361.18990
G0 F9000 X158.128 Y105.237
G1 F1800 X188.412 Y135.520 E363.32656
G0 F9000 X188.412 Y134.954
G1 F1800 X158.694 Y105.237 E365.42329
G0 F9000 X159.260 Y105.237
G1 F1800 X188.412 Y134.389 E367.48013
G0 F9000 X188.412 Y133.823
G1 F1800 X159.825 Y105.237 E369.49706
G0 F9000 X160.391 Y105.237
G1 F1800 X188.412 Y133.257 E371.47406
G0 F9000 X188.412 Y132.692
G1 F1800 X160.957 Y105.237 E373.41115
G0 F9000 X161.522 Y105.237
G1 F1800 X188.412 Y132.126 E375.30835
G0 F9000 X188.412 Y131.560
G1 F1800 X162.088 Y105.237 E377.16562
G0 F9000 X162.654 Y105.237
G1 F1800 X188.412 Y130.995 E378.98298
G0 F9000 X188.412 Y130.429
G1 F1800 X163.220 Y105.237 E380.76042
G0 F9000 X163.785 Y105.237
G1 F1800 X188.412 Y129.863 E382.49795
G0 F9000 X188.412 Y129.298
G1 F1800 X164.351 Y105.237 E384.19558
G0 F9000 X164.917 Y105.237
G1 F1800 X188.412 Y128.732 E385.85328
G0 F9000 X188.412 Y128.166
G1 F1800 X165.482 Y105.237 E387.47108
G0 F9000 X166.048 Y105.237
G1 F1800 X188.412 Y127.600 E389.04895
G0 F9000 X188.412 Y127.035
G1 F1800 X166.614 Y105.237 E390.58691
G0 F9000 X167.179 Y105.237
G1 F1800 X188.412 Y126.469 E392.08498
G0 F9000 X188.412 Y125.903
G1 F1800 X167.745 Y105.237 E393.54311
G0 F9000 X168.311 Y105.237
G1 F1800 X188.412 Y125.338 E394.96135
G0 F9000 X188.412 Y124.772
G1 F1800 X168.876 Y105.237 E396.33968
G0 F9000 X169.442 Y105.237
G1 F1800 X188.412 Y124.206 E397.67808
G0 F9000 X188.412 Y123.641
G1 F1800 X170.008 Y105.237 E398.97659
G0 F9000 X170.573 Y105.237
G1 F1800 X188.412 Y123.075 E400.23519
G0 F9000 X188.412 Y122.509
G1 F1800 X171.139 Y105.237 E401.45386
G0 F9000 X171.705 Y105.237
G1 F1800 X188.412 Y121.944 E402.63263
G0 F9000 X188.412 Y121.378
G1 F1800 X172.271 Y105.237 E403.77146
G0 F9000 X172.836 Y105.237
G1 F1800 X188.412 Y120.812 E404.87040
G0 F9000 X188.412 Y120.247
G1 F1800 X173.402 Y105.237 E405.92943
G0 F9000 X173.968 Y105.237
G1 F1800 X188.412 Y119.681 E406.94853
G0 F9000 X188.412 Y119.115
G1 F1800 X174.533 Y105.237 E407.92774
G0 F9000 X175.099 Y105.237
G1 F1800 X188.412 Y118.549 E408.86701
G0 F9000 X188.412 Y117.984
G1 F1800 X175.665 Y105.237 E409.76638
G0 F9000 X176.230 Y105.237
G1 F1800 X188.412 Y117.418 E410.62585
G0 F9000 X188.412 Y116.852
G1 F1800 X176.796 Y105.237 E411.44538
G0 F9000 X177.362 Y105.237
G1 F1800 X188.412 Y116.287 E412.22502
G0 F9000 X188.412 Y115.721
G1 F1800 X177.927 Y105.237 E412.96476
G0 F9000 X178.493 Y105.237
G1 F1800 X188.412 Y115.155 E413.66456
G0 F9000 X188.412 Y114.590
G1 F1800 X179.059 Y105.237 E414.32447
G0 F9000 X179.624 Y105.237
G1 F1800 X188.412 Y114.024 E414.94447
G0 F9000 X188.412 Y113.458
G1 F1800 X180.190 Y105.237 E415.52454
G0 F9000 X180.756 Y105.237
G1 F1800 X188.412 Y112.893 E416.06472
G0 F9000 X188.412 Y112.327
G1 F1800 X181.321 Y105.237 E416.56499
G0 F9000 X181.887 Y105.237
G1 F1800 X188.412 Y111.761 E417.02533
G0 F9000 X188.412 Y111.196
G1 F1800 X182.453 Y105.237 E417.44577
G0 F9000 X183.019 Y105.237
G1 F1800 X188.412 Y110.630 E417.82627
G0 F9000 X188.412 Y110.064
G1 F1800 X183.584 Y105.237 E418.16688
G0 F9000 X184.150 Y105.237
G1 F1800 X188.412 Y109.499 E418.46759
G0 F9000 X188.412 Y108.933
G1 F1800 X184.716 Y105.237 E418.72836
G0 F9000 X185.314 Y105.269
G1 F1800 X188.378 Y108.334 E418.94458
G0 F9000 X188.224 Y107.613
G1 F1800 X186.035 Y105.425 E419.09899
G0 F9000 X112.420 Y106.480
G1 F1800 X188.412 Y182.472 E424.46063
G0 F9000 X188.412 Y183.038
G1 F1800 X112.176 Y106.802 E429.83949
G0 F9000 X111.963 Y107.155
G1 F1800 X188.412 Y183.603 E435.23335
G0 F9000 X188.412 Y184.169
G1 F1800 X111.797 Y107.555 E440.63892
G0 F9000 X111.674 Y107.997
G1 F1800 X188.412 Y184.735 E446.05320
G0 F9000 X188.412 Y185.300
G1 F1800 X111.605 Y108.494 E451.47231
G0 F9000 X111.585 Y109.040
G1 F1800 X188.412 Y185.866 E456.89283
G0 F9000 X188.412 Y186.432
G1 F1800 X111.585 Y109.605 E462.31339
G0 F9000 X111.585 Y110.171
G1 F1800 X188.412 Y186.997 E467.73392
G0 F9000 X188.412 Y187.563
G1 F1800 X111.585 Y110.737 E473.15444
G0 F9000 X111.585 Y111.302
G1 F1800 X188.412 Y188.129 E478.57500
