;Generated with Cura_SteamEngine 15.01
; Default start code
G28 ; Home extruder
G1 Z15 F100
M107 ; Turn off fan
G90 ; Absolute positioning
M82 ; Extruder in absolute mode
M190 S50
; Activate all used extruder
M104 T0 S210
G92 E0 ; Reset extruder position
; Wait for all used extruders to reach temperature
M109 T0 S210
;Layer count: 80
;LAYER:0
M107
G0 F9000 X50.689 Y123.977 Z0.300
;TYPE:SKIRT
G1 F1800 X52.106 Y123.610 E0.07303
G1 X53.149 Y123.530 E0.12522
G1 X246.757 Y123.531 E9.78436
G1 X247.214 Y123.540 E9.80716
G1 X248.592 Y123.750 E9.87670
G1 X250.003 Y124.274 E9.95180
G1 X251.278 Y125.069 E10.02676
G1 X252.369 Y126.105 E10.10182
G1 X253.230 Y127.342 E10.17701
G1 X253.822 Y128.724 E10.25202
G1 X254.124 Y130.193 E10.32684
G1 X254.147 Y139.960 E10.81412
G1 X254.146 Y143.650 E10.99822
G1 X254.147 Y152.663 E11.44788
G1 X254.146 Y156.351 E11.63187
G1 X254.147 Y165.363 E12.08148
G1 X254.146 Y169.128 E12.26932
G1 X254.109 Y169.880 E12.30688
G1 X253.822 Y171.275 E12.37793
G1 X253.230 Y172.657 E12.45294
G1 X252.369 Y173.894 E12.52813
G1 X251.278 Y174.930 E12.60320
G1 X250.003 Y175.725 E12.67816
G1 X248.592 Y176.249 E12.75325
G1 X247.185 Y176.464 E12.82426
G1 X234.245 Y176.469 E13.46984
G1 X53.152 Y176.468 E22.50461
G1 X52.108 Y176.390 E22.55684
G1 X50.689 Y176.022 E22.62997
G1 X49.339 Y175.360 E22.70499
G1 X48.149 Y174.440 E22.78003
G1 X47.170 Y173.298 E22.85507
G1 X46.438 Y171.983 E22.93016
G1 X45.989 Y170.546 E23.00527
G1 X45.852 Y169.212 E23.07217
G1 X45.853 Y130.787 E24.98920
G1 X45.988 Y129.454 E25.05605
G1 X46.438 Y128.016 E25.13122
G1 X47.170 Y126.701 E25.20631
G1 X48.149 Y125.559 E25.28135
G1 X49.339 Y124.639 E25.35639
G1 X50.689 Y123.977 E25.43141
G1 F2400 E21.43141
G0 F9000 X52.016 Y127.558
;TYPE:WALL-INNER
G1 F2400 E25.43141
G1 F1800 X52.733 Y127.373 E25.46835
G1 X53.292 Y127.330 E25.49632
G1 X246.716 Y127.331 E35.14628
G1 X246.891 Y127.334 E35.15502
G1 X247.635 Y127.448 E35.19257
G1 X248.319 Y127.702 E35.22897
G1 X248.940 Y128.089 E35.26547
G1 X249.472 Y128.594 E35.30207
G1 X249.891 Y129.196 E35.33866
G1 X250.176 Y129.862 E35.37480
G1 X250.325 Y130.585 E35.41163
G1 X250.347 Y139.963 E35.87950
G1 X250.346 Y169.049 E37.33061
G1 X250.328 Y169.397 E37.34800
G1 X250.176 Y170.137 E37.38569
G1 X249.891 Y170.803 E37.42183
G1 X249.472 Y171.405 E37.45842
G1 X248.940 Y171.910 E37.49501
G1 X248.319 Y172.297 E37.53152
G1 X247.635 Y172.551 E37.56792
G1 X246.896 Y172.664 E37.60522
G1 X53.290 Y172.668 E47.26426
G1 X52.733 Y172.626 E47.29213
G1 X52.016 Y172.441 E47.32907
G1 X51.359 Y172.118 E47.36560
G1 X50.779 Y171.670 E47.40216
G1 X50.304 Y171.115 E47.43861
G1 X49.949 Y170.478 E47.47499
G1 X49.730 Y169.777 E47.51163
G1 X49.652 Y169.017 E47.54974
G1 X49.653 Y130.979 E49.44747
G1 X49.730 Y130.223 E49.48538
G1 X49.949 Y129.521 E49.52207
G1 X50.304 Y128.884 E49.55845
G1 X50.779 Y128.329 E49.59489
G1 X51.359 Y127.881 E49.63146
G1 X52.016 Y127.558 E49.66798
G0 F9000 X51.876 Y127.182
;TYPE:WALL-OUTER
G1 F1800 X52.670 Y126.976 E49.70891
G1 X53.274 Y126.930 E49.73913
G1 X246.723 Y126.931 E59.39034
G1 X246.922 Y126.935 E59.40027
G1 X247.737 Y127.059 E59.44140
G1 X248.493 Y127.340 E59.48163
G1 X249.187 Y127.773 E59.52244
G1 X249.778 Y128.334 E59.56310
G1 X250.240 Y128.997 E59.60341
G1 X250.561 Y129.747 E59.64411
G1 X250.725 Y130.543 E59.68466
G1 X250.746 Y169.039 E61.60524
G1 X250.726 Y169.453 E61.62591
G1 X250.561 Y170.252 E61.66662
G1 X250.240 Y171.002 E61.70732
G1 X249.778 Y171.665 E61.74763
G1 X249.187 Y172.226 E61.78829
G1 X248.493 Y172.659 E61.82910
G1 X247.737 Y172.940 E61.86934
G1 X246.924 Y173.064 E61.91037
G1 X53.274 Y173.068 E71.57160
G1 X52.670 Y173.023 E71.60182
G1 X51.876 Y172.817 E71.64274
G1 X51.143 Y172.457 E71.68349
G1 X50.505 Y171.964 E71.72371
G1 X49.974 Y171.345 E71.76440
G1 X49.579 Y170.635 E71.80494
G1 X49.336 Y169.858 E71.84555
G1 X49.252 Y169.039 E71.88663
G1 X49.253 Y130.959 E73.78644
G1 X49.336 Y130.141 E73.82746
G1 X49.579 Y129.364 E73.86808
G1 X49.974 Y128.654 E73.90862
G1 X50.505 Y128.035 E73.94930
G1 X51.143 Y127.542 E73.98953
G1 X51.876 Y127.182 E74.03027
G0 F9000 X52.149 Y127.668
;TYPE:SKIN
G1 F1800 X97.007 Y172.526 E77.19525
G0 F9000 X97.572 Y172.526
G1 F1800 X52.598 Y127.552 E80.36840
G0 F9000 X53.096 Y127.484
G1 F1800 X98.138 Y172.526 E83.54636
G0 F9000 X98.704 Y172.526
G1 F1800 X53.648 Y127.470 E86.72530
G0 F9000 X54.213 Y127.470
G1 F1800 X99.270 Y172.526 E89.90428
G0 F9000 X99.835 Y172.526
G1 F1800 X54.779 Y127.470 E93.08323
G0 F9000 X55.345 Y127.470
G1 F1800 X100.401 Y172.526 E96.26217
G0 F9000 X100.967 Y172.526
G1 F1800 X55.910 Y127.470 E99.44115
G0 F9000 X56.476 Y127.470
G1 F1800 X101.532 Y172.526 E102.62010
G0 F9000 X102.097 Y172.525
G1 F1800 X57.042 Y127.470 E105.79897
G0 F9000 X57.607 Y127.470
G1 F1800 X102.663 Y172.525 E108.97788
G0 F9000 X103.229 Y172.525
G1 F1800 X58.173 Y127.470 E112.15679
G0 F9000 X58.739 Y127.470
G1 F1800 X103.794 Y172.525 E115.33566
G0 F9000 X104.360 Y172.525
G1 F1800 X59.305 Y127.470 E118.51453
G0 F9000 X59.870 Y127.470
G1 F1800 X104.926 Y172.525 E121.69344
G0 F9000 X105.491 Y172.525
G1 F1800 X60.436 Y127.470 E124.87232
G0 F9000 X61.002 Y127.470
G1 F1800 X106.057 Y172.525 E128.05119
G0 F9000 X106.623 Y172.525
G1 F1800 X61.567 Y127.470 E131.23010
G0 F9000 X62.133 Y127.470
G1 F1800 X107.188 Y172.525 E134.40897
G0 F9000 X107.754 Y172.525
G1 F1800 X62.699 Y127.470 E137.58785
G0 F9000 X63.264 Y127.470
G1 F1800 X108.320 Y172.525 E140.76676
G0 F9000 X108.885 Y172.525
G1 F1800 X63.830 Y127.470 E143.94563
G0 F9000 X64.396 Y127.470
G1 F1800 X109.451 Y172.525 E147.12450
G0 F9000 X110.017 Y172.525
G1 F1800 X64.961 Y127.470 E150.30341
G0 F9000 X65.527 Y127.470
G1 F1800 X110.583 Y172.525 E153.48232
G0 F9000 X111.148 Y172.525
G1 F1800 X66.093 Y127.470 E156.66119
G0 F9000 X66.658 Y127.470
G1 F1800 X111.714 Y172.525 E159.84010
G0 F9000 X112.280 Y172.525
G1 F1800 X67.224 Y127.470 E163.01901
G0 F9000 X67.790 Y127.470
G1 F1800 X112.845 Y172.525 E166.19789
G0 F9000 X113.411 Y172.525
G1 F1800 X68.356 Y127.470 E169.37676
G0 F9000 X68.921 Y127.470
G1 F1800 X113.977 Y172.525 E172.55567
G0 F9000 X114.542 Y172.525
G1 F1800 X69.487 Y127.470 E175.73454
G0 F9000 X70.053 Y127.470
G1 F1800 X115.108 Y172.525 E178.91341
G0 F9000 X115.674 Y172.525
G1 F1800 X70.618 Y127.470 E182.09232
G0 F9000 X71.184 Y127.470
G1 F1800 X116.239 Y172.525 E185.27120
G0 F9000 X116.805 Y172.525
G1 F1800 X71.750 Y127.470 E188.45007
G0 F9000 X72.315 Y127.470
G1 F1800 X117.371 Y172.525 E191.62898
G0 F9000 X117.936 Y172.525
G1 F1800 X72.881 Y127.470 E194.80785
G0 F9000 X73.447 Y127.470
G1 F1800 X118.502 Y172.525 E197.98673
G0 F9000 X119.068 Y172.525
G1 F1800 X74.012 Y127.470 E201.16564
G0 F9000 X74.578 Y127.470
G1 F1800 X119.633 Y172.525 E204.34451
G0 F9000 X120.199 Y172.525
G1 F1800 X75.144 Y127.470 E207.52338
G0 F9000 X75.709 Y127.470
G1 F1800 X120.765 Y172.525 E210.70229
G0 F9000 X121.331 Y172.525
G1 F1800 X76.275 Y127.470 E213.88120
G0 F9000 X76.841 Y127.470
G1 F1800 X121.896 Y172.525 E217.06007
G0 F9000 X122.462 Y172.525
G1 F1800 X77.406 Y127.470 E220.23898
G0 F9000 X77.972 Y127.470
G1 F1800 X123.028 Y172.525 E223.41789
G0 F9000 X123.593 Y172.525
G1 F1800 X78.538 Y127.470 E226.59677
G0 F9000 X79.104 Y127.470
G1 F1800 X124.159 Y172.525 E229.77564
G0 F9000 X124.725 Y172.525
G1 F1800 X79.669 Y127.470 E232.95455
G0 F9000 X80.235 Y127.470
G1 F1800 X125.290 Y172.525 E236.13342
G0 F9000 X125.856 Y172.525
G1 F1800 X80.801 Y127.470 E239.31230
G0 F9000 X81.366 Y127.470
G1 F1800 X126.422 Y172.525 E242.49120
G0 F9000 X126.987 Y172.525
G1 F1800 X81.932 Y127.470 E245.67008
G0 F9000 X82.498 Y127.470
G1 F1800 X127.553 Y172.525 E248.84895
G0 F9000 X128.119 Y172.525
G1 F1800 X83.063 Y127.470 E252.02786
G0 F9000 X83.629 Y127.470
G1 F1800 X128.684 Y172.525 E255.20673
G0 F9000 X129.250 Y172.525
G1 F1800 X84.195 Y127.470 E258.38561
G0 F9000 X84.760 Y127.470
G1 F1800 X129.816 Y172.525 E261.56452
G0 F9000 X130.382 Y172.525
G1 F1800 X85.326 Y127.470 E264.74343
G0 F9000 X85.892 Y127.470
G1 F1800 X130.947 Y172.525 E267.92230
G0 F9000 X131.513 Y172.525
G1 F1800 X86.457 Y127.470 E271.10121
G0 F9000 X87.023 Y127.470
G1 F1800 X132.079 Y172.525 E274.28012
G0 F9000 X132.644 Y172.525
G1 F1800 X87.589 Y127.470 E277.45899
G0 F9000 X88.155 Y127.470
G1 F1800 X133.210 Y172.525 E280.63786
G0 F9000 X133.776 Y172.525
G1 F1800 X88.720 Y127.470 E283.81677
G0 F9000 X89.286 Y127.470
G1 F1800 X134.341 Y172.525 E286.99565
G0 F9000 X134.907 Y172.525
G1 F1800 X89.852 Y127.470 E290.17452
G0 F9000 X90.417 Y127.470
G1 F1800 X135.473 Y172.525 E293.35343
G0 F9000 X136.038 Y172.525
G1 F1800 X90.983 Y127.470 E296.53230
G0 F9000 X91.549 Y127.470
G1 F1800 X136.604 Y172.525 E299.71118
G0 F9000 X137.170 Y172.525
G1 F1800 X92.114 Y127.470 E302.89008
G0 F9000 X92.680 Y127.470
G1 F1800 X137.735 Y172.525 E306.06896
G0 F9000 X138.301 Y172.525
G1 F1800 X93.246 Y127.470 E309.24783
G0 F9000 X93.811 Y127.470
G1 F1800 X138.867 Y172.525 E312.42674
G0 F9000 X139.432 Y172.525
G1 F1800 X94.377 Y127.470 E315.60561
G0 F9000 X94.943 Y127.470
G1 F1800 X139.998 Y172.525 E318.78449
G0 F9000 X140.564 Y172.525
G1 F1800 X95.508 Y127.470 E321.96340
G0 F9000 X96.074 Y127.470
G1 F1800 X141.130 Y172.525 E325.14231
G0 F9000 X141.695 Y172.525
G1 F1800 X96.640 Y127.470 E328.32118
G0 F9000 X97.205 Y127.470
G1 F1800 X142.261 Y172.525 E331.50009
G0 F9000 X142.827 Y172.525
G1 F1800 X97.771 Y127.470 E334.67900
G0 F9000 X98.337 Y127.470
G1 F1800 X143.392 Y172.525 E337.85787
G0 F9000 X143.958 Y172.525
G1 F1800 X98.903 Y127.470 E341.03674
G0 F9000 X99.468 Y127.470
G1 F1800 X144.524 Y172.525 E344.21565
G0 F9000 X145.089 Y172.525
G1 F1800 X100.034 Y127.470 E347.39453
G0 F9000 X100.600 Y127.470
G1 F1800 X145.655 Y172.525 E350.57340
G0 F9000 X146.221 Y172.525
G1 F1800 X101.165 Y127.470 E353.75231
G0 F9000 X101.731 Y127.470
G1 F1800 X146.786 Y172.525 E356.93118
G0 F9000 X147.352 Y172.525
G1 F1800 X102.297 Y127.470 E360.11006
G0 F9000 X102.862 Y127.470
G1 F1800 X147.918 Y172.525 E363.28897
G0 F9000 X148.483 Y172.525
G1 F1800 X103.428 Y127.470 E366.46784
G0 F9000 X103.994 Y127.470
G1 F1800 X149.049 Y172.525 E369.64671
G0 F9000 X149.615 Y172.525
G1 F1800 X104.559 Y127.470 E372.82562
G0 F9000 X105.125 Y127.470
G1 F1800 X150.180 Y172.524 E376.00446
G0 F9000 X150.745 Y172.524
G1 F1800 X105.691 Y127.470 E379.18326
G0 F9000 X106.256 Y127.470
G1 F1800 X151.311 Y172.524 E382.36210
G0 F9000 X151.877 Y172.524
G1 F1800 X106.822 Y127.470 E385.54094
G0 F9000 X107.388 Y127.470
G1 F1800 X152.443 Y172.524 E388.71978
G0 F9000 X153.008 Y172.524
G1 F1800 X107.953 Y127.470 E391.89862
G0 F9000 X108.519 Y127.470
G1 F1800 X153.574 Y172.524 E395.07745
G0 F9000 X154.140 Y172.524
G1 F1800 X109.085 Y127.470 E398.25629
G0 F9000 X109.651 Y127.470
G1 F1800 X154.705 Y172.524 E401.43510
G0 F9000 X155.271 Y172.524
G1 F1800 X110.216 Y127.470 E404.61393
G0 F9000 X110.782 Y127.470
G1 F1800 X155.837 Y172.524 E407.79277
G0 F9000 X156.402 Y172.524
G1 F1800 X111.348 Y127.470 E410.97158
G0 F9000 X111.913 Y127.470
G1 F1800 X156.968 Y172.524 E414.15041
G0 F9000 X157.534 Y172.524
G1 F1800 X112.479 Y127.470 E417.32925
G0 F9000 X113.045 Y127.470
G1 F1800 X158.099 Y172.524 E420.50806
G0 F9000 X158.665 Y172.524
G1 F1800 X113.610 Y127.470 E423.68689
G0 F9000 X114.176 Y127.470
G1 F1800 X159.231 Y172.524 E426.86573
G0 F9000 X159.796 Y172.524
G1 F1800 X114.742 Y127.470 E430.04453
G0 F9000 X115.307 Y127.470
G1 F1800 X160.362 Y172.524 E433.22337
G0 F9000 X160.928 Y172.524
G1 F1800 X115.873 Y127.470 E436.40221
G0 F9000 X116.439 Y127.470
G1 F1800 X161.493 Y172.524 E439.58101
G0 F9000 X162.059 Y172.524
G1 F1800 X117.004 Y127.470 E442.75985
G0 F9000 X117.570 Y127.470
G1 F1800 X162.625 Y172.524 E445.93869
G0 F9000 X163.191 Y172.524
G1 F1800 X118.136 Y127.470 E449.11753
G0 F9000 X118.702 Y127.470
G1 F1800 X163.756 Y172.524 E452.29633
G0 F9000 X164.322 Y172.524
G1 F1800 X119.267 Y127.470 E455.47517
G0 F9000 X119.833 Y127.470
G1 F1800 X164.888 Y172.524 E458.65401
G0 F9000 X165.453 Y172.524
G1 F1800 X120.399 Y127.470 E461.83281
G0 F9000 X120.964 Y127.470
G1 F1800 X166.019 Y172.524 E465.01165
G0 F9000 X166.585 Y172.524
G1 F1800 X121.530 Y127.470 E468.19049
G0 F9000 X122.096 Y127.470
G1 F1800 X167.150 Y172.524 E471.36929
G0 F9000 X167.716 Y172.524
G1 F1800 X122.661 Y127.470 E474.54813
G0 F9000 X123.227 Y127.470
G1 F1800 X168.282 Y172.524 E477.72697
G0 F9000 X168.847 Y172.524
G1 F1800 X123.793 Y127.470 E480.90577
G0 F9000 X124.358 Y127.470
G1 F1800 X169.413 Y172.524 E484.08461
G0 F9000 X169.979 Y172.524
G1 F1800 X124.924 Y127.470 E487.26345
G0 F9000 X125.490 Y127.470
G1 F1800 X170.544 Y172.524 E490.44225
G0 F9000 X171.110 Y172.524
G1 F1800 X126.055 Y127.470 E493.62109
G0 F9000 X126.621 Y127.470
G1 F1800 X171.676 Y172.524 E496.79993
G0 F9000 X172.242 Y172.524
G1 F1800 X127.187 Y127.470 E499.97877
G0 F9000 X127.752 Y127.470
G1 F1800 X172.807 Y172.524 E503.15760
G0 F9000 X173.373 Y172.524
G1 F1800 X128.318 Y127.470 E506.33644
G0 F9000 X128.884 Y127.470
G1 F1800 X173.939 Y172.524 E509.51528
G0 F9000 X174.504 Y172.524
G1 F1800 X129.450 Y127.470 E512.69408
G0 F9000 X130.015 Y127.470
G1 F1800 X175.070 Y172.524 E515.87292
G0 F9000 X175.636 Y172.524
G1 F1800 X130.581 Y127.470 E519.05176
G0 F9000 X131.147 Y127.470
G1 F1800 X176.201 Y172.524 E522.23056
G0 F9000 X176.767 Y172.524
G1 F1800 X131.712 Y127.470 E525.40940
G0 F9000 X132.278 Y127.470
G1 F1800 X177.333 Y172.524 E528.58824
G0 F9000 X177.898 Y172.524
G1 F1800 X132.844 Y127.470 E531.76704
G0 F9000 X133.409 Y127.470
G1 F1800 X178.464 Y172.524 E534.94588
G0 F9000 X179.030 Y172.524
G1 F1800 X133.975 Y127.470 E538.12472
G0 F9000 X134.541 Y127.470
G1 F1800 X179.595 Y172.524 E541.30352
G0 F9000 X180.161 Y172.524
G1 F1800 X135.106 Y127.470 E544.48236
G0 F9000 X135.672 Y127.470
G1 F1800 X180.727 Y172.524 E547.66120
G0 F9000 X181.292 Y172.524
G1 F1800 X136.238 Y127.470 E550.84000
G0 F9000 X136.803 Y127.470
G1 F1800 X181.858 Y172.524 E554.01884
G0 F9000 X182.424 Y172.524
G1 F1800 X137.369 Y127.470 E557.19768
G0 F9000 X137.935 Y127.470
G1 F1800 X182.990 Y172.524 E560.37652
G0 F9000 X183.555 Y172.524
G1 F1800 X138.501 Y127.470 E563.55532
G0 F9000 X139.066 Y127.470
G1 F1800 X184.121 Y172.524 E566.73416
G0 F9000 X184.687 Y172.524
G1 F1800 X139.632 Y127.470 E569.91300
G0 F9000 X140.198 Y127.470
G1 F1800 X185.252 Y172.524 E573.09180
G0 F9000 X185.818 Y172.524
G1 F1800 X140.763 Y127.470 E576.27064
G0 F9000 X141.329 Y127.470
G1 F1800 X186.384 Y172.524 E579.44948
G0 F9000 X186.949 Y172.524
G1 F1800 X141.895 Y127.470 E582.62828
G0 F9000 X142.460 Y127.470
G1 F1800 X187.515 Y172.524 E585.80712
G0 F9000 X188.081 Y172.524
G1 F1800 X143.026 Y127.470 E588.98596
G0 F9000 X143.592 Y127.470
G1 F1800 X188.646 Y172.524 E592.16476
G0 F9000 X189.212 Y172.524
G1 F1800 X144.157 Y127.470 E595.34360
G0 F9000 X144.723 Y127.470
G1 F1800 X189.778 Y172.524 E598.52244
G0 F9000 X190.343 Y172.524
G1 F1800 X145.289 Y127.470 E601.70124
G0 F9000 X145.854 Y127.470
G1 F1800 X190.909 Y172.524 E604.88008
G0 F9000 X191.475 Y172.524
G1 F1800 X146.420 Y127.470 E608.05892
G0 F9000 X146.986 Y127.470
G1 F1800 X192.041 Y172.524 E611.23775
G0 F9000 X192.606 Y172.524
G1 F1800 X147.551 Y127.470 E614.41659
G0 F9000 X148.117 Y127.470
G1 F1800 X193.172 Y172.524 E617.59543
G0 F9000 X193.738 Y172.524
G1 F1800 X148.683 Y127.470 E620.77427
G0 F9000 X149.249 Y127.470
G1 F1800 X194.303 Y172.524 E623.95307
G0 F9000 X194.869 Y172.524
G1 F1800 X149.814 Y127.470 E627.13191
G0 F9000 X150.381 Y127.470
G1 F1800 X195.435 Y172.524 E630.31071
G0 F9000 X196.000 Y172.524
G1 F1800 X150.946 Y127.470 E633.48952
G0 F9000 X151.512 Y127.470
G1 F1800 X196.566 Y172.524 E636.66832
G0 F9000 X197.132 Y172.524
G1 F1800 X152.078 Y127.470 E639.84712
G0 F9000 X152.643 Y127.470
G1 F1800 X197.697 Y172.524 E643.02593
G0 F9000 X198.263 Y172.524
G1 F1800 X153.209 Y127.470 E646.20473
G0 F9000 X153.775 Y127.470
G1 F1800 X198.828 Y172.524 E649.38350
G0 F9000 X199.394 Y172.524
G1 F1800 X154.340 Y127.470 E652.56230
G0 F9000 X154.906 Y127.470
G1 F1800 X199.959 Y172.524 E655.74107
G0 F9000 X200.525 Y172.524
G1 F1800 X155.472 Y127.470 E658.91984
G0 F9000 X156.037 Y127.470
G1 F1800 X201.091 Y172.524 E662.09864
