;Generated with Cura_SteamEngine 15.01
; Default start code
G28 ; Home extruder
G1 Z15 F100
M107 ; Turn off fan
G90 ; Absolute positioning
M82 ; Extruder in absolute mode
M190 S50
; Activate all used extruder
M104 T0 S210
G92 E0 ; Reset extruder position
; Wait for all used extruders to reach temperature
M109 T0 S210
;Layer count: 80
;LAYER:0
M107
G0 F9000 X49.787 Y92.627 Z0.300
;TYPE:SKIRT
G1 F1800 X51.283 Y92.033 E0.08030
G1 X52.781 Y91.786 E0.15605
G1 X65.754 Y91.780 E0.80327
G1 X246.854 Y91.781 E9.83839
G1 X247.971 Y91.869 E9.89429
G1 X249.481 Y92.290 E9.97250
G1 X250.901 Y93.042 E10.05266
G1 X252.128 Y94.084 E10.13297
G1 X253.101 Y95.364 E10.21319
G1 X253.776 Y96.825 E10.29348
G1 X254.121 Y98.392 E10.37353
G1 X254.147 Y111.215 E11.01327
G1 X254.146 Y200.883 E15.48683
G1 X254.104 Y201.687 E15.52700
G1 X253.776 Y203.174 E15.60297
G1 X253.101 Y204.635 E15.68326
G1 X252.128 Y205.915 E15.76347
G1 X250.901 Y206.957 E15.84378
G1 X249.481 Y207.709 E15.92395
G1 X247.973 Y208.129 E16.00205
G1 X246.856 Y208.219 E16.05796
G1 X53.237 Y208.218 E25.71765
G1 X52.747 Y208.207 E25.74210
G1 X51.283 Y207.966 E25.81612
G1 X49.787 Y207.372 E25.89643
G1 X48.456 Y206.468 E25.97670
G1 X47.351 Y205.301 E26.05688
G1 X46.522 Y203.924 E26.13707
G1 X46.008 Y202.400 E26.21731
G1 X45.852 Y200.973 E26.28892
G1 X45.853 Y99.027 E31.37503
G1 X46.007 Y97.600 E31.44664
G1 X46.522 Y96.075 E31.52694
G1 X47.351 Y94.698 E31.60713
G1 X48.456 Y93.531 E31.68731
G1 X49.787 Y92.627 E31.76758
G1 F2400 E27.76758
G0 F9000 X51.574 Y96.006
;TYPE:WALL-INNER
G1 F2400 E31.76758
G1 F1800 X52.307 Y95.715 E31.80693
G1 X53.091 Y95.586 E31.84657
G1 X246.705 Y95.581 E41.50601
G1 X247.304 Y95.628 E41.53599
G1 X248.066 Y95.841 E41.57546
G1 X248.758 Y96.207 E41.61451
G1 X249.351 Y96.711 E41.65334
G1 X249.825 Y97.334 E41.69240
G1 X250.154 Y98.047 E41.73157
G1 X250.322 Y98.809 E41.77050
G1 X250.347 Y111.218 E42.38959
G1 X250.346 Y200.787 E46.85821
G1 X250.326 Y201.174 E46.87754
G1 X250.154 Y201.952 E46.91729
G1 X249.825 Y202.665 E46.95647
G1 X249.351 Y203.288 E46.99552
G1 X248.758 Y203.792 E47.03435
G1 X248.066 Y204.158 E47.07340
G1 X247.304 Y204.371 E47.11288
G1 X246.704 Y204.419 E47.14291
G1 X53.285 Y204.418 E56.79262
G1 X53.097 Y204.414 E56.80200
G1 X52.307 Y204.284 E56.84195
G1 X51.574 Y203.993 E56.88129
G1 X50.935 Y203.559 E56.91983
G1 X50.391 Y202.985 E56.95928
G1 X49.990 Y202.318 E56.99811
G1 X49.740 Y201.577 E57.03713
G1 X49.652 Y200.768 E57.07773
G1 X49.653 Y99.235 E62.14323
G1 X49.741 Y98.418 E62.18422
G1 X49.990 Y97.681 E62.22304
G1 X50.391 Y97.014 E62.26186
G1 X50.935 Y96.440 E62.30132
G1 X51.574 Y96.006 E62.33986
G0 F9000 X51.386 Y95.650
;TYPE:WALL-OUTER
G1 F1800 X52.199 Y95.327 E62.38350
G1 X53.057 Y95.186 E62.42688
G1 X246.724 Y95.181 E72.08897
G1 X247.371 Y95.232 E72.12134
G1 X248.214 Y95.467 E72.16501
G1 X248.986 Y95.876 E72.20859
G1 X249.644 Y96.435 E72.25167
G1 X250.169 Y97.125 E72.29492
G1 X250.536 Y97.920 E72.33861
G1 X250.722 Y98.763 E72.38168
G1 X250.746 Y200.789 E77.47177
G1 X250.723 Y201.233 E77.49396
G1 X250.536 Y202.079 E77.53718
G1 X250.169 Y202.874 E77.58087
G1 X249.644 Y203.564 E77.62412
G1 X248.986 Y204.123 E77.66720
G1 X248.214 Y204.532 E77.71078
G1 X247.371 Y204.767 E77.75444
G1 X246.723 Y204.819 E77.78688
G1 X53.276 Y204.818 E87.43799
G1 X53.058 Y204.813 E87.44887
G1 X52.199 Y204.672 E87.49230
G1 X51.386 Y204.349 E87.53594
G1 X50.674 Y203.865 E87.57889
G1 X50.072 Y203.229 E87.62258
G1 X49.625 Y202.487 E87.66580
G1 X49.348 Y201.667 E87.70898
G1 X49.252 Y200.786 E87.75319
G1 X49.253 Y99.211 E92.82079
G1 X49.348 Y98.333 E92.86485
G1 X49.625 Y97.512 E92.90808
G1 X50.072 Y96.770 E92.95130
G1 X50.674 Y96.134 E92.99499
G1 X51.386 Y95.650 E93.03794
G0 F9000 X51.700 Y96.106
;TYPE:SKIN
G1 F1800 X159.871 Y204.278 E100.67002
G0 F9000 X159.306 Y204.278
G1 F1800 X51.352 Y96.324 E108.28676
G0 F9000 X51.017 Y96.555
G1 F1800 X158.740 Y204.278 E115.88720
G0 F9000 X158.174 Y204.278
G1 F1800 X50.742 Y96.846 E123.46711
G0 F9000 X50.475 Y97.144
G1 F1800 X157.609 Y204.278 E131.02599
G0 F9000 X157.043 Y204.278
G1 F1800 X50.262 Y97.497 E138.55997
G0 F9000 X50.071 Y97.872
G1 F1800 X156.477 Y204.278 E146.06748
G0 F9000 X155.912 Y204.278
G1 F1800 X49.928 Y98.294 E153.54523
G0 F9000 X49.843 Y98.775
G1 F1800 X155.346 Y204.278 E160.98903
G0 F9000 X154.780 Y204.278
G1 F1800 X49.792 Y99.289 E168.39654
G0 F9000 X49.792 Y99.855
G1 F1800 X154.215 Y204.278 E175.76415
G0 F9000 X153.649 Y204.278
G1 F1800 X49.792 Y100.421 E183.09182
G0 F9000 X49.792 Y100.986
G1 F1800 X153.083 Y204.278 E190.37959
G0 F9000 X152.517 Y204.278
G1 F1800 X49.792 Y101.552 E197.62743
G0 F9000 X49.792 Y102.118
G1 F1800 X151.952 Y204.278 E204.83537
G0 F9000 X151.386 Y204.278
G1 F1800 X49.792 Y102.683 E212.00341
G0 F9000 X49.792 Y103.249
G1 F1800 X150.820 Y204.278 E219.13152
G0 F9000 X150.255 Y204.278
G1 F1800 X49.792 Y103.815 E226.21972
G0 F9000 X49.792 Y104.380
G1 F1800 X149.688 Y204.277 E233.26796
G0 F9000 X149.123 Y204.277
G1 F1800 X49.792 Y104.946 E240.27630
G0 F9000 X49.792 Y105.512
G1 F1800 X148.557 Y204.277 E247.24470
G0 F9000 X147.991 Y204.277
G1 F1800 X49.792 Y106.078 E254.17317
G0 F9000 X49.792 Y106.643
G1 F1800 X147.426 Y204.277 E261.06178
G0 F9000 X146.860 Y204.277
G1 F1800 X49.792 Y107.209 E267.91045
G0 F9000 X49.792 Y107.775
G1 F1800 X146.294 Y204.277 E274.71919
G0 F9000 X145.729 Y204.277
G1 F1800 X49.792 Y108.340 E281.48806
G0 F9000 X49.792 Y108.906
G1 F1800 X145.163 Y204.277 E288.21700
G0 F9000 X144.597 Y204.277
G1 F1800 X49.792 Y109.472 E294.90601
G0 F9000 X49.792 Y110.037
G1 F1800 X144.031 Y204.277 E301.55511
G0 F9000 X143.466 Y204.277
G1 F1800 X49.792 Y110.603 E308.16432
G0 F9000 X49.792 Y111.169
G1 F1800 X142.900 Y204.277 E314.73359
G0 F9000 X142.334 Y204.277
G1 F1800 X49.792 Y111.734 E321.26296
G0 F9000 X49.792 Y112.300
G1 F1800 X141.769 Y204.277 E327.75244
G0 F9000 X141.203 Y204.277
G1 F1800 X49.792 Y112.866 E334.20198
G0 F9000 X49.792 Y113.431
G1 F1800 X140.637 Y204.277 E340.61162
G0 F9000 X140.072 Y204.277
G1 F1800 X49.792 Y113.997 E346.98136
G0 F9000 X49.792 Y114.563
G1 F1800 X139.506 Y204.277 E353.31117
G0 F9000 X138.940 Y204.277
G1 F1800 X49.792 Y115.129 E359.60104
G0 F9000 X49.792 Y115.694
G1 F1800 X138.375 Y204.277 E365.85105
G0 F9000 X137.809 Y204.277
G1 F1800 X49.792 Y116.260 E372.06113
G0 F9000 X49.792 Y116.826
G1 F1800 X137.243 Y204.277 E378.23127
G0 F9000 X136.678 Y204.277
G1 F1800 X49.792 Y117.391 E384.36154
G0 F9000 X49.792 Y117.957
G1 F1800 X136.112 Y204.277 E390.45188
G0 F9000 X135.546 Y204.277
G1 F1800 X49.792 Y118.523 E396.50229
G0 F9000 X49.792 Y119.088
G1 F1800 X134.981 Y204.277 E402.51284
G0 F9000 X134.415 Y204.277
G1 F1800 X49.792 Y119.654 E408.48345
G0 F9000 X49.792 Y120.220
G1 F1800 X133.849 Y204.277 E414.41412
G0 F9000 X133.283 Y204.277
G1 F1800 X49.792 Y120.785 E420.30490
G0 F9000 X49.792 Y121.351
G1 F1800 X132.718 Y204.277 E426.15577
G0 F9000 X132.152 Y204.277
G1 F1800 X49.792 Y121.917 E431.96672
G0 F9000 X49.792 Y122.482
G1 F1800 X131.586 Y204.277 E437.73776
G0 F9000 X131.021 Y204.277
G1 F1800 X49.792 Y123.048 E443.46891
G0 F9000 X49.792 Y123.614
G1 F1800 X130.455 Y204.277 E449.16012
G0 F9000 X129.889 Y204.277
G1 F1800 X49.792 Y124.179 E454.81143
G0 F9000 X49.792 Y124.745
G1 F1800 X129.324 Y204.277 E460.42284
G0 F9000 X128.758 Y204.277
G1 F1800 X49.792 Y125.311 E465.99432
G0 F9000 X49.792 Y125.877
G1 F1800 X128.192 Y204.277 E471.52586
G0 F9000 X127.627 Y204.277
G1 F1800 X49.792 Y126.442 E477.01754
G0 F9000 X49.792 Y127.008
G1 F1800 X127.061 Y204.277 E482.46929
G0 F9000 X126.495 Y204.277
G1 F1800 X49.792 Y127.574 E487.88110
G0 F9000 X49.792 Y128.139
G1 F1800 X125.930 Y204.277 E493.25304
G0 F9000 X125.364 Y204.277
G1 F1800 X49.792 Y128.705 E498.58506
G0 F9000 X49.792 Y129.271
G1 F1800 X124.798 Y204.277 E503.87714
G0 F9000 X124.233 Y204.277
G1 F1800 X49.792 Y129.836 E509.12935
G0 F9000 X49.792 Y130.402
G1 F1800 X123.667 Y204.277 E514.34163
G0 F9000 X123.101 Y204.277
G1 F1800 X49.792 Y130.968 E519.51398
G0 F9000 X49.792 Y131.533
G1 F1800 X122.535 Y204.277 E524.64642
G0 F9000 X121.970 Y204.277
G1 F1800 X49.792 Y132.099 E529.73897
G0 F9000 X49.792 Y132.665
G1 F1800 X121.404 Y204.277 E534.79158
G0 F9000 X120.838 Y204.277
G1 F1800 X49.792 Y133.230 E539.80430
G0 F9000 X49.792 Y133.796
G1 F1800 X120.273 Y204.277 E544.77711
G0 F9000 X119.707 Y204.277
G1 F1800 X49.792 Y134.362 E549.70999
G0 F9000 X49.792 Y134.927
G1 F1800 X119.141 Y204.277 E554.60298
G0 F9000 X118.576 Y204.277
G1 F1800 X49.792 Y135.493 E559.45606
G0 F9000 X49.792 Y136.059
G1 F1800 X118.010 Y204.277 E564.26921
G0 F9000 X117.444 Y204.277
G1 F1800 X49.792 Y136.625 E569.04242
G0 F9000 X49.792 Y137.190
G1 F1800 X116.879 Y204.277 E573.77577
G0 F9000 X116.313 Y204.277
G1 F1800 X49.792 Y137.756 E578.46919
G0 F9000 X49.792 Y138.322
G1 F1800 X115.747 Y204.277 E583.12267
G0 F9000 X115.182 Y204.277
G1 F1800 X49.792 Y138.887 E587.73629
G0 F9000 X49.792 Y139.453
G1 F1800 X114.616 Y204.277 E592.30997
G0 F9000 X114.050 Y204.277
G1 F1800 X49.792 Y140.019 E596.84372
G0 F9000 X49.792 Y140.584
G1 F1800 X113.484 Y204.277 E601.33757
G0 F9000 X112.919 Y204.277
G1 F1800 X49.792 Y141.150 E605.79152
G0 F9000 X49.792 Y141.716
G1 F1800 X112.353 Y204.277 E610.20554
G0 F9000 X111.787 Y204.277
G1 F1800 X49.792 Y142.281 E614.57965
G0 F9000 X49.792 Y142.847
G1 F1800 X111.222 Y204.277 E618.91387
G0 F9000 X110.656 Y204.277
G1 F1800 X49.792 Y143.413 E623.20816
G0 F9000 X49.792 Y143.978
G1 F1800 X110.090 Y204.277 E627.46254
G0 F9000 X109.525 Y204.277
G1 F1800 X49.792 Y144.544 E631.67703
G0 F9000 X49.792 Y145.110
G1 F1800 X108.959 Y204.277 E635.85158
G0 F9000 X108.393 Y204.277
G1 F1800 X49.792 Y145.676 E639.98619
G0 F9000 X49.792 Y146.241
G1 F1800 X107.828 Y204.277 E644.08095
G0 F9000 X107.262 Y204.277
G1 F1800 X49.792 Y146.807 E648.13577
G0 F9000 X49.792 Y147.373
G1 F1800 X106.696 Y204.277 E652.15065
G0 F9000 X106.131 Y204.277
G1 F1800 X49.792 Y147.938 E656.12567
G0 F9000 X49.792 Y148.504
G1 F1800 X105.565 Y204.277 E660.06076
G0 F9000 X104.999 Y204.277
G1 F1800 X49.792 Y149.070 E663.95591
G0 F9000 X49.792 Y149.635
G1 F1800 X104.434 Y204.277 E667.81120
G0 F9000 X103.868 Y204.277
G1 F1800 X49.791 Y150.200 E671.62662
G0 F9000 X49.791 Y150.766
G1 F1800 X103.302 Y204.277 E675.40211
G0 F9000 X102.736 Y204.277
G1 F1800 X49.791 Y151.332 E679.13767
G0 F9000 X49.791 Y151.897
G1 F1800 X102.171 Y204.277 E682.83336
G0 F9000 X101.605 Y204.277
G1 F1800 X49.791 Y152.463 E686.48912
G0 F9000 X49.791 Y153.029
G1 F1800 X101.039 Y204.277 E690.10494
G0 F9000 X100.474 Y204.277
G1 F1800 X49.791 Y153.594 E693.68090
G0 F9000 X49.791 Y154.160
G1 F1800 X99.908 Y204.277 E697.21693
G0 F9000 X99.342 Y204.277
G1 F1800 X49.791 Y154.726 E700.71302
G0 F9000 X49.791 Y155.291
G1 F1800 X98.777 Y204.277 E704.16924
G0 F9000 X98.211 Y204.277
G1 F1800 X49.791 Y155.857 E707.58554
G0 F9000 X49.791 Y156.423
G1 F1800 X97.645 Y204.277 E710.96189
G0 F9000 X97.080 Y204.277
G1 F1800 X49.791 Y156.989 E714.29835
G0 F9000 X49.791 Y157.554
G1 F1800 X96.514 Y204.277 E717.59491
G0 F9000 X95.948 Y204.277
G1 F1800 X49.791 Y158.120 E720.85154
G0 F9000 X49.791 Y158.686
G1 F1800 X95.383 Y204.277 E724.06827
G0 F9000 X94.817 Y204.277
G1 F1800 X49.791 Y159.251 E727.24509
G0 F9000 X49.791 Y159.817
G1 F1800 X94.251 Y204.277 E730.38199
G0 F9000 X93.685 Y204.277
G1 F1800 X49.791 Y160.383 E733.47894
G0 F9000 X49.791 Y160.948
G1 F1800 X93.120 Y204.277 E736.53604
G0 F9000 X92.554 Y204.277
G1 F1800 X49.791 Y161.514 E739.55320
G0 F9000 X49.791 Y162.080
G1 F1800 X91.988 Y204.277 E742.53043
G0 F9000 X91.423 Y204.277
G1 F1800 X49.791 Y162.645 E745.46779
G0 F9000 X49.791 Y163.211
G1 F1800 X90.857 Y204.277 E748.36522
G0 F9000 X90.291 Y204.277
G1 F1800 X49.791 Y163.777 E751.22271
G0 F9000 X49.791 Y164.342
G1 F1800 X89.726 Y204.277 E754.04034
G0 F9000 X89.160 Y204.277
G1 F1800 X49.791 Y164.908 E756.81804
G0 F9000 X49.791 Y165.474
G1 F1800 X88.594 Y204.277 E759.55580
G0 F9000 X88.029 Y204.277
G1 F1800 X49.791 Y166.039 E762.25370
G0 F9000 X49.791 Y166.605
G1 F1800 X87.463 Y204.277 E764.91166
G0 F9000 X86.897 Y204.277
G1 F1800 X49.791 Y167.171 E767.52969
G0 F9000 X49.791 Y167.737
G1 F1800 X86.332 Y204.277 E770.10782
G0 F9000 X85.766 Y204.277
G1 F1800 X49.791 Y168.302 E772.64605
G0 F9000 X49.791 Y168.868
G1 F1800 X85.200 Y204.277 E775.14434
G0 F9000 X84.635 Y204.277
G1 F1800 X49.791 Y169.434 E777.60274
G0 F9000 X49.791 Y169.999
G1 F1800 X84.069 Y204.277 E780.02124
G0 F9000 X83.503 Y204.277
G1 F1800 X49.791 Y170.565 E782.39980
G0 F9000 X49.791 Y171.131
G1 F1800 X82.937 Y204.277 E784.73843
G0 F9000 X82.372 Y204.277
G1 F1800 X49.791 Y171.696 E787.03720
G0 F9000 X49.791 Y172.262
G1 F1800 X81.806 Y204.277 E789.29603
G0 F9000 X81.240 Y204.277
G1 F1800 X49.791 Y172.828 E791.51492
G0 F9000 X49.791 Y173.393
G1 F1800 X80.675 Y204.277 E793.69396
G0 F9000 X80.109 Y204.277
G1 F1800 X49.791 Y173.959 E795.83306
G0 F9000 X49.791 Y174.525
G1 F1800 X79.543 Y204.277 E797.93222
G0 F9000 X78.978 Y204.277
G1 F1800 X49.791 Y175.090 E799.99152
G0 F9000 X49.791 Y175.656
G1 F1800 X78.412 Y204.277 E802.01089
G0 F9000 X77.846 Y204.277
G1 F1800 X49.791 Y176.222 E803.99032
G0 F9000 X49.791 Y176.788
G1 F1800 X77.281 Y204.277 E805.92985
G0 F9000 X76.715 Y204.277
G1 F1800 X49.791 Y177.353 E807.82949
G0 F9000 X49.791 Y177.919
G1 F1800 X76.149 Y204.277 E809.68918
G0 F9000 X75.584 Y204.277
G1 F1800 X49.791 Y178.485 E811.50898
G0 F9000 X49.791 Y179.050
G1 F1800 X75.018 Y204.277 E813.28889
G0 F9000 X74.452 Y204.277
G1 F1800 X49.791 Y179.616 E815.02885
G0 F9000 X49.791 Y180.182
G1 F1800 X73.887 Y204.277 E816.72892
G0 F9000 X73.321 Y204.277
G1 F1800 X49.791 Y180.747 E818.38909
G0 F9000 X49.791 Y181.313
G1 F1800 X72.755 Y204.277 E820.00932
G0 F9000 X72.189 Y204.277
G1 F1800 X49.791 Y181.879 E821.58962
G0 F9000 X49.791 Y182.444
G1 F1800 X71.624 Y204.277 E823.13006
G0 F9000 X71.058 Y204.277
G1 F1800 X49.791 Y183.010 E824.63056
G0 F9000 X49.791 Y183.576
G1 F1800 X70.492 Y204.277 E826.09113
G0 F9000 X69.927 Y204.277
G1 F1800 X49.791 Y184.141 E827.51183
G0 F9000 X49.791 Y184.707
G1 F1800 X69.361 Y204.277 E828.89260
G0 F9000 X68.795 Y204.277
G1 F1800 X49.791 Y185.273 E830.23344
G0 F9000 X49.791 Y185.838
G1 F1800 X68.230 Y204.277 E831.53441
G0 F9000 X67.664 Y204.277
G1 F1800 X49.791 Y186.404 E832.79544
G0 F9000 X49.791 Y186.970
G1 F1800 X67.098 Y204.277 E834.01655
G0 F9000 X66.533 Y204.277
G1 F1800 X49.791 Y187.536 E835.19775
G0 F9000 X49.791 Y188.101
G1 F1800 X65.967 Y204.277 E836.33905
G0 F9000 X65.401 Y204.277
G1 F1800 X49.791 Y188.667 E837.44042
G0 F9000 X49.791 Y189.233
G1 F1800 X64.836 Y204.277 E838.50189
G0 F9000 X64.270 Y204.277
G1 F1800 X49.791 Y189.798 E839.52347
G0 F9000 X49.791 Y190.364
G1 F1800 X63.704 Y204.277 E840.50510
G0 F9000 X63.138 Y204.277
G1 F1800 X49.791 Y190.930 E841.44681
G0 F9000 X49.791 Y191.495
G1 F1800 X62.573 Y204.277 E842.34864
G0 F9000 X62.007 Y204.277
G1 F1800 X49.791 Y192.061 E843.21055
G0 F9000 X49.791 Y192.627
G1 F1800 X61.441 Y204.277 E844.03252
G0 F9000 X60.876 Y204.277
G1 F1800 X49.791 Y193.192 E844.81463
G0 F9000 X49.791 Y193.758
G1 F1800 X60.310 Y204.277 E845.55680
G0 F9000 X59.744 Y204.277
G1 F1800 X49.791 Y194.324 E846.25904
G0 F9000 X49.791 Y194.889
G1 F1800 X59.179 Y204.277 E846.92141
G0 F9000 X58.613 Y204.277
G1 F1800 X49.791 Y195.455 E847.54385
G0 F9000 X49.791 Y196.021
G1 F1800 X58.047 Y204.277 E848.12636
G0 F9000 X57.482 Y204.277
G1 F1800 X49.791 Y196.586 E848.66900
G0 F9000 X49.791 Y197.152
G1 F1800 X56.916 Y204.277 E849.17171
G0 F9000 X56.350 Y204.277
G1 F1800 X49.791 Y197.718 E849.63448
G0 F9000 X49.791 Y198.284
G1 F1800 X55.785 Y204.277 E850.05735
G0 F9000 X55.219 Y204.277
G1 F1800 X49.791 Y198.849 E850.44033
G0 F9000 X49.791 Y199.415
G1 F1800 X54.653 Y204.277 E850.78337
G0 F9000 X54.088 Y204.277
G1 F1800 X49.791 Y199.981 E851.08651
G0 F9000 X49.791 Y200.546
G1 F1800 X53.522 Y204.277 E851.34975
G0 F9000 X52.921 Y204.242
G1 F1800 X49.834 Y201.155 E851.56755
G0 F9000 X49.988 Y201.875
G1 F1800 X52.205 Y204.092 E851.72398
G0 F9000 X52.105 Y95.945
G1 F1800 X160.437 Y204.278 E859.36742
G0 F9000 X161.003 Y204.278
G1 F1800 X52.542 Y95.817 E867.01993
G0 F9000 X53.028 Y95.737
