;Generated with Cura_SteamEngine 15.01
; Default start code
G28 ; Home extruder
G1 Z15 F100
M107 ; Turn off fan
G90 ; Absolute positioning
M82 ; Extruder in absolute mode
M190 S50
; Activate all used extruder
M104 T0 S210
G92 E0 ; Reset extruder position
; Wait for all used extruders to reach temperature
M109 T0 S210
;Layer count: 40
;LAYER:0
M107
G0 F9000 X124.692 Y124.691 Z0.300
;TYPE:SKIRT
G1 F1800 X125.810 Y123.678 E0.07527
G1 X127.294 Y122.332 E0.17522
G1 X128.506 Y121.434 E0.25048
G1 X130.116 Y120.240 E0.35048
G1 X131.408 Y119.466 E0.42562
G1 X133.128 Y118.434 E0.52569
G1 X134.494 Y117.789 E0.60106
G1 X136.303 Y116.933 E0.70090
G1 X137.723 Y116.426 E0.77613
G1 X137.723 Y116.425 E0.77618
G1 X139.609 Y115.750 E0.87611
G1 X141.073 Y115.384 E0.95140
G1 X143.017 Y114.897 E1.05138
G1 X144.512 Y114.675 E1.12679
G1 X146.491 Y114.380 E1.22661
G1 X147.997 Y114.308 E1.30183
G1 X149.999 Y114.208 E1.40184
G1 X153.507 Y114.382 E1.57707
G1 X155.489 Y114.675 E1.67702
G1 X156.981 Y114.898 E1.75229
G1 X158.925 Y115.383 E1.85225
G1 X160.389 Y115.751 E1.92756
G1 X162.274 Y116.424 E2.02742
G1 X163.696 Y116.934 E2.10278
G1 X165.506 Y117.789 E2.20265
G1 X166.871 Y118.436 E2.27802
G1 X168.588 Y119.464 E2.37786
G1 X169.883 Y120.241 E2.45320
G1 X171.491 Y121.433 E2.55306
G1 X172.705 Y122.334 E2.62849
G1 X174.189 Y123.678 E2.72838
G1 X175.307 Y124.693 E2.80371
G1 X176.652 Y126.175 E2.90356
G1 X177.666 Y127.295 E2.97893
G1 X179.758 Y130.116 E3.15415
G1 X181.563 Y133.128 E3.32934
G1 X182.420 Y134.938 E3.42925
G1 X183.065 Y136.304 E3.50461
G1 X183.740 Y138.188 E3.60446
G1 X184.248 Y139.610 E3.67979
G1 X184.735 Y141.552 E3.77968
G1 X185.101 Y143.019 E3.85511
G1 X185.617 Y146.490 E4.03018
G1 X185.717 Y148.492 E4.13019
G1 X185.790 Y150.001 E4.20556
G1 X185.618 Y153.508 E4.38074
G1 X185.396 Y155.002 E4.45609
G1 X185.102 Y156.981 E4.55591
G1 X184.736 Y158.446 E4.63124
G1 X184.249 Y160.390 E4.73123
G1 X183.066 Y163.696 E4.90640
G1 X181.564 Y166.873 E5.08173
G1 X180.789 Y168.163 E5.15681
G1 X179.759 Y169.884 E5.25687
G1 X178.858 Y171.097 E5.33226
G1 X177.667 Y172.705 E5.43209
G1 X176.652 Y173.824 E5.50746
G1 X175.307 Y175.308 E5.60738
G1 X174.189 Y176.321 E5.68265
G1 X172.705 Y177.667 E5.78260
G1 X171.493 Y178.565 E5.85786
G1 X171.490 Y178.567 E5.85804
G1 X169.883 Y179.759 E5.95786
G1 X168.591 Y180.533 E6.03300
G1 X166.871 Y181.565 E6.13307
G1 X165.505 Y182.210 E6.20844
G1 X163.696 Y183.066 E6.30828
G1 X162.276 Y183.573 E6.38351
G1 X162.276 Y183.574 E6.38356
G1 X160.390 Y184.249 E6.48349
G1 X158.926 Y184.615 E6.55878
G1 X156.982 Y185.102 E6.65877
G1 X155.487 Y185.324 E6.73417
G1 X153.510 Y185.618 E6.83389
G1 X151.507 Y185.717 E6.93394
G1 X149.999 Y185.790 E7.00926
G1 X148.000 Y185.692 E7.10911
G1 X146.492 Y185.617 E7.18444
G1 X144.510 Y185.324 E7.28440
G1 X143.018 Y185.101 E7.35966
G1 X141.074 Y184.616 E7.45962
G1 X139.610 Y184.248 E7.53493
G1 X137.725 Y183.575 E7.63479
G1 X136.303 Y183.065 E7.71016
G1 X134.493 Y182.210 E7.81002
G1 X133.128 Y181.563 E7.88539
G1 X131.411 Y180.535 E7.98523
G1 X130.116 Y179.758 E8.06057
G1 X128.508 Y178.566 E8.16044
G1 X127.294 Y177.665 E8.23586
G1 X125.810 Y176.321 E8.33575
G1 X124.692 Y175.306 E8.41108
G1 X123.347 Y173.824 E8.51093
G1 X122.333 Y172.704 E8.58631
G1 X120.241 Y169.883 E8.76152
G1 X118.436 Y166.871 E8.93671
G1 X117.579 Y165.061 E9.03662
G1 X116.934 Y163.695 E9.11199
G1 X116.259 Y161.811 E9.21183
G1 X115.751 Y160.389 E9.28716
G1 X115.264 Y158.447 E9.38705
G1 X114.898 Y156.980 E9.46248
G1 X114.382 Y153.509 E9.63756
G1 X114.282 Y151.508 E9.73751
G1 X114.209 Y149.999 E9.81288
G1 X114.381 Y146.491 E9.98811
G1 X114.603 Y144.997 E10.06346
G1 X114.897 Y143.018 E10.16328
G1 X115.263 Y141.553 E10.23861
G1 X115.750 Y139.609 E10.33860
G1 X116.933 Y136.303 E10.51378
G1 X118.435 Y133.126 E10.68910
G1 X119.210 Y131.836 E10.76418
G1 X120.240 Y130.115 E10.86424
G1 X121.141 Y128.902 E10.93963
G1 X122.332 Y127.294 E11.03946
G1 X123.347 Y126.175 E11.11483
G1 X124.692 Y124.691 E11.21475
G1 F2400 E7.21475
G0 F9000 X127.376 Y127.387
;TYPE:WALL-INNER
G1 F2400 E11.21475
G1 F1800 X129.712 Y125.270 E11.37203
G1 X132.226 Y123.405 E11.52820
G1 X134.919 Y121.791 E11.68484
G1 X137.762 Y120.447 E11.84173
G1 X140.713 Y119.391 E11.99810
G1 X143.755 Y118.629 E12.15455
G1 X146.871 Y118.166 E12.31171
G1 X148.185 Y118.103 E12.37735
G1 X150.000 Y118.012 E12.46801
G1 X153.126 Y118.167 E12.62416
G1 X156.246 Y118.631 E12.78153
G1 X158.001 Y119.069 E12.87177
G1 X159.285 Y119.392 E12.93783
G1 X160.993 Y120.002 E13.02831
G1 X162.239 Y120.449 E13.09435
G1 X165.079 Y121.792 E13.25108
G1 X167.772 Y123.406 E13.40772
G1 X170.286 Y125.271 E13.56389
G1 X172.622 Y127.388 E13.72117
G1 X174.724 Y129.706 E13.87728
G1 X176.593 Y132.227 E14.03385
G1 X178.209 Y134.924 E14.19071
G1 X179.549 Y137.758 E14.34711
G1 X180.607 Y140.714 E14.50375
G1 X181.371 Y143.766 E14.66071
G1 X181.831 Y146.863 E14.81691
G1 X181.922 Y148.678 E14.90758
G1 X181.986 Y150.000 E14.97361
G1 X181.832 Y153.137 E15.13030
G1 X181.372 Y156.234 E15.28651
G1 X180.608 Y159.286 E15.44347
G1 X179.550 Y162.242 E15.60011
G1 X178.209 Y165.079 E15.75666
G1 X176.599 Y167.765 E15.91290
G1 X174.721 Y170.298 E16.07021
G1 X172.623 Y172.612 E16.22605
G1 X170.287 Y174.729 E16.38333
G1 X167.773 Y176.594 E16.53949
G1 X165.080 Y178.208 E16.69613
G1 X162.237 Y179.552 E16.85302
G1 X159.286 Y180.608 E17.00939
G1 X156.244 Y181.370 E17.16584
G1 X153.128 Y181.833 E17.32301
G1 X150.000 Y181.986 E17.47925
G1 X146.873 Y181.832 E17.63545
G1 X143.753 Y181.368 E17.79282
G1 X141.998 Y180.930 E17.88306
G1 X140.714 Y180.607 E17.94911
G1 X139.006 Y179.997 E18.03960
G1 X137.760 Y179.550 E18.10564
G1 X134.920 Y178.207 E18.26237
G1 X132.227 Y176.593 E18.41901
G1 X129.713 Y174.728 E18.57518
G1 X127.377 Y172.611 E18.73246
G1 X125.275 Y170.293 E18.88857
G1 X123.406 Y167.772 E19.04514
G1 X121.790 Y165.075 E19.20200
G1 X120.450 Y162.241 E19.35840
G1 X119.392 Y159.285 E19.51503
G1 X118.628 Y156.233 E19.67200
G1 X118.168 Y153.136 E19.82820
G1 X118.077 Y151.321 E19.91887
G1 X118.013 Y150.000 E19.98485
G1 X118.167 Y146.862 E20.14159
G1 X118.627 Y143.765 E20.29780
G1 X119.391 Y140.713 E20.45476
G1 X120.449 Y137.757 E20.61140
G1 X121.790 Y134.920 E20.76795
G1 X123.400 Y132.234 E20.92419
G1 X125.278 Y129.701 E21.08150
G1 X127.376 Y127.387 E21.23733
G0 F9000 X127.098 Y127.098
;TYPE:WALL-OUTER
G1 F1800 X129.449 Y124.967 E21.39564
G1 X132.004 Y123.072 E21.55434
G1 X134.737 Y121.434 E21.71331
G1 X137.609 Y120.076 E21.87180
G1 X140.592 Y119.009 E22.02986
G1 X143.681 Y118.236 E22.18872
G1 X146.823 Y117.769 E22.34720
G1 X150.000 Y117.612 E22.50589
G1 X153.175 Y117.770 E22.66449
G1 X156.320 Y118.237 E22.82311
G1 X159.404 Y119.009 E22.98172
G1 X162.389 Y120.077 E23.13989
G1 X165.261 Y121.435 E23.29838
G1 X167.994 Y123.073 E23.45735
G1 X170.549 Y124.968 E23.61605
G1 X172.900 Y127.099 E23.77436
G1 X175.031 Y129.450 E23.93266
G1 X176.926 Y132.005 E24.09136
G1 X178.561 Y134.734 E24.25008
G1 X179.923 Y137.614 E24.40902
G1 X180.988 Y140.589 E24.56667
G1 X181.762 Y143.682 E24.72574
G1 X182.229 Y146.824 E24.88421
G1 X182.386 Y150.000 E25.04286
G1 X182.230 Y153.176 E25.20150
G1 X181.763 Y156.318 E25.35998
G1 X180.990 Y159.407 E25.51884
G1 X179.925 Y162.384 E25.67658
G1 X178.559 Y165.274 E25.83606
G1 X176.934 Y167.985 E25.99375
G1 X175.032 Y170.550 E26.15306
G1 X172.901 Y172.901 E26.31137
G1 X170.550 Y175.032 E26.46967
G1 X167.995 Y176.927 E26.62837
G1 X165.262 Y178.565 E26.78734
G1 X162.390 Y179.923 E26.94583
G1 X159.407 Y180.990 E27.10389
G1 X156.318 Y181.763 E27.26275
G1 X153.176 Y182.230 E27.42123
G1 X150.000 Y182.386 E27.57987
G1 X146.824 Y182.229 E27.73852
G1 X143.679 Y181.762 E27.89714
G1 X140.595 Y180.990 E28.05575
G1 X137.610 Y179.922 E28.21392
G1 X134.738 Y178.564 E28.37241
G1 X132.005 Y176.926 E28.53138
G1 X129.450 Y175.031 E28.69008
G1 X127.099 Y172.900 E28.84838
G1 X124.968 Y170.549 E29.00669
G1 X123.073 Y167.994 E29.16539
G1 X121.434 Y165.258 E29.32451
G1 X120.076 Y162.385 E29.48305
G1 X119.010 Y159.406 E29.64090
G1 X118.237 Y156.317 E29.79976
G1 X117.770 Y153.175 E29.95824
G1 X117.613 Y150.000 E30.11684
G1 X117.769 Y146.823 E30.27553
G1 X118.236 Y143.681 E30.43401
G1 X119.010 Y140.588 E30.59307
G1 X120.074 Y137.615 E30.75061
G1 X121.441 Y134.724 E30.91015
G1 X123.065 Y132.014 E31.06777
G1 X124.967 Y129.449 E31.22709
G1 X127.098 Y127.098 E31.38539
G0 F9000 X127.344 Y127.627
;TYPE:SKIN
G1 F1800 X172.369 Y172.652 E34.56215
G0 F9000 X172.072 Y172.920
G1 F1800 X127.076 Y127.924 E37.73686
G0 F9000 X126.806 Y128.221
G1 F1800 X171.776 Y173.190 E40.90970
G0 F9000 X171.479 Y173.458
G1 F1800 X126.538 Y128.518 E44.08050
G0 F9000 X126.268 Y128.814
G1 F1800 X171.182 Y173.727 E47.24939
G0 F9000 X170.885 Y173.996
G1 F1800 X126.000 Y129.111 E50.41626
G0 F9000 X125.731 Y129.408
G1 F1800 X170.588 Y174.265 E53.58117
G0 F9000 X170.291 Y174.533
G1 F1800 X125.461 Y129.704 E56.74413
G0 F9000 X125.213 Y130.022
G1 F1800 X169.975 Y174.783 E59.90230
G0 F9000 X169.650 Y175.024
G1 F1800 X124.972 Y130.346 E63.05457
G0 F9000 X124.731 Y130.671
G1 F1800 X169.325 Y175.265 E66.20092
G0 F9000 X169.001 Y175.506
G1 F1800 X124.491 Y130.996 E69.34134
G0 F9000 X124.249 Y131.321
G1 F1800 X168.676 Y175.747 E72.47587
G0 F9000 X168.352 Y175.988
G1 F1800 X124.008 Y131.645 E75.60454
G0 F9000 X123.768 Y131.970
G1 F1800 X168.027 Y176.230 E78.72729
G0 F9000 X167.703 Y176.471
G1 F1800 X123.527 Y132.295 E81.84415
G0 F9000 X123.314 Y132.648
G1 F1800 X167.349 Y176.683 E84.95105
G0 F9000 X166.995 Y176.895
G1 F1800 X123.102 Y133.001 E88.04798
G0 F9000 X122.890 Y133.355
G1 F1800 X166.641 Y177.106 E91.13484
G0 F9000 X166.288 Y177.319
G1 F1800 X122.678 Y133.708 E94.21180
G0 F9000 X122.466 Y134.063
G1 F1800 X165.934 Y177.531 E97.27870
G0 F9000 X165.581 Y177.743
G1 F1800 X122.254 Y134.416 E100.33566
G0 F9000 X122.042 Y134.770
G1 F1800 X165.226 Y177.954 E103.38252
G0 F9000 X164.861 Y178.155
G1 F1800 X121.841 Y135.135 E106.41782
G0 F9000 X121.659 Y135.519
G1 F1800 X164.477 Y178.337 E109.43886
G0 F9000 X164.094 Y178.519
G1 F1800 X121.478 Y135.903 E112.44565
G0 F9000 X121.297 Y136.287
G1 F1800 X163.710 Y178.700 E115.43811
G0 F9000 X163.326 Y178.882
G1 F1800 X121.115 Y136.671 E118.41633
G0 F9000 X120.933 Y137.055
G1 F1800 X162.941 Y179.063 E121.38022
G0 F9000 X162.557 Y179.245
G1 F1800 X120.751 Y137.439 E124.32986
G0 F9000 X120.571 Y137.825
G1 F1800 X162.173 Y179.426 E127.26507
G0 F9000 X161.756 Y179.575
G1 F1800 X120.422 Y138.241 E130.18140
G0 F9000 X120.273 Y138.657
G1 F1800 X161.339 Y179.724 E133.07887
G0 F9000 X160.922 Y179.873
G1 F1800 X120.124 Y139.074 E135.95742
G0 F9000 X127.629 Y127.346
G1 F1800 X172.653 Y172.370 E139.13411
G0 F9000 X172.922 Y172.073
G1 F1800 X127.925 Y127.076 E142.30889
G0 F9000 X128.222 Y126.808
G1 F1800 X173.191 Y171.777 E145.48169
G0 F9000 X173.460 Y171.480
G1 F1800 X128.519 Y126.539 E148.65253
G0 F9000 X128.815 Y126.270
G1 F1800 X173.729 Y171.183 E151.82142
G0 F9000 X173.997 Y170.886
G1 F1800 X129.112 Y126.001 E154.98829
G0 F9000 X129.409 Y125.732
G1 F1800 X174.267 Y170.590 E158.15327
G0 F9000 X174.535 Y170.293
G1 F1800 X129.706 Y125.464 E161.31620
G0 F9000 X130.022 Y125.214
G1 F1800 X174.784 Y169.975 E164.47436
G0 F9000 X175.025 Y169.651
G1 F1800 X130.347 Y124.973 E167.62664
G0 F9000 X130.671 Y124.732
G1 F1800 X175.266 Y169.326 E170.77302
G0 F9000 X175.506 Y169.001
G1 F1800 X130.997 Y124.491 E173.91340
G0 F9000 X131.321 Y124.250
G1 F1800 X175.747 Y168.676 E177.04790
G0 F9000 X175.988 Y168.352
G1 F1800 X131.646 Y124.009 E180.17650
G0 F9000 X131.970 Y123.768
G1 F1800 X176.229 Y168.026 E183.29918
G0 F9000 X176.470 Y167.702
G1 F1800 X132.295 Y123.527 E186.41596
G0 F9000 X132.648 Y123.315
G1 F1800 X176.683 Y167.349 E189.52283
G0 F9000 X176.895 Y166.995
G1 F1800 X133.002 Y123.103 E192.61969
G0 F9000 X133.356 Y122.891
G1 F1800 X177.107 Y166.642 E195.70656
G0 F9000 X177.319 Y166.288
G1 F1800 X133.710 Y122.679 E198.78341
G0 F9000 X134.063 Y122.467
G1 F1800 X177.531 Y165.935 E201.85031
G0 F9000 X177.744 Y165.581
G1 F1800 X134.417 Y122.255 E204.90723
G0 F9000 X134.771 Y122.043
G1 F1800 X177.956 Y165.228 E207.95416
G0 F9000 X178.156 Y164.863
G1 F1800 X135.136 Y121.842 E210.98949
G0 F9000 X135.520 Y121.661
G1 F1800 X178.338 Y164.479 E214.01053
G0 F9000 X178.520 Y164.095
G1 F1800 X135.904 Y121.479 E217.01732
G0 F9000 X136.288 Y121.297
G1 F1800 X178.701 Y163.710 E220.00979
G0 F9000 X178.883 Y163.326
G1 F1800 X136.672 Y121.116 E222.98797
G0 F9000 X137.057 Y120.935
G1 F1800 X179.064 Y162.942 E225.95179
G0 F9000 X179.246 Y162.558
G1 F1800 X137.441 Y120.753 E228.90136
G0 F9000 X137.825 Y120.571
G1 F1800 X179.426 Y162.173 E231.83657
G0 F9000 X179.576 Y161.757
G1 F1800 X138.242 Y120.423 E234.75290
G0 F9000 X138.658 Y120.273
G1 F1800 X179.724 Y161.339 E237.65033
G0 F9000 X179.873 Y160.923
G1 F1800 X139.075 Y120.124 E240.52889
G0 F9000 X139.492 Y119.976
G1 F1800 X180.023 Y160.506 E243.38853
G0 F9000 X180.171 Y160.089
G1 F1800 X139.908 Y119.827 E246.22927
G0 F9000 X140.325 Y119.677
G1 F1800 X180.320 Y159.673 E249.05117
G0 F9000 X180.469 Y159.256
G1 F1800 X140.742 Y119.529 E251.85412
G0 F9000 X141.194 Y119.415
G1 F1800 X180.583 Y158.804 E254.63323
G0 F9000 X180.696 Y158.351
G1 F1800 X141.646 Y119.302 E257.38838
G0 F9000 X142.098 Y119.188
G1 F1800 X180.810 Y157.899 E260.11969
G0 F9000 X180.923 Y157.447
G1 F1800 X142.551 Y119.075 E262.82704
G0 F9000 X143.003 Y118.962
G1 F1800 X181.036 Y156.994 E265.51044
G0 F9000 X181.149 Y156.542
G1 F1800 X143.456 Y118.849 E268.16988
G0 F9000 X143.919 Y118.746
G1 F1800 X181.251 Y156.078 E270.80386
G0 F9000 X181.325 Y155.586
G1 F1800 X144.412 Y118.673 E273.40827
G0 F9000 X144.904 Y118.600
G1 F1800 X181.399 Y155.094 E275.98315
G0 F9000 X181.471 Y154.601
G1 F1800 X145.397 Y118.527 E278.52837
G0 F9000 X145.889 Y118.453
G1 F1800 X181.545 Y154.109 E281.04409
G0 F9000 X181.618 Y153.616
G1 F1800 X146.382 Y118.380 E283.53018
G0 F9000 X146.874 Y118.307
G1 F1800 X181.691 Y153.124 E285.98671
G0 F9000 X181.717 Y152.585
G1 F1800 X147.413 Y118.280 E288.40708
G0 F9000 X147.952 Y118.253
G1 F1800 X181.744 Y152.046 E290.79132
G0 F9000 X181.770 Y151.506
G1 F1800 X148.491 Y118.226 E293.13937
G0 F9000 X149.030 Y118.200
G1 F1800 X181.797 Y150.968 E295.45129
G0 F9000 X181.824 Y150.429
G1 F1800 X149.569 Y118.173 E297.72709
G0 F9000 X150.120 Y118.158
G1 F1800 X181.839 Y149.878 E299.96507
G0 F9000 X181.809 Y149.282
G1 F1800 X150.715 Y118.188 E302.15892
G0 F9000 X151.310 Y118.217
G1 F1800 X181.780 Y148.688 E304.30878
G0 F9000 X181.751 Y148.092
G1 F1800 X151.905 Y118.247 E306.41454
G0 F9000 X152.501 Y118.277
G1 F1800 X181.721 Y147.497 E308.47617
G0 F9000 X181.691 Y146.902
G1 F1800 X153.095 Y118.306 E310.49377
G0 F9000 X153.758 Y118.402
G1 F1800 X181.596 Y146.240 E312.45790
G0 F9000 X181.498 Y145.577
G1 F1800 X154.422 Y118.501 E314.36825
G0 F9000 X155.087 Y118.600
G1 F1800 X181.399 Y144.912 E316.22471
G0 F9000 X181.300 Y144.248
G1 F1800 X155.752 Y118.699 E318.02729
G0 F9000 X156.443 Y118.825
G1 F1800 X181.173 Y143.555 E319.77213
G0 F9000 X180.984 Y142.800
G1 F1800 X157.197 Y119.013 E321.45043
G0 F9000 X157.952 Y119.202
G1 F1800 X180.795 Y142.046 E323.06216
G0 F9000 X180.607 Y141.291
G1 F1800 X158.706 Y119.391 E324.60736
G0 F9000 X159.497 Y119.616
G1 F1800 X180.382 Y140.502 E326.08094
G0 F9000 X180.066 Y139.620
G1 F1800 X160.378 Y119.931 E327.47007
G0 F9000 X161.259 Y120.247
G1 F1800 X179.750 Y138.738 E328.77471
G0 F9000 X179.435 Y137.857
G1 F1800 X162.139 Y120.561 E329.99504
G0 F9000 X163.203 Y121.060
G1 F1800 X178.937 Y136.794 E331.10516
G0 F9000 X178.430 Y135.721
G1 F1800 X164.277 Y121.567 E332.10376
G0 F9000 X165.458 Y122.183
G1 F1800 X177.813 Y134.538 E332.97548
G0 F9000 X176.969 Y133.128
G1 F1800 X166.870 Y123.029 E333.68802
G0 F9000 X168.605 Y124.199
G1 F1800 X175.801 Y131.395 E334.19573
G0 F9000 X173.141 Y128.169
G1 F1800 X171.844 Y126.872 E334.28724
G0 F9000 X119.975 Y139.491
G1 F1800 X160.506 Y180.022 E337.14692
G0 F9000 X160.088 Y180.170
G1 F1800 X119.826 Y139.908 E339.98763
G0 F9000 X119.677 Y140.324
G1 F1800 X159.672 Y180.320 E342.80952
G0 F9000 X159.255 Y180.468
G1 F1800 X119.528 Y140.741 E345.61248
G0 F9000 X119.414 Y141.193
