;Generated with Cura_SteamEngine 15.01
; Default start code
G28 ; Home extruder
G1 Z15 F100
M107 ; Turn off fan
G90 ; Absolute positioning
M82 ; Extruder in absolute mode
M190 S50
; Activate all used extruder
M104 T0 S210
G92 E0 ; Reset extruder position
; Wait for all used extruders to reach temperature
M109 T0 S210
;Layer count: 10
;LAYER:0
M107
G0 F9000 X13.424 Y68.852 Z0.300
G0 X12.788 Y68.979
;TYPE:SKIRT
G1 F1800 X13.424 Y68.852 E0.03236
G1 X286.572 Y68.852 E13.65977
G1 X288.215 Y69.178 E13.74333
G1 X289.165 Y69.368 E13.79167
G1 X290.824 Y70.476 E13.89120
G1 X291.628 Y71.014 E13.93946
G1 X293.273 Y73.476 E14.08719
G1 X293.661 Y75.429 E14.18653
G1 X293.662 Y75.429 E14.18658
G1 X293.789 Y76.065 E14.21893
G1 X293.789 Y223.932 E21.59605
G1 X293.462 Y225.575 E21.67962
G1 X293.272 Y226.524 E21.72791
G1 X292.164 Y228.183 E21.82744
G1 X291.626 Y228.987 E21.87570
G1 X289.163 Y230.633 E22.02350
G1 X287.211 Y231.020 E22.12278
G1 X286.575 Y231.147 E22.15513
G1 X13.427 Y231.147 E35.78254
G1 X11.784 Y230.821 E35.86611
G1 X10.834 Y230.631 E35.91445
G1 X9.175 Y229.523 E36.01398
G1 X8.371 Y228.985 E36.06224
G1 X6.726 Y226.523 E36.20996
G1 X6.338 Y224.570 E36.30930
G1 X6.337 Y224.570 E36.30935
G1 X6.210 Y223.934 E36.34171
G1 X6.210 Y76.067 E43.71882
G1 X6.537 Y74.424 E43.80240
G1 X6.727 Y73.475 E43.85069
G1 X7.835 Y71.816 E43.95022
G1 X8.373 Y71.012 E43.99848
G1 X10.836 Y69.366 E44.14627
G1 X12.788 Y68.979 E44.24556
G1 F2400 E40.24556
G0 F9000 X13.533 Y72.705
;TYPE:WALL-INNER
G1 F2400 E44.24556
G1 F1800 X13.799 Y72.652 E44.25909
G1 X286.196 Y72.652 E57.84903
G1 X287.473 Y72.905 E57.91398
G1 X287.680 Y72.946 E57.92450
G1 X288.887 Y73.753 E57.99694
G1 X289.694 Y74.960 E58.06938
G1 X289.989 Y76.439 E58.14462
G1 X289.989 Y223.560 E65.48452
G1 X289.694 Y225.039 E65.55976
G1 X288.887 Y226.246 E65.63219
G1 X287.682 Y227.052 E65.70452
G1 X286.466 Y227.294 E65.76638
G1 X286.200 Y227.347 E65.77991
G1 X13.802 Y227.347 E79.36990
G1 X12.526 Y227.094 E79.43480
G1 X12.319 Y227.053 E79.44533
G1 X11.112 Y226.246 E79.51776
G1 X10.305 Y225.039 E79.59020
G1 X10.010 Y223.560 E79.66544
G1 X10.010 Y76.439 E87.00534
G1 X10.305 Y74.960 E87.08058
G1 X11.112 Y73.753 E87.15302
G1 X12.317 Y72.947 E87.22534
G1 X13.533 Y72.705 E87.28720
G0 F9000 X13.760 Y72.252
;TYPE:WALL-OUTER
G1 F1800 X286.239 Y72.252 E100.88123
G1 X287.837 Y72.569 E100.96251
G1 X289.176 Y73.464 E101.04286
G1 X290.071 Y74.803 E101.12321
G1 X290.389 Y76.401 E101.20450
G1 X290.389 Y223.598 E108.54819
G1 X290.071 Y225.196 E108.62948
G1 X289.176 Y226.535 E108.70983
G1 X287.837 Y227.430 E108.79018
G1 X286.239 Y227.747 E108.87146
G1 X13.760 Y227.747 E122.46549
G1 X12.162 Y227.430 E122.54677
G1 X10.823 Y226.535 E122.62712
G1 X9.928 Y225.196 E122.70747
G1 X9.610 Y223.598 E122.78876
G1 X9.610 Y76.401 E130.13245
G1 X9.928 Y74.803 E130.21374
G1 X10.823 Y73.464 E130.29409
G1 X12.162 Y72.569 E130.37444
G1 X13.760 Y72.252 E130.45572
G0 F9000 X13.700 Y72.814
;TYPE:SKIN
G1 F1800 X168.092 Y227.206 E141.34891
G0 F9000 X168.657 Y227.206
G1 F1800 X14.243 Y72.791 E152.24369
G0 F9000 X14.808 Y72.791
G1 F1800 X169.223 Y227.206 E163.13850
G0 F9000 X169.789 Y227.206
G1 F1800 X15.374 Y72.791 E174.03331
G0 F9000 X15.940 Y72.791
G1 F1800 X170.354 Y227.206 E184.92809
G0 F9000 X170.920 Y227.206
G1 F1800 X16.505 Y72.791 E195.82290
G0 F9000 X17.071 Y72.791
G1 F1800 X171.486 Y227.206 E206.71771
G0 F9000 X172.051 Y227.206
G1 F1800 X17.637 Y72.791 E217.61249
G0 F9000 X18.203 Y72.791
G1 F1800 X172.617 Y227.206 E228.50727
G0 F9000 X173.183 Y227.206
G1 F1800 X18.768 Y72.791 E239.40208
G0 F9000 X19.334 Y72.791
G1 F1800 X173.748 Y227.206 E250.29685
G0 F9000 X174.314 Y227.206
G1 F1800 X19.900 Y72.791 E261.19163
G0 F9000 X13.227 Y72.907
G1 F1800 X167.526 Y227.206 E272.07826
G0 F9000 X166.960 Y227.206
G1 F1800 X12.756 Y73.001 E282.95822
G0 F9000 X12.309 Y73.120
G1 F1800 X166.394 Y227.206 E293.82978
G0 F9000 X165.829 Y227.206
G1 F1800 X11.969 Y73.346 E304.68544
G0 F9000 X11.631 Y73.573
G1 F1800 X165.263 Y227.206 E315.52504
G0 F9000 X164.697 Y227.206
G1 F1800 X11.292 Y73.800 E326.34863
G0 F9000 X11.038 Y74.112
G1 F1800 X164.132 Y227.206 E337.15024
G0 F9000 X163.566 Y227.206
G1 F1800 X10.811 Y74.451 E347.92793
G0 F9000 X10.584 Y74.789
G1 F1800 X163.000 Y227.206 E358.68173
G0 F9000 X162.435 Y227.206
G1 F1800 X10.402 Y75.173 E369.40848
G0 F9000 X10.309 Y75.646
G1 F1800 X161.869 Y227.206 E380.10186
G0 F9000 X161.303 Y227.206
G1 F1800 X10.215 Y76.117 E390.76197
G0 F9000 X10.149 Y76.617
G1 F1800 X160.738 Y227.206 E401.38684
G0 F9000 X160.172 Y227.206
G1 F1800 X10.149 Y77.183 E411.97177
G0 F9000 X10.149 Y77.749
G1 F1800 X159.606 Y227.206 E422.51677
G0 F9000 X159.041 Y227.206
G1 F1800 X10.149 Y78.314 E433.02190
G0 F9000 X10.149 Y78.880
G1 F1800 X158.475 Y227.206 E443.48710
G0 F9000 X157.909 Y227.206
G1 F1800 X10.149 Y79.446 E453.91237
G0 F9000 X10.149 Y80.011
G1 F1800 X157.343 Y227.206 E464.29774
G0 F9000 X156.778 Y227.206
G1 F1800 X10.149 Y80.577 E474.64320
G0 F9000 X10.149 Y81.143
G1 F1800 X156.212 Y227.206 E484.94874
G0 F9000 X155.646 Y227.206
G1 F1800 X10.149 Y81.709 E495.21434
G0 F9000 X10.149 Y82.274
G1 F1800 X155.081 Y227.206 E505.44007
G0 F9000 X154.515 Y227.206
G1 F1800 X10.149 Y82.840 E515.62587
G0 F9000 X10.149 Y83.406
G1 F1800 X153.949 Y227.206 E525.77174
G0 F9000 X153.384 Y227.206
G1 F1800 X10.149 Y83.971 E535.87774
G0 F9000 X10.149 Y84.537
G1 F1800 X152.818 Y227.206 E545.94381
G0 F9000 X152.252 Y227.206
G1 F1800 X10.149 Y85.103 E555.96995
G0 F9000 X10.149 Y85.668
G1 F1800 X151.687 Y227.206 E565.95622
G0 F9000 X151.121 Y227.206
G1 F1800 X10.149 Y86.234 E575.90255
G0 F9000 X10.149 Y86.800
G1 F1800 X150.555 Y227.206 E585.80895
G0 F9000 X149.990 Y227.206
G1 F1800 X10.149 Y87.365 E595.67549
G0 F9000 X10.149 Y87.931
G1 F1800 X149.424 Y227.206 E605.50209
G0 F9000 X148.858 Y227.206
G1 F1800 X10.149 Y88.497 E615.28876
G0 F9000 X10.149 Y89.062
G1 F1800 X148.293 Y227.206 E625.03557
G0 F9000 X147.727 Y227.206
G1 F1800 X10.149 Y89.628 E634.74244
G0 F9000 X10.149 Y90.194
G1 F1800 X147.161 Y227.206 E644.40938
G0 F9000 X146.595 Y227.206
G1 F1800 X10.149 Y90.759 E654.03641
G0 F9000 X10.149 Y91.325
G1 F1800 X146.030 Y227.206 E663.62355
G0 F9000 X145.464 Y227.206
G1 F1800 X10.149 Y91.891 E673.17076
G0 F9000 X10.149 Y92.457
G1 F1800 X144.898 Y227.206 E682.67803
G0 F9000 X144.333 Y227.206
G1 F1800 X10.149 Y93.022 E692.14543
G0 F9000 X10.149 Y93.588
G1 F1800 X143.767 Y227.206 E701.57290
G0 F9000 X143.201 Y227.206
G1 F1800 X10.149 Y94.154 E710.96044
G0 F9000 X10.149 Y94.719
G1 F1800 X142.636 Y227.206 E720.30811
G0 F9000 X142.070 Y227.206
G1 F1800 X10.149 Y95.285 E729.61585
G0 F9000 X10.149 Y95.851
G1 F1800 X141.504 Y227.206 E738.88366
G0 F9000 X140.939 Y227.206
G1 F1800 X10.149 Y96.416 E748.11160
G0 F9000 X10.149 Y96.982
G1 F1800 X140.373 Y227.206 E757.29961
G0 F9000 X139.807 Y227.206
G1 F1800 X10.149 Y97.548 E766.44768
G0 F9000 X10.149 Y98.113
G1 F1800 X139.242 Y227.206 E775.55589
G0 F9000 X138.676 Y227.206
G1 F1800 X10.149 Y98.679 E784.62416
G0 F9000 X10.149 Y99.245
G1 F1800 X138.110 Y227.206 E793.65250
G0 F9000 X137.544 Y227.206
G1 F1800 X10.149 Y99.810 E802.64094
G0 F9000 X10.149 Y100.376
G1 F1800 X136.979 Y227.206 E811.58948
G0 F9000 X136.413 Y227.206
G1 F1800 X10.149 Y100.942 E820.49809
G0 F9000 X10.149 Y101.508
G1 F1800 X135.847 Y227.206 E829.36676
G0 F9000 X135.282 Y227.206
G1 F1800 X10.149 Y102.073 E838.19557
G0 F9000 X10.149 Y102.639
G1 F1800 X134.716 Y227.206 E846.98445
G0 F9000 X134.150 Y227.206
G1 F1800 X10.149 Y103.205 E855.73339
G0 F9000 X10.149 Y103.770
G1 F1800 X133.585 Y227.206 E864.44246
G0 F9000 X133.019 Y227.206
G1 F1800 X10.149 Y104.336 E873.11160
G0 F9000 X10.149 Y104.902
G1 F1800 X132.453 Y227.206 E881.74081
G0 F9000 X131.888 Y227.206
G1 F1800 X10.149 Y105.467 E890.33016
G0 F9000 X10.149 Y106.033
G1 F1800 X131.322 Y227.206 E898.87957
G0 F9000 X130.756 Y227.206
G1 F1800 X10.149 Y106.599 E907.38904
G0 F9000 X10.149 Y107.164
G1 F1800 X130.191 Y227.206 E915.85865
G0 F9000 X129.625 Y227.206
G1 F1800 X10.149 Y107.730 E924.28833
G0 F9000 X10.149 Y108.296
G1 F1800 X129.059 Y227.206 E932.67807
G0 F9000 X128.494 Y227.206
G1 F1800 X10.149 Y108.861 E941.02795
G0 F9000 X10.149 Y109.427
G1 F1800 X127.928 Y227.206 E949.33790
G0 F9000 X127.362 Y227.206
G1 F1800 X10.149 Y109.993 E957.60791
G0 F9000 X10.149 Y110.558
G1 F1800 X126.796 Y227.206 E965.83802
G0 F9000 X126.231 Y227.206
G1 F1800 X10.149 Y111.124 E974.02823
G0 F9000 X10.149 Y111.690
G1 F1800 X125.665 Y227.206 E982.17851
G0 F9000 X125.099 Y227.206
G1 F1800 X10.149 Y112.256 E990.28885
G0 F9000 X10.149 Y112.821
G1 F1800 X124.534 Y227.206 E998.35933
G0 F9000 X123.968 Y227.206
G1 F1800 X10.149 Y113.387 E1006.38988
G0 F9000 X10.149 Y113.953
G1 F1800 X123.402 Y227.206 E1014.38049
G0 F9000 X122.837 Y227.206
G1 F1800 X10.149 Y114.518 E1022.33123
G0 F9000 X10.149 Y115.084
G1 F1800 X122.271 Y227.206 E1030.24205
G0 F9000 X121.705 Y227.206
G1 F1800 X10.149 Y115.650 E1038.11292
G0 F9000 X10.149 Y116.215
G1 F1800 X121.140 Y227.206 E1045.94394
G0 F9000 X120.574 Y227.206
G1 F1800 X10.149 Y116.781 E1053.73502
G0 F9000 X10.149 Y117.347
G1 F1800 X120.008 Y227.206 E1061.48616
G0 F9000 X119.443 Y227.206
G1 F1800 X10.149 Y117.912 E1069.19745
G0 F9000 X10.149 Y118.478
G1 F1800 X118.877 Y227.206 E1076.86879
G0 F9000 X118.311 Y227.206
G1 F1800 X10.149 Y119.044 E1084.50021
G0 F9000 X10.149 Y119.609
G1 F1800 X117.746 Y227.206 E1092.09176
G0 F9000 X117.180 Y227.206
G1 F1800 X10.149 Y120.175 E1099.64337
G0 F9000 X10.149 Y120.741
G1 F1800 X116.614 Y227.206 E1107.15505
G0 F9000 X116.048 Y227.206
G1 F1800 X10.149 Y121.306 E1114.62684
G0 F9000 X10.149 Y121.872
G1 F1800 X115.483 Y227.206 E1122.05872
G0 F9000 X114.917 Y227.206
G1 F1800 X10.149 Y122.438 E1129.45067
G0 F9000 X10.149 Y123.004
G1 F1800 X114.351 Y227.206 E1136.80268
G0 F9000 X113.786 Y227.206
G1 F1800 X10.149 Y123.569 E1144.11483
G0 F9000 X10.149 Y124.135
G1 F1800 X113.220 Y227.206 E1151.38705
G0 F9000 X112.654 Y227.206
G1 F1800 X10.149 Y124.701 E1158.61933
G0 F9000 X10.149 Y125.266
G1 F1800 X112.089 Y227.206 E1165.81174
G0 F9000 X111.523 Y227.206
G1 F1800 X10.149 Y125.832 E1172.96423
G0 F9000 X10.149 Y126.398
G1 F1800 X110.957 Y227.206 E1180.07678
G0 F9000 X110.392 Y227.206
G1 F1800 X10.149 Y126.963 E1187.14946
G0 F9000 X10.149 Y127.529
G1 F1800 X109.826 Y227.206 E1194.18221
G0 F9000 X109.260 Y227.206
G1 F1800 X10.149 Y128.095 E1201.17503
G0 F9000 X10.149 Y128.660
G1 F1800 X108.695 Y227.206 E1208.12798
G0 F9000 X108.129 Y227.206
G1 F1800 X10.149 Y129.226 E1215.04100
G0 F9000 X10.149 Y129.792
G1 F1800 X107.563 Y227.206 E1221.91408
G0 F9000 X106.997 Y227.206
G1 F1800 X10.149 Y130.357 E1228.74727
G0 F9000 X10.149 Y130.923
G1 F1800 X106.432 Y227.206 E1235.54055
G0 F9000 X105.866 Y227.206
G1 F1800 X10.149 Y131.489 E1242.29391
G0 F9000 X10.149 Y132.055
G1 F1800 X105.300 Y227.206 E1249.00732
G0 F9000 X104.735 Y227.206
G1 F1800 X10.149 Y132.620 E1255.68088
G0 F9000 X10.149 Y133.186
G1 F1800 X104.169 Y227.206 E1262.31449
G0 F9000 X103.603 Y227.206
G1 F1800 X10.149 Y133.752 E1268.90818
G0 F9000 X10.149 Y134.317
G1 F1800 X103.038 Y227.206 E1275.46200
G0 F9000 X102.472 Y227.206
G1 F1800 X10.149 Y134.883 E1281.97589
G0 F9000 X10.149 Y135.449
G1 F1800 X101.906 Y227.206 E1288.44984
G0 F9000 X101.341 Y227.206
G1 F1800 X10.149 Y136.014 E1294.88393
G0 F9000 X10.149 Y136.580
G1 F1800 X100.775 Y227.206 E1301.27808
G0 F9000 X100.209 Y227.206
G1 F1800 X10.149 Y137.146 E1307.63230
G0 F9000 X10.149 Y137.711
G1 F1800 X99.644 Y227.206 E1313.94665
G0 F9000 X99.078 Y227.206
G1 F1800 X10.149 Y138.277 E1320.22108
G0 F9000 X10.149 Y138.843
G1 F1800 X98.512 Y227.206 E1326.45556
G0 F9000 X97.947 Y227.206
G1 F1800 X10.149 Y139.408 E1332.65019
G0 F9000 X10.149 Y139.974
G1 F1800 X97.381 Y227.206 E1338.80487
G0 F9000 X96.815 Y227.206
G1 F1800 X10.149 Y140.540 E1344.91963
G0 F9000 X10.149 Y141.105
G1 F1800 X96.249 Y227.206 E1350.99448
G0 F9000 X95.684 Y227.206
G1 F1800 X10.149 Y141.671 E1357.02944
G0 F9000 X10.149 Y142.237
G1 F1800 X95.118 Y227.206 E1363.02446
G0 F9000 X94.552 Y227.206
G1 F1800 X10.149 Y142.803 E1368.97955
G0 F9000 X10.149 Y143.368
G1 F1800 X93.987 Y227.206 E1374.89477
G0 F9000 X93.421 Y227.206
G1 F1800 X10.149 Y143.934 E1380.77006
G0 F9000 X10.149 Y144.500
G1 F1800 X92.855 Y227.206 E1386.60542
G0 F9000 X92.290 Y227.206
G1 F1800 X10.149 Y145.065 E1392.40091
G0 F9000 X10.149 Y145.631
G1 F1800 X91.724 Y227.206 E1398.15647
G0 F9000 X91.158 Y227.206
G1 F1800 X10.149 Y146.197 E1403.87209
G0 F9000 X10.149 Y146.762
G1 F1800 X90.593 Y227.206 E1409.54785
G0 F9000 X90.027 Y227.206
G1 F1800 X10.149 Y147.328 E1415.18367
G0 F9000 X10.149 Y147.894
G1 F1800 X89.461 Y227.206 E1420.77956
G0 F9000 X88.896 Y227.206
G1 F1800 X10.149 Y148.459 E1426.33559
G0 F9000 X10.149 Y149.025
G1 F1800 X88.330 Y227.206 E1431.85168
G0 F9000 X87.764 Y227.206
G1 F1800 X10.149 Y149.591 E1437.32784
G0 F9000 X10.149 Y150.156
G1 F1800 X87.198 Y227.206 E1442.76410
G0 F9000 X86.633 Y227.206
G1 F1800 X10.149 Y150.722 E1448.16045
G0 F9000 X10.149 Y151.288
G1 F1800 X86.067 Y227.206 E1453.51688
G0 F9000 X85.501 Y227.206
G1 F1800 X10.149 Y151.854 E1458.83337
G0 F9000 X10.149 Y152.419
G1 F1800 X84.936 Y227.206 E1464.11000
G0 F9000 X84.370 Y227.206
G1 F1800 X10.149 Y152.985 E1469.34669
G0 F9000 X10.149 Y153.551
G1 F1800 X83.804 Y227.206 E1474.54345
G0 F9000 X83.239 Y227.206
G1 F1800 X10.149 Y154.116 E1479.70034
G0 F9000 X10.149 Y154.682
G1 F1800 X82.673 Y227.206 E1484.81730
G0 F9000 X82.107 Y227.206
G1 F1800 X10.149 Y155.248 E1489.89433
G0 F9000 X10.149 Y155.813
G1 F1800 X81.542 Y227.206 E1494.93149
G0 F9000 X80.976 Y227.206
G1 F1800 X10.149 Y156.379 E1499.92872
G0 F9000 X10.149 Y156.945
G1 F1800 X80.410 Y227.206 E1504.88601
G0 F9000 X79.845 Y227.206
G1 F1800 X10.149 Y157.510 E1509.80344
G0 F9000 X10.149 Y158.076
G1 F1800 X79.279 Y227.206 E1514.68093
G0 F9000 X78.713 Y227.206
G1 F1800 X10.149 Y158.642 E1519.51849
G0 F9000 X10.149 Y159.207
G1 F1800 X78.148 Y227.206 E1524.31619
G0 F9000 X77.582 Y227.206
G1 F1800 X10.149 Y159.773 E1529.07395
G0 F9000 X10.149 Y160.339
G1 F1800 X77.016 Y227.206 E1533.79178
G0 F9000 X76.450 Y227.206
G1 F1800 X10.149 Y160.904 E1538.46971
G0 F9000 X10.149 Y161.470
G1 F1800 X75.885 Y227.206 E1543.10774
G0 F9000 X75.319 Y227.206
G1 F1800 X10.149 Y162.036 E1547.70584
G0 F9000 X10.149 Y162.602
G1 F1800 X74.753 Y227.206 E1552.26400
G0 F9000 X74.188 Y227.206
G1 F1800 X10.149 Y163.167 E1556.78229
G0 F9000 X10.149 Y163.733
G1 F1800 X73.622 Y227.206 E1561.26066
G0 F9000 X73.056 Y227.206
G1 F1800 X10.149 Y164.299 E1565.69909
G0 F9000 X10.149 Y164.864
G1 F1800 X72.491 Y227.206 E1570.09765
G0 F9000 X71.925 Y227.206
G1 F1800 X10.149 Y165.430 E1574.45628
G0 F9000 X10.149 Y165.996
G1 F1800 X71.359 Y227.206 E1578.77498
G0 F9000 X70.794 Y227.206
G1 F1800 X10.149 Y166.561 E1583.05381
G0 F9000 X10.149 Y167.127
G1 F1800 X70.228 Y227.206 E1587.29271
G0 F9000 X69.662 Y227.206
G1 F1800 X10.149 Y167.693 E1591.49167
G0 F9000 X10.149 Y168.258
G1 F1800 X69.097 Y227.206 E1595.65077
G0 F9000 X68.531 Y227.206
G1 F1800 X10.149 Y168.824 E1599.76994
G0 F9000 X10.149 Y169.390
G1 F1800 X67.965 Y227.206 E1603.84917
G0 F9000 X67.400 Y227.206
G1 F1800 X10.149 Y169.955 E1607.88853
G0 F9000 X10.149 Y170.521
G1 F1800 X66.834 Y227.206 E1611.88797
G0 F9000 X66.268 Y227.206
G1 F1800 X10.149 Y171.087 E1615.84747
G0 F9000 X10.149 Y171.652
G1 F1800 X65.702 Y227.206 E1619.76707
G0 F9000 X65.137 Y227.206
G1 F1800 X10.149 Y172.218 E1623.64677
G0 F9000 X10.149 Y172.784
G1 F1800 X64.571 Y227.206 E1627.48653
G0 F9000 X64.005 Y227.206
G1 F1800 X10.149 Y173.350 E1631.28636
G0 F9000 X10.149 Y173.915
G1 F1800 X63.440 Y227.206 E1635.04633
G0 F9000 X62.874 Y227.206
G1 F1800 X10.149 Y174.481 E1638.76636
G0 F9000 X10.149 Y175.047
G1 F1800 X62.308 Y227.206 E1642.44646
G0 F9000 X61.743 Y227.206
G1 F1800 X10.149 Y175.612 E1646.08670
G0 F9000 X10.149 Y176.178
G1 F1800 X61.177 Y227.206 E1649.68700
G0 F9000 X60.611 Y227.206
G1 F1800 X10.149 Y176.744 E1653.24737
G0 F9000 X10.149 Y177.309
G1 F1800 X60.046 Y227.206 E1656.76787
G0 F9000 X59.480 Y227.206
G1 F1800 X10.149 Y177.875 E1660.24844
G0 F9000 X10.149 Y178.441
