;Generated with Cura_SteamEngine 15.01
; Default start code
G28 ; Home extruder
G1 Z15 F100
M107 ; Turn off fan
G90 ; Absolute positioning
M82 ; Extruder in absolute mode
M190 S50
; Activate all used extruder
M104 T0 S210
G92 E0 ; Reset extruder position
; Wait for all used extruders to reach temperature
M109 T0 S210
;Layer count: 307
;LAYER:0
M107
G0 F9000 X-2.794 Y144.124 Z0.300
;TYPE:SKIRT
G1 F1800 X8.143 Y144.124 E0.54565
G1 X8.143 Y152.980 E0.98748
G1 X3.894 Y153.031 E1.19948
G1 X-2.799 Y153.031 E1.53339
G1 X-2.794 Y144.124 E1.97776
G0 F9000 X-2.394 Y144.524
G1 F1800 X7.743 Y144.524 E2.48350
G1 X7.743 Y152.585 E2.88566
G1 X3.892 Y152.631 E3.07781
G1 X-2.399 Y152.631 E3.39166
G1 X-2.394 Y144.524 E3.79612
G0 F9000 X291.854 Y144.138
G1 F1800 X299.162 Y144.124 E4.16072
G1 X302.798 Y144.124 E4.34212
G1 X302.793 Y153.031 E4.78650
G1 X291.859 Y153.031 E5.33200
G1 X291.854 Y144.138 E5.77567
G0 F9000 X292.254 Y144.537
G1 F1800 X299.162 Y144.524 E6.12031
G1 X302.398 Y144.524 E6.28176
G1 X302.393 Y152.631 E6.68622
G1 X292.259 Y152.631 E7.19180
G1 X292.254 Y144.537 E7.59561
G1 F2400 E3.59561
G0 F9000 X3.943 Y148.324
;TYPE:WALL-INNER
G1 F2400 E7.59561
G1 F1800 X3.943 Y148.830 E7.62086
G1 X1.403 Y148.831 E7.74758
G1 X1.404 Y148.324 E7.77287
G1 X3.943 Y148.324 E7.89955
G0 F9000 X4.343 Y147.924
;TYPE:WALL-OUTER
G1 F1800 X4.343 Y149.225 E7.96445
G1 X1.003 Y149.231 E8.13109
G1 X1.004 Y147.924 E8.19629
G1 X4.343 Y147.924 E8.36288
G0 F9000 X3.720 Y148.688
;TYPE:FILL
G1 F1800 X3.144 Y148.575 E8.37876
G1 X2.218 Y148.576 E8.39459
G1 X1.642 Y148.463 E8.42387
G1 F2400 E4.42387
G0 F9000 X296.056 Y148.330
;TYPE:WALL-INNER
G1 F2400 E8.42387
G1 F1800 X298.596 Y148.325 E8.55059
G1 X298.595 Y148.831 E8.57584
G1 X296.057 Y148.831 E8.70246
G1 X296.056 Y148.330 E8.72745
G0 F9000 X295.656 Y147.931
;TYPE:WALL-OUTER
G1 F1800 X298.996 Y147.924 E8.89409
G1 X298.995 Y149.231 E8.95929
G1 X295.657 Y149.231 E9.12583
G1 X295.656 Y147.931 E9.19068
G0 F9000 X296.215 Y148.469
;TYPE:FILL
G1 F1800 X296.788 Y148.579 E9.20626
G1 X297.713 Y148.578 E9.22195
G1 X298.289 Y148.691 E9.25123
;LAYER:1
M106 S76
G1 F2400 E5.25123
G0 F9000 X3.997 Y148.822 Z0.500
;TYPE:WALL-INNER
G1 F2400 E9.25123
G1 F1980 X3.250 Y148.831 E9.27608
G1 X1.457 Y148.831 E9.33571
G1 X1.458 Y148.324 E9.35258
G1 X3.996 Y148.324 E9.43699
G1 X3.997 Y148.822 E9.45356
G0 F9000 X3.255 Y149.231
;TYPE:WALL-OUTER
G1 F1740 X1.057 Y149.231 E9.52666
G1 X1.058 Y147.924 E9.57013
G1 X4.396 Y147.924 E9.68115
G1 X4.397 Y149.217 E9.72416
G1 X3.255 Y149.231 E9.76215
G0 F9000 X3.696 Y148.682
;TYPE:FILL
G1 F2220 X3.855 Y148.523 E9.76962
G0 F9000 X2.988 Y148.463
G1 F2220 X2.413 Y148.574 E9.78009
G1 X1.835 Y148.690 E9.79970
G1 F2400 E5.79970
G0 F9000 X296.002 Y148.324
;TYPE:WALL-INNER
G1 F2400 E9.79970
G1 F1980 X298.542 Y148.324 E9.88418
G1 X298.541 Y148.831 E9.90105
G1 X296.003 Y148.831 E9.98546
G1 X296.002 Y148.324 E10.00232
G0 F9000 X295.602 Y147.924
;TYPE:WALL-OUTER
G1 F1740 X298.942 Y147.924 E10.11341
G1 X298.941 Y149.231 E10.15688
G1 X295.603 Y149.231 E10.26790
G1 X295.602 Y147.924 E10.31138
G0 F9000 X296.401 Y148.691
;TYPE:FILL
G1 F2220 X296.977 Y148.577 E10.32202
G1 X297.904 Y148.577 E10.33266
G1 X298.400 Y148.544 E10.34919
;LAYER:2
M106 S186
G1 F2400 E6.34919
G0 F9000 X4.050 Y148.831 Z0.700
;TYPE:WALL-INNER
G1 F2400 E10.34919
G1 F2040 X1.510 Y148.831 E10.43367
G1 X1.511 Y148.324 E10.45053
G1 X4.049 Y148.324 E10.53495
G1 X4.050 Y148.831 E10.55181
G0 F9000 X4.450 Y149.231
;TYPE:WALL-OUTER
G1 F1680 X1.110 Y149.231 E10.66290
G1 X1.111 Y147.924 E10.70637
G1 X4.449 Y147.924 E10.81739
G1 X4.450 Y149.231 E10.86086
G0 F9000 X3.721 Y148.689
;TYPE:FILL
G1 F2520 X3.145 Y148.576 E10.87145
G1 X2.218 Y148.576 E10.88209
G1 X1.651 Y148.472 E10.90127
G1 F2400 E6.90127
G0 F9000 X295.949 Y148.324
;TYPE:WALL-INNER
G1 F2400 E10.90127
G1 F2040 X298.489 Y148.324 E10.98575
G1 X298.488 Y148.831 E11.00261
G1 X295.950 Y148.831 E11.08702
G1 X295.949 Y148.324 E11.10389
G0 F9000 X295.549 Y147.924
;TYPE:WALL-OUTER
G1 F1680 X298.889 Y147.924 E11.21497
G1 X298.888 Y149.231 E11.25845
G1 X295.550 Y149.231 E11.36947
G1 X295.549 Y147.924 E11.41294
G0 F9000 X296.209 Y148.464
;TYPE:FILL
G1 F2520 X296.786 Y148.577 E11.42360
G1 X297.712 Y148.577 E11.43422
G1 X298.289 Y148.691 E11.45378
;LAYER:3
M106 S206
G1 F2400 E7.45378
G0 F9000 X4.104 Y148.831 Z0.900
;TYPE:WALL-INNER
G1 F2400 E11.45378
G1 F2100 X1.564 Y148.831 E11.53827
G1 X1.565 Y148.324 E11.55513
G1 X4.103 Y148.324 E11.63954
G1 X4.104 Y148.831 E11.65641
G0 F9000 X4.504 Y149.231
;TYPE:WALL-OUTER
G1 F1620 X1.164 Y149.231 E11.76749
G1 X1.165 Y147.924 E11.81097
G1 X4.503 Y147.924 E11.92199
G1 X4.504 Y149.231 E11.96546
G0 F9000 X3.915 Y148.463
;TYPE:FILL
G1 F2760 X3.338 Y148.576 E11.97612
G1 X2.411 Y148.576 E11.98675
G1 X1.835 Y148.690 E12.00628
G1 F2400 E8.00628
G0 F9000 X295.895 Y148.324
;TYPE:WALL-INNER
G1 F2400 E12.00628
G1 F2100 X298.435 Y148.324 E12.09076
G1 X298.434 Y148.831 E12.10763
G1 X295.896 Y148.831 E12.19204
G1 X295.895 Y148.324 E12.20890
G0 F9000 X295.495 Y147.924
;TYPE:WALL-OUTER
G1 F1620 X298.835 Y147.924 E12.31999
G1 X298.834 Y149.231 E12.36346
G1 X295.496 Y149.231 E12.47449
G1 X295.495 Y147.924 E12.51796
G0 F9000 X296.401 Y148.691
;TYPE:FILL
G1 F2760 X296.977 Y148.577 E12.52860
G1 X297.554 Y148.464 E12.54816
;LAYER:4
M106 S127
G1 F2400 E8.54816
G0 F9000 X4.157 Y148.831 Z1.100
;TYPE:WALL-INNER
G1 F2400 E12.54816
G1 F3600 X3.470 Y148.831 E12.57101
G1 X3.273 Y149.337 E12.58907
G1 X3.274 Y151.675 E12.66683
G1 X2.500 Y151.675 E12.69257
G1 X2.501 Y148.831 E12.78716
G1 X1.617 Y148.831 E12.81657
G1 X1.618 Y148.324 E12.83343
G1 X4.156 Y148.324 E12.91784
G1 X4.157 Y148.831 E12.93471
G0 F9000 X3.743 Y149.231
;TYPE:WALL-OUTER
G1 F2700 X3.673 Y149.412 E12.94116
G1 X3.674 Y152.075 E13.02973
G1 X2.100 Y152.075 E13.08208
G1 X2.101 Y149.231 E13.17668
G1 X1.217 Y149.231 E13.20608
G1 X1.218 Y147.924 E13.24955
G1 X4.556 Y147.924 E13.36057
G1 X4.557 Y149.231 E13.40404
G1 X3.743 Y149.231 E13.43112
G0 F9000 X3.722 Y148.690
;TYPE:FILL
G1 F4800 X3.495 Y148.463 E13.44179
G0 F9000 X3.212 Y149.106
G1 F4800 X2.568 Y148.463 E13.47206
G0 F9000 X1.868 Y148.689
G1 F4800 X1.757 Y148.577 E13.47731
G0 F9000 X2.640 Y149.461
G1 F4800 X2.886 Y150.170 E13.50046
G1 X2.886 Y151.097 E13.52358
G1 X2.950 Y151.534 E13.53394
G1 X2.886 Y151.096 E13.55282
G1 X2.886 Y150.530 E13.57597
G1 X2.886 Y149.965 E13.59913
G1 X2.886 Y149.399 E13.62229
G1 X2.873 Y148.820 E13.64545
G1 X3.276 Y148.940 E13.65944
G1 F2400 E9.65944
G0 F9000 X295.842 Y148.324
;TYPE:WALL-INNER
G1 F2400 E13.65944
G1 F3600 X298.382 Y148.324 E13.74392
G1 X298.381 Y148.831 E13.76078
G1 X297.502 Y148.831 E13.79002
G1 X297.499 Y151.675 E13.88461
G1 X296.726 Y151.675 E13.91032
G1 X296.725 Y148.831 E14.00491
G1 X295.843 Y148.831 E14.03425
G1 X295.842 Y148.324 E14.05111
G0 F9000 X296.325 Y149.231
;TYPE:WALL-OUTER
G1 F2700 X295.443 Y149.231 E14.08045
G1 X295.442 Y147.924 E14.12392
G1 X298.782 Y147.924 E14.23501
G1 X298.781 Y149.231 E14.27848
G1 X297.901 Y149.231 E14.30775
G1 X297.898 Y152.075 E14.40234
G1 X296.326 Y152.075 E14.45462
G1 X296.325 Y149.231 E14.54921
G0 F9000 X296.863 Y149.118
;TYPE:FILL
G1 F4800 X297.112 Y149.829 E14.57258
G1 X297.111 Y150.755 E14.59583
G1 X297.358 Y151.465 E14.62083
G0 F9000 X297.362 Y148.690
G1 F4800 X296.786 Y148.577 E14.63143
G1 X296.209 Y148.464 E14.65098
G0 F9000 X298.062 Y148.464
G1 F4800 X298.239 Y148.641 E14.65931
G0 F9000 X297.361 Y148.868
;TYPE:SKIN
G1 F2700 X297.063 Y148.854 E14.66385
G1 X297.112 Y149.468 E14.68720
G1 X297.112 Y150.034 E14.71050
G1 X297.111 Y150.599 E14.73375
G1 X297.278 Y151.331 E14.75698
G1 X296.864 Y151.200 E14.77142
;LAYER:5
G1 F2400 E10.77142
G0 F9000 X4.211 Y148.831 Z1.300
;TYPE:WALL-INNER
G1 F2400 E14.77142
G1 F3600 X3.326 Y148.831 E14.80085
G1 X3.327 Y151.675 E14.89545
G1 X2.553 Y151.675 E14.92119
G1 X2.554 Y148.831 E15.01578
G1 X1.671 Y148.831 E15.04515
G1 X1.672 Y148.324 E15.06201
G1 X4.210 Y148.324 E15.14643
G1 X4.211 Y148.831 E15.16329
G0 F9000 X3.726 Y149.231
;TYPE:WALL-OUTER
G1 F2700 X3.727 Y152.075 E15.25788
G1 X2.153 Y152.075 E15.31023
G1 X2.154 Y149.231 E15.40483
G1 X1.271 Y149.231 E15.43419
G1 X1.272 Y147.924 E15.47767
G1 X4.610 Y147.924 E15.58869
G1 X4.611 Y149.231 E15.63216
G1 X3.726 Y149.231 E15.66159
G0 F9000 X3.186 Y149.192
;TYPE:FILL
G1 F4800 X2.940 Y149.901 E15.68468
G1 X2.939 Y150.828 E15.70781
G1 X2.696 Y151.534 E15.73264
G0 F9000 X2.694 Y148.758
G1 F4800 X3.338 Y148.576 E15.74650
G1 X3.915 Y148.462 E15.76606
G0 F9000 X2.063 Y148.462
G1 F4800 X1.835 Y148.690 E15.77678
G0 F9000 X2.693 Y149.193
;TYPE:SKIN
G1 F2700 X3.150 Y149.018 E15.79668
G1 X2.939 Y149.795 E15.81978
G1 X2.939 Y150.360 E15.84289
G1 X2.939 Y150.926 E15.86605
G1 X2.693 Y151.455 E15.88545
G1 F2400 E11.88545
G0 F9000 X295.789 Y148.831
;TYPE:WALL-INNER
G1 F2400 E15.88545
G1 F3600 X295.788 Y148.324 E15.90231
G1 X298.328 Y148.324 E15.98679
G1 X298.327 Y148.831 E16.00366
G1 X297.451 Y148.831 E16.03279
G1 X297.446 Y151.675 E16.12738
G1 X296.673 Y151.675 E16.15309
G1 X296.672 Y148.831 E16.24769
G1 X295.789 Y148.831 E16.27706
G0 F9000 X296.272 Y149.231
;TYPE:WALL-OUTER
G1 F2700 X295.389 Y149.231 E16.30642
G1 X295.388 Y147.924 E16.34989
G1 X298.728 Y147.924 E16.46098
G1 X298.727 Y149.231 E16.50445
G1 X297.850 Y149.231 E16.53362
G1 X297.845 Y152.075 E16.62822
G1 X296.273 Y152.075 E16.68050
G1 X296.272 Y149.231 E16.77509
G0 F9000 X296.812 Y149.206
;TYPE:FILL
G1 F4800 X297.318 Y148.699 E16.79850
G1 X297.555 Y148.463 E16.80962
G0 F9000 X296.629 Y148.463
G1 F4800 X296.401 Y148.691 E16.82035
G0 F9000 X297.308 Y149.636
G1 F4800 X297.059 Y150.348 E16.84362
G1 X296.812 Y150.993 E16.86688
G1 X297.059 Y150.397 E16.89005
G1 X297.059 Y149.831 E16.91330
G1 X297.059 Y149.265 E16.93664
G1 X297.271 Y148.771 E16.95452
G0 F9000 X297.305 Y150.999
;TYPE:SKIN
G1 F2700 X296.812 Y151.493 E16.97774
;LAYER:6
G1 F2400 E12.97774
G0 F9000 X4.265 Y148.831 Z1.500
;TYPE:WALL-INNER
G1 F2400 E16.97774
G1 F3600 X3.380 Y148.831 E17.00717
G1 X3.381 Y151.675 E17.10176
G1 X2.607 Y151.675 E17.12751
G1 X2.608 Y148.831 E17.22210
G1 X1.725 Y148.831 E17.25147
G1 X1.726 Y148.324 E17.26833
G1 X4.264 Y148.324 E17.35274
G1 X4.265 Y148.831 E17.36961
G0 F9000 X3.780 Y149.231
;TYPE:WALL-OUTER
G1 F2700 X3.781 Y152.075 E17.46420
G1 X2.207 Y152.075 E17.51655
G1 X2.208 Y149.231 E17.61114
G1 X1.325 Y149.231 E17.64051
G1 X1.326 Y147.924 E17.68398
G1 X4.664 Y147.924 E17.79500
G1 X4.665 Y149.231 E17.83848
G1 X3.780 Y149.231 E17.86791
G0 F9000 X3.721 Y148.689
;TYPE:FILL
G1 F4800 X3.495 Y148.463 E17.87854
G0 F9000 X3.240 Y149.135
G1 F4800 X2.568 Y148.463 E17.91015
G0 F9000 X2.747 Y149.567
G1 F4800 X2.993 Y150.277 E17.93333
G1 X2.993 Y151.203 E17.95658
G1 X2.950 Y151.534 E17.96194
G1 X2.993 Y151.203 E17.97582
G1 X2.993 Y150.637 E17.99907
G1 X2.994 Y150.072 E18.02227
G1 X2.994 Y149.507 E18.04543
G1 X2.926 Y148.873 E18.06866
G1 X3.241 Y148.905 E18.07919
G1 F2400 E14.07919
G0 F9000 X295.734 Y148.324
;TYPE:WALL-INNER
G1 F2400 E18.07919
G1 F3600 X298.274 Y148.324 E18.16367
G1 X298.273 Y148.831 E18.18053
G1 X297.543 Y148.831 E18.20481
G1 X297.392 Y149.379 E18.22372
G1 X297.391 Y151.675 E18.30008
G1 X296.619 Y151.675 E18.32576
G1 X296.618 Y148.831 E18.42035
G1 X295.735 Y148.831 E18.44972
G1 X295.734 Y148.324 E18.46658
G0 F9000 X296.218 Y149.231
;TYPE:WALL-OUTER
G1 F2700 X295.335 Y149.231 E18.49595
G1 X295.334 Y147.924 E18.53942
G1 X298.674 Y147.924 E18.65051
G1 X298.673 Y149.231 E18.69398
G1 X297.848 Y149.231 E18.72142
G1 X297.792 Y149.433 E18.72839
G1 X297.791 Y152.075 E18.81627
G1 X296.219 Y152.075 E18.86855
G1 X296.218 Y149.231 E18.96314
G0 F9000 X296.757 Y149.012
;TYPE:FILL
G1 F4800 X297.004 Y149.721 E18.98631
G1 X297.004 Y150.648 E19.00951
G1 X297.250 Y151.357 E19.03447
G0 F9000 X297.421 Y148.749
G1 F4800 X296.786 Y148.577 E19.04787
G1 X296.209 Y148.464 E19.06742
G0 F9000 X298.062 Y148.464
G1 F4800 X298.133 Y148.535 E19.07076
G0 F9000 X297.382 Y148.889
;TYPE:SKIN
G1 F2700 X297.010 Y148.800 E19.07630
G1 X297.008 Y149.364 E19.09989
G1 X297.004 Y149.925 E19.12307
G1 X297.003 Y150.491 E19.14623
G1 X297.003 Y151.057 E19.16938
G1 X297.199 Y151.535 E19.18657
;LAYER:7
G1 F2400 E15.18657
G0 F9000 X4.318 Y148.831 Z1.700
;TYPE:WALL-INNER
G1 F2400 E19.18657
G1 F3600 X3.434 Y148.831 E19.21597
G1 X3.435 Y151.675 E19.31056
G1 X2.661 Y151.675 E19.33630
G1 X2.662 Y148.831 E19.43089
G1 X1.778 Y148.831 E19.46030
G1 X1.779 Y148.324 E19.47716
G1 X4.317 Y148.324 E19.56157
G1 X4.318 Y148.831 E19.57844
G0 F9000 X3.834 Y149.231
;TYPE:WALL-OUTER
G1 F2700 X3.835 Y152.075 E19.67303
G1 X2.261 Y152.075 E19.72538
G1 X2.262 Y149.231 E19.81997
G1 X1.378 Y149.231 E19.84937
G1 X1.379 Y147.924 E19.89284
G1 X4.717 Y147.924 E20.00387
G1 X4.718 Y149.231 E20.04734
G1 X3.834 Y149.231 E20.07674
G0 F9000 X3.688 Y148.690
;TYPE:FILL
G1 F4800 X3.915 Y148.463 E20.08742
G0 F9000 X3.293 Y149.084
G1 F4800 X3.047 Y149.794 E20.11053
G1 X3.047 Y150.719 E20.13361
G1 X2.801 Y151.429 E20.15860
G0 F9000 X2.761 Y148.690
G1 F4800 X2.988 Y148.463 E20.16928
G0 F9000 X2.062 Y148.463
G1 F4800 X1.918 Y148.607 E20.17605
G1 F2400 E16.17605
G0 F9000 X295.681 Y148.324
;TYPE:WALL-INNER
G1 F2400 E20.17605
G1 F3600 X298.221 Y148.324 E20.26053
G1 X298.220 Y148.831 E20.27740
G1 X297.338 Y148.831 E20.30673
G1 X297.337 Y151.675 E20.40132
G1 X296.565 Y151.675 E20.42700
G1 X296.564 Y148.831 E20.52159
G1 X295.682 Y148.831 E20.55093
G1 X295.681 Y148.324 E20.56779
G0 F9000 X296.164 Y149.231
;TYPE:WALL-OUTER
G1 F2700 X295.282 Y149.231 E20.59712
G1 X295.281 Y147.924 E20.64060
G1 X298.621 Y147.924 E20.75168
G1 X298.620 Y149.231 E20.79516
G1 X297.738 Y149.231 E20.82449
G1 X297.737 Y152.075 E20.91908
G1 X296.165 Y152.075 E20.97137
G1 X296.164 Y149.231 E21.06596
G0 F9000 X296.703 Y149.315
;TYPE:FILL
G1 F4800 X297.261 Y148.756 E21.08914
G1 X297.554 Y148.464 E21.10290
G0 F9000 X296.628 Y148.464
G1 F4800 X296.401 Y148.691 E21.11358
G0 F9000 X297.196 Y149.748
G1 F4800 X296.950 Y150.458 E21.13670
G1 X296.704 Y151.167 E21.16166
;LAYER:8
G1 F2400 E17.16166
G0 F9000 X4.372 Y148.831 Z1.900
;TYPE:WALL-INNER
G1 F2400 E21.16166
G1 F3600 X3.487 Y148.831 E21.19109
G1 X3.488 Y151.675 E21.28568
G1 X2.714 Y151.675 E21.31143
G1 X2.715 Y148.831 E21.40602
G1 X1.832 Y148.831 E21.43539
G1 X1.833 Y148.324 E21.45225
G1 X4.371 Y148.324 E21.53667
G1 X4.372 Y148.831 E21.55353
G0 F9000 X3.887 Y149.231
;TYPE:WALL-OUTER
G1 F2700 X3.888 Y152.075 E21.64812
G1 X2.314 Y152.075 E21.70047
G1 X2.315 Y149.231 E21.79506
G1 X1.432 Y149.231 E21.82443
G1 X1.433 Y147.924 E21.86790
G1 X4.771 Y147.924 E21.97893
G1 X4.772 Y149.231 E22.02240
G1 X3.887 Y149.231 E22.05183
G0 F9000 X3.347 Y149.241
;TYPE:FILL
G1 F4800 X2.824 Y148.719 E22.07499
G1 X2.568 Y148.463 E22.08704
G0 F9000 X3.495 Y148.463
G1 F4800 X3.722 Y148.690 E22.09771
G0 F9000 X2.854 Y149.675
G1 F4800 X3.100 Y150.384 E22.12086
G1 X3.347 Y151.094 E22.14587
G1 F2400 E18.14587
G0 F9000 X295.628 Y148.831
;TYPE:WALL-INNER
G1 F2400 E22.14587
G1 F3600 X295.627 Y148.324 E22.16273
G1 X298.167 Y148.324 E22.24721
G1 X298.166 Y148.831 E22.26407
G1 X297.285 Y148.831 E22.29338
G1 X297.284 Y151.675 E22.38797
G1 X296.512 Y151.675 E22.41365
G1 X296.511 Y148.831 E22.50824
G1 X295.628 Y148.831 E22.53761
G0 F9000 X296.111 Y149.231
;TYPE:WALL-OUTER
G1 F2700 X295.228 Y149.231 E22.56697
G1 X295.227 Y147.924 E22.61045
G1 X298.567 Y147.924 E22.72153
G1 X298.566 Y149.231 E22.76501
G1 X297.685 Y149.231 E22.79431
G1 X297.684 Y152.075 E22.88890
G1 X296.112 Y152.075 E22.94118
G1 X296.111 Y149.231 E23.03578
G0 F9000 X296.436 Y148.691
;TYPE:FILL
G1 F4800 X296.429 Y148.684 E23.04752
G1 X296.896 Y149.614 E23.07071
G1 X296.897 Y150.540 E23.09389
G1 X297.143 Y151.250 E23.11888
G0 F9000 X297.362 Y148.690
G1 F4800 X297.136 Y148.464 E23.12951
;LAYER:9
G1 F2400 E19.12951
G0 F9000 X4.425 Y148.831 Z2.100
;TYPE:WALL-INNER
G1 F2400 E23.12951
G1 F3600 X3.541 Y148.831 E23.15891
G1 X3.542 Y151.675 E23.25350
G1 X2.768 Y151.675 E23.27925
G1 X2.769 Y148.831 E23.37384
G1 X1.885 Y148.831 E23.40324
G1 X1.886 Y148.324 E23.42010
G1 X4.424 Y148.324 E23.50452
G1 X4.425 Y148.831 E23.52138
G0 F9000 X3.941 Y149.231
;TYPE:WALL-OUTER
G1 F2700 X3.942 Y152.075 E23.61597
G1 X2.368 Y152.075 E23.66832
