;Generated with Cura_SteamEngine 15.01
; Default start code
G28 ; Home extruder
G1 Z15 F100
M107 ; Turn off fan
G90 ; Absolute positioning
M82 ; Extruder in absolute mode
M190 S50
; Activate all used extruder
M104 T0 S210
G92 E0 ; Reset extruder position
; Wait for all used extruders to reach temperature
M109 T0 S210
;Layer count: 131
;LAYER:0
M107
G0 F9000 X128.407 Y85.241 Z0.300
G0 X128.454 Y86.805
;TYPE:SKIRT
G1 F1800 X128.407 Y85.241 E0.07806
G1 X130.059 Y83.886 E0.18466
G1 X130.921 Y83.552 E0.23078
G1 X131.540 Y83.416 E0.26240
G1 X132.156 Y83.339 E0.29337
G1 X133.464 Y83.308 E0.35865
G1 X133.771 Y83.307 E0.37396
G1 X134.835 Y83.306 E0.42704
G1 X155.804 Y83.307 E1.47319
G1 X156.865 Y83.306 E1.52613
G1 X169.646 Y83.306 E2.16377
G1 X170.405 Y83.339 E2.20168
G1 X170.971 Y83.388 E2.23002
G1 X172.203 Y83.843 E2.29554
G1 X173.797 Y85.315 E2.40379
G1 X173.847 Y97.409 E3.00717
G1 X173.835 Y100.844 E3.17854
G1 X173.836 Y113.783 E3.82407
G1 X173.835 Y114.919 E3.88074
G1 X173.836 Y127.867 E4.52672
G1 X173.835 Y129.003 E4.58340
G1 X173.836 Y141.950 E5.22933
G1 X173.835 Y143.086 E5.28600
G1 X173.836 Y156.033 E5.93193
G1 X173.835 Y157.169 E5.98861
G1 X173.836 Y170.117 E6.63458
G1 X173.835 Y171.253 E6.69126
G1 X173.836 Y184.200 E7.33719
G1 X173.835 Y185.336 E7.39386
G1 X173.836 Y198.283 E8.03979
G1 X173.835 Y199.419 E8.09647
G1 X173.846 Y202.778 E8.26405
G1 X173.806 Y213.374 E8.79269
G1 X173.703 Y214.762 E8.86213
G1 X172.301 Y216.071 E8.95782
G1 X171.481 Y216.444 E9.00276
G1 X170.787 Y216.635 E9.03868
G1 X169.793 Y216.691 E9.08835
G1 X168.522 Y216.694 E9.15176
G1 X147.550 Y216.693 E10.19805
G1 X146.490 Y216.694 E10.25094
G1 X133.748 Y216.694 E10.88664
G1 X132.952 Y216.679 E10.92636
G1 X132.384 Y216.666 E10.95470
G1 X132.148 Y216.666 E10.96648
G1 X131.319 Y216.537 E11.00833
G1 X130.893 Y216.439 E11.03014
G1 X130.069 Y216.112 E11.07437
G1 X128.405 Y214.781 E11.18068
G1 X128.454 Y213.219 E11.25864
G1 X128.332 Y181.818 E12.82526
G1 X128.332 Y118.431 E15.98765
G1 X128.454 Y86.805 E17.56549
G1 F2400 E13.56549
G0 F9000 X132.434 Y87.133
;TYPE:WALL-INNER
G1 F2400 E17.56549
G1 F1800 X133.521 Y87.108 E17.61973
G1 X169.573 Y87.106 E19.41837
G1 X170.005 Y87.125 E19.43995
G1 X170.047 Y97.408 E19.95297
G1 X170.035 Y100.832 E20.12380
G1 X170.035 Y199.417 E25.04222
G1 X170.046 Y202.775 E25.20976
G1 X170.007 Y212.873 E25.71355
G1 X168.516 Y212.894 E25.78794
G1 X133.789 Y212.894 E27.52048
G1 X133.033 Y212.880 E27.55821
G1 X132.446 Y212.867 E27.58750
G1 X132.252 Y212.837 E27.59729
G1 X132.132 Y181.812 E29.14515
G1 X132.132 Y118.439 E32.30684
G1 X132.252 Y87.156 E33.86757
G1 X132.434 Y87.133 E33.87672
G0 F9000 X132.404 Y86.734
;TYPE:WALL-OUTER
G1 F1800 X133.512 Y86.708 E33.93201
G1 X169.567 Y86.706 E35.73080
G1 X170.188 Y86.733 E35.76181
G1 X170.220 Y86.735 E35.76341
G1 X170.392 Y86.799 E35.77257
G1 X170.403 Y86.809 E35.77331
G1 X170.447 Y97.409 E36.30215
G1 X170.435 Y199.416 E41.39130
G1 X170.446 Y202.776 E41.55893
G1 X170.406 Y213.189 E42.07844
G1 X170.388 Y213.206 E42.07968
G1 X170.319 Y213.237 E42.08345
G1 X170.235 Y213.260 E42.08780
G1 X169.688 Y213.291 E42.11513
G1 X133.782 Y213.294 E43.90649
G1 X132.416 Y213.266 E43.97465
G1 X131.907 Y213.183 E44.00038
G1 X131.854 Y213.162 E44.00323
G1 X131.732 Y118.438 E48.72903
G1 X131.854 Y86.837 E50.30562
G1 X132.119 Y86.770 E50.31926
G1 X132.404 Y86.734 E50.33359
G0 F9000 X132.802 Y87.264
;TYPE:SKIN
G1 F1800 X169.866 Y124.329 E52.94869
G0 F9000 X169.866 Y124.894
G1 F1800 X132.390 Y87.418 E55.59283
G0 F9000 X132.390 Y87.983
G1 F1800 X169.866 Y125.460 E58.23700
G0 F9000 X169.866 Y126.026
G1 F1800 X132.390 Y88.549 E60.88117
G0 F9000 X132.390 Y89.115
G1 F1800 X169.866 Y126.591 E63.52530
G0 F9000 X169.866 Y127.157
G1 F1800 X132.390 Y89.680 E66.16947
G0 F9000 X132.390 Y90.246
G1 F1800 X169.866 Y127.723 E68.81364
G0 F9000 X169.866 Y128.288
G1 F1800 X132.390 Y90.812 E71.45777
G0 F9000 X132.390 Y91.377
G1 F1800 X169.866 Y128.854 E74.10194
G0 F9000 X169.866 Y129.420
G1 F1800 X132.390 Y91.943 E76.74611
G0 F9000 X132.390 Y92.509
G1 F1800 X169.866 Y129.986 E79.39028
G0 F9000 X169.866 Y130.551
G1 F1800 X132.390 Y93.075 E82.03442
G0 F9000 X132.390 Y93.640
G1 F1800 X169.866 Y131.117 E84.67858
G0 F9000 X169.866 Y131.683
G1 F1800 X132.390 Y94.206 E87.32275
G0 F9000 X132.390 Y94.772
G1 F1800 X169.866 Y132.248 E89.96689
G0 F9000 X169.866 Y132.814
G1 F1800 X132.390 Y95.337 E92.61106
G0 F9000 X132.390 Y95.903
G1 F1800 X169.866 Y133.380 E95.25523
G0 F9000 X169.866 Y133.945
G1 F1800 X132.390 Y96.469 E97.89936
G0 F9000 X132.390 Y97.034
G1 F1800 X169.866 Y134.511 E100.54353
G0 F9000 X169.866 Y135.077
G1 F1800 X132.390 Y97.600 E103.18770
G0 F9000 X132.390 Y98.166
G1 F1800 X169.866 Y135.642 E105.83184
G0 F9000 X169.866 Y136.208
G1 F1800 X132.390 Y98.731 E108.47600
G0 F9000 X132.390 Y99.297
G1 F1800 X169.866 Y136.774 E111.12017
G0 F9000 X169.866 Y137.339
G1 F1800 X132.390 Y99.863 E113.76431
G0 F9000 X133.356 Y87.252
G1 F1800 X169.866 Y123.763 E116.34032
G0 F9000 X169.866 Y123.197
G1 F1800 X133.917 Y87.248 E118.87672
G0 F9000 X134.483 Y87.248
G1 F1800 X169.866 Y122.632 E121.37321
G0 F9000 X169.866 Y122.066
G1 F1800 X135.048 Y87.248 E123.82981
G0 F9000 X135.614 Y87.248
G1 F1800 X169.866 Y121.500 E126.24648
G0 F9000 X169.866 Y120.935
G1 F1800 X136.180 Y87.248 E128.62324
G0 F9000 X136.745 Y87.248
G1 F1800 X169.866 Y120.369 E130.96011
G0 F9000 X169.866 Y137.905
G1 F1800 X132.390 Y100.428 E133.60428
G0 F9000 X132.390 Y100.994
G1 F1800 X169.866 Y138.471 E136.24844
G0 F9000 X169.866 Y139.036
G1 F1800 X132.390 Y101.560 E138.89258
G0 F9000 X132.390 Y102.126
G1 F1800 X169.866 Y139.602 E141.53671
G0 F9000 X169.866 Y140.168
G1 F1800 X132.390 Y102.691 E144.18088
G0 F9000 X132.390 Y103.257
G1 F1800 X169.866 Y140.734 E146.82505
G0 F9000 X169.866 Y141.299
G1 F1800 X132.390 Y103.823 E149.46919
G0 F9000 X132.390 Y104.388
G1 F1800 X169.866 Y141.865 E152.11336
G0 F9000 X169.866 Y142.431
G1 F1800 X132.390 Y104.954 E154.75753
G0 F9000 X132.390 Y105.520
G1 F1800 X169.866 Y142.996 E157.40166
G0 F9000 X169.866 Y143.562
G1 F1800 X132.390 Y106.085 E160.04583
G0 F9000 X132.390 Y106.651
G1 F1800 X169.866 Y144.128 E162.69000
G0 F9000 X169.866 Y144.693
G1 F1800 X132.390 Y107.217 E165.33413
G0 F9000 X132.390 Y107.782
G1 F1800 X169.866 Y145.259 E167.97830
G0 F9000 X169.866 Y145.825
G1 F1800 X132.390 Y108.348 E170.62247
G0 F9000 X132.390 Y108.914
G1 F1800 X169.866 Y146.390 E173.26661
G0 F9000 X169.866 Y146.956
G1 F1800 X132.390 Y109.479 E175.91078
G0 F9000 X132.390 Y110.045
G1 F1800 X169.866 Y147.522 E178.55495
G0 F9000 X169.866 Y148.087
G1 F1800 X132.390 Y110.611 E181.19908
G0 F9000 X132.390 Y111.176
G1 F1800 X169.866 Y148.653 E183.84325
G0 F9000 X169.866 Y149.219
G1 F1800 X132.390 Y111.742 E186.48742
G0 F9000 X132.390 Y112.308
G1 F1800 X169.866 Y149.785 E189.13159
G0 F9000 X169.867 Y150.351
G1 F1800 X132.390 Y112.874 E191.77579
G0 F9000 X132.390 Y113.439
G1 F1800 X169.867 Y150.917 E194.42003
G0 F9000 X169.867 Y151.482
G1 F1800 X132.390 Y114.005 E197.06424
G0 F9000 X132.390 Y114.571
G1 F1800 X169.867 Y152.048 E199.70844
G0 F9000 X169.867 Y152.614
G1 F1800 X132.390 Y115.136 E202.35268
G0 F9000 X132.390 Y115.702
G1 F1800 X169.867 Y153.179 E204.99689
G0 F9000 X169.867 Y153.745
G1 F1800 X132.390 Y116.268 E207.64109
G0 F9000 X132.390 Y116.833
G1 F1800 X169.867 Y154.311 E210.28533
G0 F9000 X169.867 Y154.876
G1 F1800 X132.390 Y117.399 E212.92954
G0 F9000 X132.390 Y117.965
G1 F1800 X169.867 Y155.442 E215.57374
G0 F9000 X169.867 Y156.008
G1 F1800 X132.390 Y118.530 E218.21798
G0 F9000 X132.390 Y119.096
G1 F1800 X169.867 Y156.573 E220.86219
G0 F9000 X169.867 Y157.139
G1 F1800 X132.390 Y119.662 E223.50639
G0 F9000 X132.390 Y120.227
G1 F1800 X169.867 Y157.705 E226.15063
G0 F9000 X169.867 Y158.271
G1 F1800 X132.390 Y120.793 E228.79487
G0 F9000 X132.390 Y121.359
G1 F1800 X169.867 Y158.836 E231.43908
G0 F9000 X169.867 Y159.402
G1 F1800 X132.390 Y121.925 E234.08328
G0 F9000 X132.390 Y122.490
G1 F1800 X169.867 Y159.968 E236.72752
G0 F9000 X169.867 Y160.533
G1 F1800 X132.390 Y123.056 E239.37173
G0 F9000 X132.390 Y123.622
G1 F1800 X169.867 Y161.099 E242.01593
G0 F9000 X169.867 Y161.665
G1 F1800 X132.390 Y124.187 E244.66017
G0 F9000 X132.390 Y124.753
G1 F1800 X169.867 Y162.230 E247.30437
G0 F9000 X169.867 Y162.796
G1 F1800 X132.390 Y125.319 E249.94858
G0 F9000 X132.390 Y125.884
G1 F1800 X169.867 Y163.362 E252.59282
G0 F9000 X169.867 Y163.927
G1 F1800 X132.390 Y126.450 E255.23702
G0 F9000 X132.390 Y127.016
G1 F1800 X169.867 Y164.493 E257.88123
G0 F9000 X169.867 Y165.059
G1 F1800 X132.390 Y127.581 E260.52547
G0 F9000 X132.390 Y128.147
G1 F1800 X169.867 Y165.624 E263.16967
G0 F9000 X169.867 Y166.190
G1 F1800 X132.390 Y128.713 E265.81388
G0 F9000 X132.390 Y129.278
G1 F1800 X169.867 Y166.756 E268.45812
G0 F9000 X169.867 Y167.321
G1 F1800 X132.390 Y129.844 E271.10232
G0 F9000 X132.390 Y130.410
G1 F1800 X169.867 Y167.887 E273.74653
G0 F9000 X169.867 Y168.453
G1 F1800 X132.390 Y130.975 E276.39077
G0 F9000 X132.390 Y131.541
G1 F1800 X169.867 Y169.019 E279.03501
G0 F9000 X169.867 Y169.584
G1 F1800 X132.390 Y132.107 E281.67921
G0 F9000 X132.390 Y132.673
G1 F1800 X169.867 Y170.150 E284.32342
G0 F9000 X169.867 Y170.716
G1 F1800 X132.390 Y133.238 E286.96766
G0 F9000 X132.390 Y133.804
G1 F1800 X169.867 Y171.281 E289.61186
G0 F9000 X169.867 Y171.847
G1 F1800 X132.390 Y134.370 E292.25607
G0 F9000 X132.390 Y134.935
G1 F1800 X169.867 Y172.413 E294.90031
G0 F9000 X169.867 Y172.978
G1 F1800 X132.390 Y135.501 E297.54451
G0 F9000 X132.390 Y136.067
G1 F1800 X169.867 Y173.544 E300.18872
G0 F9000 X169.867 Y174.110
G1 F1800 X132.390 Y136.632 E302.83296
G0 F9000 X132.390 Y137.198
G1 F1800 X169.867 Y174.675 E305.47716
G0 F9000 X169.867 Y175.241
G1 F1800 X132.390 Y137.764 E308.12137
G0 F9000 X132.390 Y138.329
G1 F1800 X169.867 Y175.807 E310.76561
G0 F9000 X169.867 Y176.372
G1 F1800 X132.390 Y138.895 E313.40981
G0 F9000 X132.390 Y139.461
G1 F1800 X169.867 Y176.938 E316.05402
G0 F9000 X169.867 Y177.504
G1 F1800 X132.390 Y140.026 E318.69826
G0 F9000 X132.390 Y140.592
G1 F1800 X169.867 Y178.069 E321.34246
G0 F9000 X169.867 Y178.635
G1 F1800 X132.390 Y141.158 E323.98667
G0 F9000 X132.390 Y141.723
G1 F1800 X169.867 Y179.201 E326.63091
G0 F9000 X169.867 Y179.767
G1 F1800 X132.390 Y142.289 E329.27515
G0 F9000 X132.390 Y142.855
G1 F1800 X169.867 Y180.332 E331.91935
G0 F9000 X169.867 Y180.898
G1 F1800 X132.390 Y143.421 E334.56356
G0 F9000 X132.390 Y143.986
G1 F1800 X169.868 Y181.464 E337.20783
G0 F9000 X169.868 Y182.030
G1 F1800 X132.390 Y144.552 E339.85211
G0 F9000 X132.390 Y145.118
G1 F1800 X169.868 Y182.596 E342.49638
G0 F9000 X169.868 Y183.161
G1 F1800 X132.390 Y145.683 E345.14066
G0 F9000 X132.390 Y146.249
G1 F1800 X169.868 Y183.727 E347.78493
G0 F9000 X169.868 Y184.293
G1 F1800 X132.390 Y146.815 E350.42921
G0 F9000 X132.390 Y147.380
G1 F1800 X169.868 Y184.858 E353.07348
G0 F9000 X169.868 Y185.424
G1 F1800 X132.390 Y147.946 E355.71776
G0 F9000 X132.390 Y148.512
G1 F1800 X169.868 Y185.990 E358.36203
G0 F9000 X169.868 Y186.555
G1 F1800 X132.390 Y149.077 E361.00631
G0 F9000 X132.390 Y149.643
G1 F1800 X169.868 Y187.121 E363.65058
G0 F9000 X169.868 Y187.687
G1 F1800 X132.390 Y150.209 E366.29486
G0 F9000 X132.390 Y150.775
G1 F1800 X169.868 Y188.253 E368.93913
G0 F9000 X169.868 Y188.818
G1 F1800 X132.390 Y151.341 E371.58337
G0 F9000 X132.390 Y151.907
G1 F1800 X169.868 Y189.384 E374.22761
G0 F9000 X169.868 Y189.950
G1 F1800 X132.390 Y152.472 E376.87189
G0 F9000 X132.390 Y153.038
G1 F1800 X169.868 Y190.515 E379.51613
G0 F9000 X169.868 Y191.081
G1 F1800 X132.390 Y153.604 E382.16037
G0 F9000 X132.390 Y154.169
G1 F1800 X169.868 Y191.647 E384.80465
G0 F9000 X169.868 Y192.212
G1 F1800 X132.390 Y154.735 E387.44889
G0 F9000 X132.390 Y155.301
G1 F1800 X169.868 Y192.778 E390.09313
G0 F9000 X169.868 Y193.344
G1 F1800 X132.390 Y155.866 E392.73740
G0 F9000 X132.390 Y156.432
G1 F1800 X169.868 Y193.909 E395.38164
G0 F9000 X169.868 Y194.475
G1 F1800 X132.390 Y156.998 E398.02588
G0 F9000 X132.390 Y157.563
G1 F1800 X169.868 Y195.041 E400.67016
G0 F9000 X169.868 Y195.606
G1 F1800 X132.390 Y158.129 E403.31440
G0 F9000 X132.390 Y158.695
G1 F1800 X169.868 Y196.172 E405.95864
G0 F9000 X169.868 Y196.738
G1 F1800 X132.390 Y159.260 E408.60291
G0 F9000 X132.390 Y159.826
G1 F1800 X169.868 Y197.304 E411.24719
G0 F9000 X169.868 Y197.869
G1 F1800 X132.390 Y160.392 E413.89143
G0 F9000 X132.390 Y160.958
G1 F1800 X169.868 Y198.435 E416.53567
G0 F9000 X169.868 Y199.001
G1 F1800 X132.390 Y161.523 E419.17994
G0 F9000 X132.390 Y162.089
G1 F1800 X169.868 Y199.566 E421.82418
G0 F9000 X169.868 Y200.132
G1 F1800 X132.390 Y162.655 E424.46842
G0 F9000 X132.390 Y163.220
G1 F1800 X169.868 Y200.698 E427.11270
G0 F9000 X169.868 Y201.263
G1 F1800 X132.390 Y163.786 E429.75694
G0 F9000 X132.390 Y164.352
G1 F1800 X169.868 Y201.829 E432.40118
G0 F9000 X169.868 Y202.395
G1 F1800 X132.390 Y164.917 E435.04545
G0 F9000 X132.390 Y165.483
G1 F1800 X169.868 Y202.960 E437.68969
G0 F9000 X169.868 Y203.526
G1 F1800 X132.390 Y166.049 E440.33393
G0 F9000 X132.390 Y166.614
G1 F1800 X169.868 Y204.092 E442.97821
G0 F9000 X169.868 Y204.657
G1 F1800 X132.390 Y167.180 E445.62245
G0 F9000 X132.390 Y167.746
G1 F1800 X169.868 Y205.223 E448.26669
G0 F9000 X169.868 Y205.789
G1 F1800 X132.390 Y168.311 E450.91096
G0 F9000 X132.390 Y168.877
G1 F1800 X169.868 Y206.354 E453.55520
G0 F9000 X169.868 Y206.920
G1 F1800 X132.390 Y169.443 E456.19944
G0 F9000 X132.390 Y170.008
G1 F1800 X169.868 Y207.486 E458.84372
G0 F9000 X169.868 Y208.052
G1 F1800 X132.390 Y170.574 E461.48799
G0 F9000 X132.390 Y171.140
G1 F1800 X169.868 Y208.617 E464.13223
G0 F9000 X169.868 Y209.183
G1 F1800 X132.390 Y171.706 E466.77647
G0 F9000 X132.390 Y172.271
G1 F1800 X169.868 Y209.749 E469.42075
G0 F9000 X169.868 Y210.314
G1 F1800 X132.390 Y172.837 E472.06499
G0 F9000 X132.390 Y173.403
G1 F1800 X169.868 Y210.880 E474.70923
G0 F9000 X169.868 Y211.446
G1 F1800 X132.390 Y173.968 E477.35351
G0 F9000 X132.390 Y174.534
G1 F1800 X169.868 Y212.011 E479.99775
G0 F9000 X169.868 Y212.577
G1 F1800 X132.390 Y175.100 E482.64199
G0 F9000 X132.390 Y175.665
G1 F1800 X169.459 Y212.734 E485.25740
G0 F9000 X168.893 Y212.734
G1 F1800 X132.390 Y176.231 E487.83289
G0 F9000 X132.390 Y176.797
G1 F1800 X168.328 Y212.735 E490.36851
G0 F9000 X167.763 Y212.735
G1 F1800 X132.390 Y177.362 E492.86426
G0 F9000 X132.390 Y177.928
G1 F1800 X167.197 Y212.735 E495.32009
G0 F9000 X166.632 Y212.735
G1 F1800 X132.390 Y178.494 E497.73601
G0 F9000 X132.390 Y179.059
G1 F1800 X166.066 Y212.735 E500.11203
G0 F9000 X165.501 Y212.736
G1 F1800 X132.390 Y179.625 E502.44819
G0 F9000 X132.390 Y180.191
G1 F1800 X164.936 Y212.736 E504.74445
G0 F9000 X164.370 Y212.736
G1 F1800 X132.390 Y180.756 E507.00081
G0 F9000 X132.390 Y181.322
G1 F1800 X163.805 Y212.737 E509.21731
G0 F9000 X163.239 Y212.737
G1 F1800 X132.390 Y181.888 E511.39388
G0 F9000 X132.390 Y182.454
G1 F1800 X162.674 Y212.738 E513.53058
G0 F9000 X162.109 Y212.738
G1 F1800 X132.390 Y183.019 E515.62741
G0 F9000 X132.390 Y183.585
G1 F1800 X161.543 Y212.738 E517.68431
G0 F9000 X160.978 Y212.738
G1 F1800 X132.390 Y184.151 E519.70132
G0 F9000 X132.390 Y184.716
G1 F1800 X160.412 Y212.738 E521.67842
G0 F9000 X159.847 Y212.739
G1 F1800 X132.390 Y185.282 E523.61566
G0 F9000 X132.390 Y185.848
G1 F1800 X159.282 Y212.739 E525.51300
G0 F9000 X158.717 Y212.740
G1 F1800 X132.390 Y186.413 E527.37051
G0 F9000 X132.390 Y186.979
G1 F1800 X158.151 Y212.740 E529.18809
G0 F9000 X157.585 Y212.740
G1 F1800 X132.390 Y187.545 E530.96573
G0 F9000 X132.390 Y188.110
G1 F1800 X157.020 Y212.740 E532.70351
G0 F9000 X156.455 Y212.740
G1 F1800 X132.390 Y188.676 E534.40139
G0 F9000 X132.390 Y189.242
G1 F1800 X155.890 Y212.741 E536.05941
G0 F9000 X155.324 Y212.741
G1 F1800 X132.390 Y189.807 E537.67753
G0 F9000 X132.390 Y190.373
G1 F1800 X154.758 Y212.741 E539.25571
G0 F9000 X154.193 Y212.742
G1 F1800 X132.390 Y190.939 E540.79403
G0 F9000 X132.390 Y191.505
G1 F1800 X153.628 Y212.742 E542.29245
G0 F9000 X153.063 Y212.742
G1 F1800 X132.390 Y192.070 E543.75101
G0 F9000 X132.390 Y192.636
G1 F1800 X152.497 Y212.742 E545.16963
