;Generated with Cura_SteamEngine 15.01
; Default start code
G28 ; Home extruder
G1 Z15 F100
M107 ; Turn off fan
G90 ; Absolute positioning
M82 ; Extruder in absolute mode
M190 S50
; Activate all used extruder
M104 T0 S210
G92 E0 ; Reset extruder position
; Wait for all used extruders to reach temperature
M109 T0 S210
;Layer count: 47
;LAYER:0
M107
G0 F9000 X109.730 Y93.786 Z0.300
;TYPE:SKIRT
G1 F1800 X110.574 Y92.824 E0.06385
G1 X111.536 Y91.980 E0.12769
G1 X112.602 Y91.268 E0.19165
G1 X113.750 Y90.701 E0.25553
G1 X114.964 Y90.289 E0.31949
G1 X116.221 Y90.039 E0.38343
G1 X117.409 Y89.962 E0.44282
G1 X182.588 Y89.962 E3.69462
G1 X183.199 Y90.001 E3.72516
G1 X183.784 Y90.042 E3.75442
G1 X185.034 Y90.290 E3.81800
G1 X186.248 Y90.702 E3.88196
G1 X187.396 Y91.269 E3.94583
G1 X188.462 Y91.981 E4.00979
G1 X189.424 Y92.825 E4.07364
G1 X190.268 Y93.787 E4.13748
G1 X190.980 Y94.853 E4.20144
G1 X191.547 Y96.001 E4.26532
G1 X191.959 Y97.215 E4.32928
G1 X192.208 Y98.468 E4.39301
G1 X192.263 Y99.280 E4.43362
G1 X192.287 Y128.403 E5.88657
G1 X192.288 Y167.933 E7.85873
G1 X191.696 Y172.425 E8.08477
G1 X190.870 Y178.701 E8.40058
G1 X189.058 Y183.073 E8.63670
G1 X186.643 Y188.906 E8.95166
G1 X183.760 Y192.661 E9.18785
G1 X179.918 Y197.668 E9.50271
G1 X171.155 Y204.394 E10.05383
G1 X166.781 Y206.204 E10.29000
G1 X160.950 Y208.620 E10.60489
G1 X150.000 Y210.061 E11.15590
G1 X143.743 Y209.238 E11.47075
G1 X139.050 Y208.619 E11.70691
G1 X128.845 Y204.392 E12.25799
G1 X123.837 Y200.550 E12.57290
G1 X120.082 Y197.667 E12.80908
G1 X113.357 Y188.905 E13.36013
G1 X109.130 Y178.699 E13.91126
G1 X107.713 Y167.932 E14.45306
G1 X107.712 Y99.659 E17.85921
G1 X107.789 Y98.471 E17.91860
G1 X108.039 Y97.214 E17.98254
G1 X108.451 Y96.000 E18.04650
G1 X109.018 Y94.852 E18.11038
G1 X109.730 Y93.786 E18.17434
G1 F2400 E14.17434
G0 F9000 X112.750 Y96.107
;TYPE:WALL-INNER
G1 F2400 E18.17434
G1 F1800 X113.267 Y95.517 E18.21347
G1 X113.857 Y95.000 E18.25261
G1 X114.505 Y94.567 E18.29149
G1 X115.210 Y94.219 E18.33072
G1 X115.952 Y93.967 E18.36981
G1 X116.712 Y93.816 E18.40847
G1 X117.537 Y93.762 E18.44972
G1 X182.464 Y93.762 E21.68894
G1 X183.287 Y93.817 E21.73009
G1 X184.046 Y93.968 E21.76870
G1 X184.788 Y94.220 E21.80779
G1 X185.493 Y94.568 E21.84702
G1 X186.141 Y95.001 E21.88590
G1 X186.731 Y95.518 E21.92504
G1 X187.248 Y96.108 E21.96418
G1 X187.681 Y96.756 E22.00306
G1 X188.029 Y97.461 E22.04228
G1 X188.281 Y98.203 E22.08138
G1 X188.432 Y98.962 E22.11999
G1 X188.463 Y99.416 E22.14269
G1 X188.488 Y167.683 E25.54854
G1 X187.167 Y177.709 E26.05307
G1 X183.324 Y186.990 E26.55422
G1 X177.208 Y194.958 E27.05535
G1 X169.238 Y201.075 E27.55659
G1 X159.961 Y204.917 E28.05754
G1 X150.000 Y206.228 E28.55878
G1 X140.041 Y204.916 E29.05993
G1 X130.760 Y201.073 E29.56109
G1 X122.792 Y194.957 E30.06222
G1 X116.676 Y186.989 E30.56334
G1 X112.833 Y177.708 E31.06450
G1 X111.513 Y167.682 E31.56902
G1 X111.512 Y99.787 E34.95631
G1 X111.566 Y98.962 E34.99756
G1 X111.717 Y98.202 E35.03622
G1 X111.969 Y97.460 E35.07531
G1 X112.317 Y96.755 E35.11454
G1 X112.750 Y96.107 E35.15342
G0 F9000 X112.432 Y95.862
;TYPE:WALL-OUTER
G1 F1800 X112.984 Y95.234 E35.19513
G1 X113.612 Y94.682 E35.23685
G1 X114.305 Y94.219 E35.27843
G1 X115.057 Y93.848 E35.32026
G1 X115.844 Y93.581 E35.36172
G1 X116.661 Y93.418 E35.40329
G1 X117.526 Y93.362 E35.44653
G1 X182.473 Y93.362 E38.68675
G1 X182.972 Y93.394 E38.71170
G1 X183.337 Y93.419 E38.72995
G1 X184.154 Y93.582 E38.77151
G1 X184.941 Y93.849 E38.81298
G1 X185.693 Y94.220 E38.85481
G1 X186.386 Y94.683 E38.89639
G1 X187.014 Y95.235 E38.93810
G1 X187.566 Y95.863 E38.97982
G1 X188.029 Y96.556 E39.02140
G1 X188.400 Y97.308 E39.06323
G1 X188.667 Y98.095 E39.10470
G1 X188.830 Y98.911 E39.14621
G1 X188.863 Y99.404 E39.17086
G1 X188.888 Y167.712 E42.57876
G1 X187.558 Y177.810 E43.08690
G1 X183.673 Y187.191 E43.59347
G1 X177.493 Y195.243 E44.09987
G1 X169.440 Y201.424 E44.60633
G1 X160.062 Y205.308 E45.11274
G1 X150.000 Y206.632 E45.61907
G1 X139.940 Y205.307 E46.12530
G1 X130.559 Y201.422 E46.63186
G1 X122.507 Y195.242 E47.13826
G1 X116.327 Y187.190 E47.64466
G1 X112.442 Y177.809 E48.15122
G1 X111.113 Y167.711 E48.65936
G1 X111.112 Y99.776 E52.04865
G1 X111.168 Y98.911 E52.09190
G1 X111.331 Y98.094 E52.13346
G1 X111.598 Y97.307 E52.17492
G1 X111.969 Y96.555 E52.21676
G1 X112.432 Y95.862 E52.25834
G0 F9000 X112.869 Y96.181
;TYPE:SKIN
G1 F1800 X187.883 Y171.196 E57.55101
G0 F9000 X187.818 Y171.696
G1 F1800 X112.641 Y96.519 E62.85516
G0 F9000 X112.418 Y96.862
G1 F1800 X187.751 Y172.195 E68.17031
G0 F9000 X187.685 Y172.695
G1 F1800 X112.231 Y97.241 E73.49400
G0 F9000 X112.056 Y97.631
G1 F1800 X187.620 Y173.195 E78.82544
G0 F9000 X187.554 Y173.695
G1 F1800 X111.913 Y98.054 E84.16232
G0 F9000 X111.797 Y98.504
G1 F1800 X187.488 Y174.195 E89.50273
G0 F9000 X187.422 Y174.694
G1 F1800 X111.703 Y98.975 E94.84512
G0 F9000 X111.669 Y99.507
G1 F1800 X187.357 Y175.194 E100.18528
G0 F9000 X187.291 Y175.694
G1 F1800 X111.651 Y100.054 E105.52209
G0 F9000 X111.651 Y100.620
G1 F1800 X187.224 Y176.194 E110.85421
G0 F9000 X187.159 Y176.693
G1 F1800 X111.651 Y101.186 E116.18167
G0 F9000 X111.651 Y101.751
G1 F1800 X187.093 Y177.193 E121.50451
G0 F9000 X187.022 Y177.688
G1 F1800 X111.651 Y102.317 E126.82234
G0 F9000 X111.651 Y102.883
G1 F1800 X186.857 Y178.089 E132.12853
G0 F9000 X186.691 Y178.489
G1 F1800 X111.651 Y103.449 E137.42301
G0 F9000 X111.651 Y104.014
G1 F1800 X186.526 Y178.889 E142.70585
G0 F9000 X186.360 Y179.289
G1 F1800 X111.651 Y104.580 E147.97697
G0 F9000 X111.651 Y105.146
G1 F1800 X186.194 Y179.689 E153.23638
G0 F9000 X187.949 Y170.696
G1 F1800 X113.132 Y95.879 E158.51512
G0 F9000 X113.402 Y95.583
G1 F1800 X188.015 Y170.196 E163.77947
G0 F9000 X188.081 Y169.696
G1 F1800 X113.704 Y95.319 E169.02717
G0 F9000 X114.013 Y95.062
G1 F1800 X188.146 Y169.196 E174.25769
G0 F9000 X188.212 Y168.696
G1 F1800 X114.352 Y94.836 E179.46891
G0 F9000 X114.706 Y94.624
G1 F1800 X188.278 Y168.196 E184.65982
G0 F9000 X188.344 Y167.697
G1 F1800 X115.084 Y94.436 E189.82874
G0 F9000 X115.486 Y94.272
G1 F1800 X188.347 Y167.133 E194.96948
G0 F9000 X188.347 Y166.568
G1 F1800 X115.908 Y94.129 E200.08044
G0 F9000 X116.370 Y94.026
G1 F1800 X188.347 Y166.002 E205.15877
G0 F9000 X188.346 Y165.436
G1 F1800 X116.857 Y93.946 E210.20274
G0 F9000 X117.388 Y93.912
G1 F1800 X188.346 Y164.870 E215.20921
G0 F9000 X188.346 Y164.304
G1 F1800 X117.943 Y93.901 E220.17652
G0 F9000 X118.508 Y93.901
G1 F1800 X188.345 Y163.738 E225.10390
G0 F9000 X188.345 Y163.172
G1 F1800 X119.074 Y93.901 E229.99134
G0 F9000 X119.640 Y93.901
G1 F1800 X188.345 Y162.606 E234.83885
G0 F9000 X188.345 Y162.041
G1 F1800 X120.206 Y93.901 E239.64646
G0 F9000 X120.771 Y93.901
G1 F1800 X188.344 Y161.474 E244.41410
G0 F9000 X188.344 Y160.909
G1 F1800 X121.337 Y93.901 E249.14184
G0 F9000 X121.903 Y93.901
G1 F1800 X188.344 Y160.343 E253.82965
G0 F9000 X188.344 Y159.777
G1 F1800 X122.468 Y93.901 E258.47756
G0 F9000 X123.034 Y93.901
G1 F1800 X188.344 Y159.211 E263.08553
G0 F9000 X188.344 Y158.645
G1 F1800 X123.600 Y93.901 E267.65357
G0 F9000 X124.165 Y93.901
G1 F1800 X188.344 Y158.080 E272.18174
G0 F9000 X188.343 Y157.513
G1 F1800 X124.731 Y93.901 E276.66991
G0 F9000 X125.297 Y93.901
G1 F1800 X188.343 Y156.948 E281.11819
G0 F9000 X188.343 Y156.382
G1 F1800 X125.862 Y93.901 E285.52656
G0 F9000 X126.428 Y93.901
G1 F1800 X188.342 Y155.815 E289.89492
G0 F9000 X188.342 Y155.250
G1 F1800 X126.994 Y93.901 E294.22339
G0 F9000 X127.559 Y93.901
G1 F1800 X188.342 Y154.684 E298.51196
G0 F9000 X188.342 Y154.118
G1 F1800 X128.125 Y93.901 E302.76060
G0 F9000 X128.691 Y93.901
G1 F1800 X188.342 Y153.552 E306.96930
G0 F9000 X188.342 Y152.986
G1 F1800 X129.256 Y93.901 E311.13810
G0 F9000 X129.822 Y93.901
G1 F1800 X188.342 Y152.421 E315.26700
G0 F9000 X188.341 Y151.854
G1 F1800 X130.388 Y93.901 E319.35590
G0 F9000 X130.954 Y93.901
G1 F1800 X188.341 Y151.289 E323.40489
G0 F9000 X188.341 Y150.723
G1 F1800 X131.519 Y93.901 E327.41399
G0 F9000 X132.085 Y93.901
G1 F1800 X188.341 Y150.157 E331.38316
G0 F9000 X188.340 Y149.591
G1 F1800 X132.651 Y93.901 E335.31235
G0 F9000 X133.216 Y93.901
G1 F1800 X188.340 Y149.025 E339.20165
G0 F9000 X188.340 Y148.459
G1 F1800 X133.782 Y93.901 E343.05101
G0 F9000 X134.348 Y93.901
G1 F1800 X188.340 Y147.893 E346.86044
G0 F9000 X188.340 Y147.327
G1 F1800 X134.913 Y93.901 E350.62997
G0 F9000 X135.479 Y93.901
G1 F1800 X188.340 Y146.762 E354.35960
G0 F9000 X188.339 Y146.195
G1 F1800 X136.045 Y93.901 E358.04922
G0 F9000 X136.610 Y93.901
G1 F1800 X188.339 Y145.630 E361.69898
G0 F9000 X188.339 Y145.064
G1 F1800 X137.176 Y93.901 E365.30881
G0 F9000 X137.742 Y93.901
G1 F1800 X188.339 Y144.498 E368.87870
G0 F9000 X188.338 Y143.932
G1 F1800 X138.307 Y93.901 E372.40865
G0 F9000 X138.873 Y93.901
G1 F1800 X188.338 Y143.366 E375.89868
G0 F9000 X188.338 Y142.800
G1 F1800 X139.439 Y93.901 E379.34877
G0 F9000 X140.005 Y93.901
G1 F1800 X188.337 Y142.234 E382.75889
G0 F9000 X188.337 Y141.668
G1 F1800 X140.570 Y93.901 E386.12911
G0 F9000 X141.136 Y93.901
G1 F1800 X188.337 Y141.103 E389.45943
G0 F9000 X188.337 Y140.537
G1 F1800 X141.702 Y93.901 E392.74981
G0 F9000 X142.267 Y93.901
G1 F1800 X188.337 Y139.971 E396.00030
G0 F9000 X188.337 Y139.405
G1 F1800 X142.833 Y93.901 E399.21085
G0 F9000 X143.399 Y93.901
G1 F1800 X188.337 Y138.839 E402.38147
G0 F9000 X188.336 Y138.273
G1 F1800 X143.964 Y93.901 E405.51216
G0 F9000 X144.530 Y93.901
G1 F1800 X188.336 Y137.707 E408.60291
G0 F9000 X188.336 Y137.141
G1 F1800 X145.096 Y93.901 E411.65372
G0 F9000 X145.661 Y93.901
G1 F1800 X188.336 Y136.576 E414.66467
G0 F9000 X188.335 Y136.009
G1 F1800 X146.227 Y93.901 E417.63562
G0 F9000 X146.793 Y93.901
G1 F1800 X188.335 Y135.444 E420.56667
G0 F9000 X188.335 Y134.878
G1 F1800 X147.358 Y93.901 E423.45782
G0 F9000 X147.924 Y93.901
G1 F1800 X188.335 Y134.312 E426.30903
G0 F9000 X188.335 Y133.746
G1 F1800 X148.490 Y93.901 E429.12031
G0 F9000 X149.055 Y93.901
G1 F1800 X188.335 Y133.180 E431.89169
G0 F9000 X188.335 Y132.615
G1 F1800 X149.621 Y93.901 E434.62317
G0 F9000 X150.187 Y93.901
G1 F1800 X188.334 Y132.048 E437.31465
G0 F9000 X188.334 Y131.482
G1 F1800 X150.753 Y93.901 E439.96619
G0 F9000 X151.318 Y93.901
G1 F1800 X188.334 Y130.917 E442.57787
G0 F9000 X188.333 Y130.350
G1 F1800 X151.884 Y93.901 E445.14954
G0 F9000 X152.450 Y93.901
G1 F1800 X188.333 Y129.785 E447.68132
G0 F9000 X188.333 Y129.219
G1 F1800 X153.015 Y93.901 E450.17320
G0 F9000 X153.581 Y93.901
G1 F1800 X188.332 Y128.653 E452.62510
G0 F9000 X188.332 Y128.087
G1 F1800 X154.147 Y93.901 E455.03707
G0 F9000 X154.712 Y93.901
G1 F1800 X188.332 Y127.521 E457.40915
G0 F9000 X188.332 Y126.956
G1 F1800 X155.278 Y93.901 E459.74132
G0 F9000 X155.844 Y93.901
G1 F1800 X188.332 Y126.389 E462.03352
G0 F9000 X188.332 Y125.823
G1 F1800 X156.409 Y93.901 E464.28583
G0 F9000 X156.975 Y93.901
G1 F1800 X188.332 Y125.258 E466.49823
G0 F9000 X188.331 Y124.691
G1 F1800 X157.541 Y93.901 E468.67063
G0 F9000 X158.106 Y93.901
G1 F1800 X188.331 Y124.126 E470.80317
G0 F9000 X188.331 Y123.560
G1 F1800 X158.672 Y93.901 E472.89577
G0 F9000 X159.238 Y93.901
G1 F1800 X188.331 Y122.994 E474.94844
G0 F9000 X188.330 Y122.428
G1 F1800 X159.804 Y93.901 E476.96114
G0 F9000 X160.369 Y93.901
G1 F1800 X188.330 Y121.862 E478.93394
G0 F9000 X188.330 Y121.297
G1 F1800 X160.935 Y93.901 E480.86684
G0 F9000 X161.501 Y93.901
G1 F1800 X188.330 Y120.730 E482.75977
G0 F9000 X188.330 Y120.165
G1 F1800 X162.066 Y93.901 E484.61284
G0 F9000 X162.632 Y93.901
G1 F1800 X188.330 Y119.599 E486.42597
G0 F9000 X188.330 Y119.033
G1 F1800 X163.198 Y93.901 E488.19917
G0 F9000 X163.763 Y93.901
G1 F1800 X188.329 Y118.467 E489.93243
G0 F9000 X188.329 Y117.901
G1 F1800 X164.329 Y93.901 E491.62576
G0 F9000 X164.895 Y93.901
G1 F1800 X188.329 Y117.335 E493.27916
G0 F9000 X188.328 Y116.769
G1 F1800 X165.460 Y93.901 E494.89262
G0 F9000 X166.026 Y93.901
G1 F1800 X188.328 Y116.203 E496.46615
G0 F9000 X188.328 Y115.638
G1 F1800 X166.592 Y93.901 E497.99977
G0 F9000 X167.157 Y93.901
G1 F1800 X188.328 Y115.072 E499.49350
G0 F9000 X188.327 Y114.506
G1 F1800 X167.723 Y93.901 E500.94726
G0 F9000 X168.289 Y93.901
G1 F1800 X188.327 Y113.940 E502.36109
G0 F9000 X188.327 Y113.374
G1 F1800 X168.854 Y93.901 E503.73501
G0 F9000 X169.420 Y93.901
G1 F1800 X188.327 Y112.808 E505.06900
G0 F9000 X188.327 Y112.242
G1 F1800 X169.986 Y93.901 E506.36306
G0 F9000 X170.552 Y93.901
G1 F1800 X188.327 Y111.676 E507.61718
G0 F9000 X188.326 Y111.110
G1 F1800 X171.117 Y93.901 E508.83137
G0 F9000 X171.683 Y93.901
G1 F1800 X188.326 Y110.544 E510.00562
G0 F9000 X188.326 Y109.979
G1 F1800 X172.249 Y93.901 E511.13998
G0 F9000 X172.814 Y93.901
G1 F1800 X188.326 Y109.413 E512.23443
G0 F9000 X188.325 Y108.847
G1 F1800 X173.380 Y93.901 E513.28892
G0 F9000 X173.946 Y93.901
G1 F1800 X188.325 Y108.281 E514.30347
G0 F9000 X188.325 Y107.715
G1 F1800 X174.511 Y93.901 E515.27812
G0 F9000 X175.077 Y93.901
G1 F1800 X188.325 Y107.149 E516.21284
G0 F9000 X188.325 Y106.583
G1 F1800 X175.643 Y93.901 E517.10762
G0 F9000 X176.208 Y93.901
G1 F1800 X188.325 Y106.017 E517.96251
G0 F9000 X188.325 Y105.452
G1 F1800 X176.774 Y93.901 E518.77749
G0 F9000 X177.340 Y93.901
G1 F1800 X188.324 Y104.885 E519.55247
G0 F9000 X188.324 Y104.320
G1 F1800 X177.905 Y93.901 E520.28759
G0 F9000 X178.471 Y93.901
G1 F1800 X188.324 Y103.754 E520.98277
G0 F9000 X188.323 Y103.188
G1 F1800 X179.037 Y93.901 E521.63798
G0 F9000 X179.603 Y93.901
G1 F1800 X188.323 Y102.622 E522.25326
G0 F9000 X188.323 Y102.056
G1 F1800 X180.168 Y93.901 E522.82864
G0 F9000 X180.734 Y93.901
G1 F1800 X188.323 Y101.491 E523.36412
G0 F9000 X188.323 Y100.924
G1 F1800 X181.300 Y93.901 E523.85963
G0 F9000 X181.865 Y93.901
G1 F1800 X188.323 Y100.358 E524.31524
G0 F9000 X188.323 Y99.793
G1 F1800 X182.431 Y93.901 E524.73096
G0 F9000 X183.036 Y93.940
G1 F1800 X188.308 Y99.213 E525.10296
G0 F9000 X188.206 Y98.545
G1 F1800 X183.703 Y94.042 E525.42067
G0 F9000 X184.494 Y94.267
G1 F1800 X187.981 Y97.754 E525.66670
G0 F9000 X187.439 Y96.647
G1 F1800 X185.601 Y94.808 E525.79641
G0 F9000 X111.651 Y105.711
G1 F1800 X186.029 Y180.089 E531.04418
G0 F9000 X185.863 Y180.489
G1 F1800 X111.651 Y106.277 E536.28024
G0 F9000 X111.651 Y106.843
G1 F1800 X185.697 Y180.889 E541.50459
G0 F9000 X185.532 Y181.289
G1 F1800 X111.651 Y107.408 E546.71729
G0 F9000 X111.651 Y107.974
G1 F1800 X185.366 Y181.689 E551.91828
G0 F9000 X185.201 Y182.089
G1 F1800 X111.651 Y108.540 E557.10760
G0 F9000 X111.651 Y109.105
G1 F1800 X185.034 Y182.489 E562.28520
G0 F9000 X184.869 Y182.889
G1 F1800 X111.651 Y109.671 E567.45112
G0 F9000 X111.651 Y110.237
G1 F1800 X184.704 Y183.289 E572.60537
G0 F9000 X184.538 Y183.690
G1 F1800 X111.651 Y110.802 E577.74798
G0 F9000 X111.651 Y111.368
G1 F1800 X184.372 Y184.089 E582.87884
G0 F9000 X184.206 Y184.489
G1 F1800 X111.651 Y111.934 E587.99799
G0 F9000 X111.651 Y112.499
G1 F1800 X184.041 Y184.890 E593.10553
G0 F9000 X183.876 Y185.290
G1 F1800 X111.651 Y113.065 E598.20139
G0 F9000 X111.651 Y113.631
G1 F1800 X183.709 Y185.689 E603.28547
G0 F9000 X183.544 Y186.089
G1 F1800 X111.651 Y114.197 E608.35788
G0 F9000 X111.651 Y114.762
G1 F1800 X183.378 Y186.490 E613.41864
G0 F9000 X183.212 Y186.889
G1 F1800 X111.651 Y115.328 E618.46765
G0 F9000 X111.651 Y115.894
G1 F1800 X182.973 Y187.215 E623.49977
G0 F9000 X182.727 Y187.536
G1 F1800 X111.651 Y116.459 E628.51460
G0 F9000 X111.651 Y117.025
G1 F1800 X182.482 Y187.856 E633.51211
G0 F9000 X182.236 Y188.175
G1 F1800 X111.651 Y117.591 E638.49223
G0 F9000 X111.651 Y118.156
G1 F1800 X181.990 Y188.496 E643.45506
G0 F9000 X181.744 Y188.815
G1 F1800 X111.651 Y118.722 E648.40050
G0 F9000 X111.651 Y119.288
G1 F1800 X181.499 Y189.136 E653.32865
G0 F9000 X181.254 Y189.456
G1 F1800 X111.651 Y119.853 E658.23952
G0 F9000 X111.651 Y120.419
G1 F1800 X181.008 Y189.776 E663.13303
G0 F9000 X180.762 Y190.096
G1 F1800 X111.651 Y120.985 E668.00919
G0 F9000 X111.651 Y121.550
G1 F1800 X180.516 Y190.416 E672.86802
G0 F9000 X180.271 Y190.736
G1 F1800 X111.651 Y122.116 E677.70953
G0 F9000 X111.651 Y122.682
G1 F1800 X180.025 Y191.056 E682.53369
G0 F9000 X179.779 Y191.376
