;Generated with Cura_SteamEngine 15.01
; Default start code
G28 ; Home extruder
G1 Z15 F100
M107 ; Turn off fan
G90 ; Absolute positioning
M82 ; Extruder in absolute mode
M190 S50
; Activate all used extruder
M104 T0 S210
G92 E0 ; Reset extruder position
; Wait for all used extruders to reach temperature
M109 T0 S210
;Layer count: 50
;LAYER:0
M107
G0 F9000 X108.387 Y93.304 Z0.300
;TYPE:SKIRT
G1 F1800 X109.196 Y92.378 E0.06135
G1 X109.375 Y92.200 E0.07394
G1 X110.283 Y91.402 E0.13425
G1 X111.395 Y90.658 E0.20100
G1 X112.593 Y90.068 E0.26762
G1 X113.856 Y89.640 E0.33415
G1 X115.167 Y89.377 E0.40086
G1 X116.398 Y89.299 E0.46240
G1 X183.601 Y89.299 E3.81517
G1 X184.833 Y89.377 E3.87676
G1 X186.141 Y89.640 E3.94332
G1 X187.400 Y90.067 E4.00965
G1 X188.603 Y90.657 E4.07650
G1 X189.716 Y91.403 E4.14334
G1 X190.718 Y92.282 E4.20984
G1 X191.597 Y93.286 E4.27642
G1 X192.324 Y94.375 E4.34174
G1 X192.927 Y95.588 E4.40932
G1 X193.357 Y96.859 E4.47626
G1 X193.611 Y98.138 E4.54132
G1 X193.700 Y99.384 E4.60364
G1 X193.700 Y157.127 E7.48445
G1 X193.142 Y170.573 E8.15585
G1 X192.950 Y172.126 E8.23392
G1 X192.700 Y174.125 E8.33443
G1 X191.966 Y177.627 E8.51294
G1 X191.519 Y179.127 E8.59103
G1 X190.947 Y181.055 E8.69136
G1 X189.644 Y184.390 E8.86999
G1 X188.072 Y187.605 E9.04854
G1 X187.270 Y188.949 E9.12662
G1 X186.242 Y190.677 E9.22693
G1 X185.331 Y191.952 E9.30511
G1 X184.160 Y193.591 E9.40561
G1 X183.148 Y194.785 E9.48369
G1 X181.850 Y196.320 E9.58398
G1 X180.742 Y197.427 E9.66212
G1 X179.319 Y198.851 E9.76256
G1 X178.126 Y199.860 E9.84051
G1 X178.122 Y199.863 E9.84076
G1 X176.590 Y201.162 E9.94097
G1 X173.676 Y203.242 E10.11959
G1 X172.331 Y204.042 E10.19766
G1 X170.602 Y205.073 E10.29809
G1 X169.200 Y205.757 E10.37592
G1 X167.389 Y206.645 E10.47655
G1 X165.928 Y207.214 E10.55477
G1 X164.056 Y207.944 E10.65502
G1 X162.557 Y208.391 E10.73306
G1 X162.557 Y208.390 E10.73311
G1 X160.626 Y208.967 E10.83365
G1 X159.094 Y209.286 E10.91172
G1 X159.094 Y209.287 E10.91177
G1 X157.124 Y209.700 E11.01219
G1 X155.568 Y209.893 E11.09042
G1 X153.574 Y210.143 E11.19068
G1 X151.561 Y210.226 E11.29119
G1 X149.999 Y210.290 E11.36919
G1 X147.987 Y210.208 E11.46965
G1 X146.422 Y210.142 E11.54780
G1 X144.426 Y209.893 E11.64815
G1 X142.875 Y209.699 E11.72613
G1 X140.904 Y209.288 E11.82658
G1 X139.371 Y208.965 E11.90474
G1 X137.441 Y208.391 E12.00520
G1 X135.942 Y207.943 E12.08325
G1 X134.068 Y207.214 E12.18357
G1 X132.607 Y206.643 E12.26183
G1 X130.800 Y205.759 E12.36219
G1 X129.395 Y205.072 E12.44022
G1 X127.666 Y204.043 E12.54060
G1 X126.320 Y203.240 E12.61879
G1 X124.683 Y202.072 E12.71912
G1 X123.408 Y201.161 E12.79730
G1 X121.872 Y199.862 E12.89766
G1 X120.678 Y198.849 E12.97578
G1 X119.254 Y197.427 E13.07618
G1 X118.147 Y196.318 E13.15435
G1 X115.836 Y193.589 E13.33276
G1 X114.666 Y191.952 E13.43315
G1 X113.756 Y190.676 E13.51134
G1 X111.926 Y187.603 E13.68978
G1 X111.040 Y185.796 E13.79018
G1 X110.353 Y184.388 E13.86835
G1 X109.621 Y182.513 E13.96877
G1 X109.054 Y181.054 E14.04686
G1 X108.031 Y177.625 E14.22538
G1 X107.298 Y174.124 E14.40384
G1 X107.048 Y172.128 E14.50420
G1 X106.855 Y170.572 E14.58242
G1 X106.299 Y157.127 E15.25377
G1 X106.299 Y99.398 E18.13388
G1 X106.377 Y98.169 E18.19532
G1 X106.634 Y96.881 E18.26084
G1 X107.058 Y95.620 E18.32721
G1 X107.655 Y94.399 E18.39502
G1 X108.387 Y93.304 E18.46073
G1 F2400 E14.46073
G0 F9000 X111.409 Y95.622
;TYPE:WALL-INNER
G1 F2400 E18.46073
G1 F1800 X111.975 Y94.974 E18.50366
G1 X112.602 Y94.423 E18.54530
G1 X113.305 Y93.953 E18.58749
G1 X114.050 Y93.586 E18.62892
G1 X114.842 Y93.318 E18.67064
G1 X115.660 Y93.154 E18.71226
G1 X116.521 Y93.099 E18.75530
G1 X183.478 Y93.099 E22.09580
G1 X184.339 Y93.154 E22.13885
G1 X185.154 Y93.318 E22.18032
G1 X185.943 Y93.585 E22.22188
G1 X186.703 Y93.958 E22.26411
G1 X187.391 Y94.419 E22.30543
G1 X188.027 Y94.977 E22.34764
G1 X188.573 Y95.600 E22.38897
G1 X189.030 Y96.284 E22.43001
G1 X189.410 Y97.051 E22.47272
G1 X189.676 Y97.835 E22.51402
G1 X189.838 Y98.653 E22.55562
G1 X189.900 Y99.514 E22.59869
G1 X189.900 Y157.061 E25.46972
G1 X189.352 Y170.260 E26.12879
G1 X188.949 Y173.496 E26.29148
G1 X188.279 Y176.691 E26.45435
G1 X187.350 Y179.820 E26.61719
G1 X186.162 Y182.860 E26.78003
G1 X184.724 Y185.800 E26.94331
G1 X183.060 Y188.594 E27.10555
G1 X181.157 Y191.258 E27.26888
G1 X180.250 Y192.326 E27.33879
G1 X179.051 Y193.745 E27.43147
G1 X176.743 Y196.053 E27.59431
G1 X174.257 Y198.159 E27.75686
G1 X171.601 Y200.054 E27.91964
G1 X168.786 Y201.731 E28.08311
G1 X167.527 Y202.345 E28.15300
G1 X165.859 Y203.163 E28.24568
G1 X162.820 Y204.348 E28.40842
G1 X159.691 Y205.280 E28.57130
G1 X156.497 Y205.949 E28.73411
G1 X153.258 Y206.353 E28.89696
G1 X150.011 Y206.486 E29.05908
G1 X148.144 Y206.411 E29.15230
G1 X146.738 Y206.352 E29.22251
G1 X143.501 Y205.948 E29.38526
G1 X141.684 Y205.569 E29.47786
G1 X140.305 Y205.279 E29.54816
G1 X137.174 Y204.345 E29.71117
G1 X135.448 Y203.674 E29.80356
G1 X134.139 Y203.162 E29.87369
G1 X131.208 Y201.728 E30.03648
G1 X128.398 Y200.054 E30.19966
G1 X125.745 Y198.160 E30.36229
G1 X123.248 Y196.046 E30.52551
G1 X120.951 Y193.749 E30.68758
G1 X118.835 Y191.250 E30.85094
G1 X116.938 Y188.593 E31.01382
G1 X115.274 Y185.799 E31.17606
G1 X113.835 Y182.859 E31.33937
G1 X112.650 Y179.819 E31.50215
G1 X111.718 Y176.690 E31.66503
G1 X111.049 Y173.497 E31.82779
G1 X110.818 Y171.657 E31.92031
G1 X110.645 Y170.259 E31.99059
G1 X110.099 Y157.061 E32.64960
G1 X110.099 Y99.521 E35.52028
G1 X110.154 Y98.658 E35.56343
G1 X110.311 Y97.867 E35.60366
G1 X110.580 Y97.067 E35.64577
G1 X110.957 Y96.297 E35.68854
G1 X111.409 Y95.622 E35.72907
G0 F9000 X136.014 Y139.556
G1 F1800 X134.599 Y140.325 E35.80942
G1 X133.222 Y141.166 E35.88991
G1 X131.894 Y142.082 E35.97040
G1 X130.613 Y143.063 E36.05090
G1 X129.389 Y144.110 E36.13126
G1 X128.219 Y145.219 E36.21168
G1 X127.285 Y146.203 E36.27937
G1 X126.231 Y147.419 E36.35965
G1 X125.237 Y148.690 E36.44015
G1 X124.315 Y150.010 E36.52048
G1 X123.459 Y151.376 E36.60091
G1 X122.677 Y152.788 E36.68143
G1 X121.972 Y154.238 E36.76187
G1 X121.343 Y155.722 E36.84228
G1 X120.791 Y157.237 E36.92273
G1 X120.321 Y158.779 E37.00315
G1 X119.934 Y160.330 E37.08291
G1 X119.578 Y162.180 E37.17690
G1 X119.402 Y163.510 E37.24383
G1 X119.260 Y165.131 E37.32501
G1 X119.204 Y166.725 E37.40458
G1 X119.197 Y166.998 E37.41821
G1 X119.240 Y168.611 E37.49871
G1 X119.346 Y169.963 E37.56637
G1 X119.543 Y171.560 E37.64665
G1 X119.820 Y173.134 E37.72638
G1 X120.184 Y174.710 E37.80708
G1 X120.631 Y176.272 E37.88813
G1 X121.156 Y177.793 E37.96841
G1 X121.761 Y179.288 E38.04887
G1 X122.443 Y180.749 E38.12931
G1 X123.200 Y182.171 E38.20968
G1 X124.032 Y183.552 E38.29012
G1 X124.932 Y184.889 E38.37053
G1 X125.905 Y186.178 E38.45110
G1 X126.941 Y187.411 E38.53145
G1 X128.036 Y188.585 E38.61154
G1 X128.407 Y188.956 E38.63772
G1 X129.389 Y189.888 E38.70526
G1 X130.613 Y190.934 E38.78559
G1 X131.894 Y191.918 E38.86617
G1 X133.222 Y192.829 E38.94652
G1 X134.599 Y193.674 E39.02712
G1 X136.015 Y194.443 E39.10751
G1 X137.471 Y195.136 E39.18796
G1 X138.960 Y195.754 E39.26839
G1 X140.480 Y196.293 E39.34885
G1 X142.026 Y196.750 E39.42928
G1 X143.595 Y197.127 E39.50979
G1 X145.181 Y197.419 E39.59024
G1 X146.778 Y197.631 E39.67062
G1 X148.385 Y197.757 E39.75104
G1 X149.999 Y197.800 E39.83159
G1 X151.611 Y197.757 E39.91204
G1 X153.218 Y197.631 E39.99246
G1 X154.817 Y197.419 E40.07293
G1 X156.402 Y197.127 E40.15334
G1 X157.970 Y196.750 E40.23379
G1 X159.516 Y196.293 E40.31422
G1 X161.036 Y195.754 E40.39468
G1 X162.525 Y195.136 E40.47511
G1 X163.981 Y194.443 E40.55556
G1 X165.399 Y193.674 E40.63604
G1 X166.774 Y192.829 E40.71656
G1 X168.102 Y191.918 E40.79690
G1 X169.381 Y190.934 E40.87741
G1 X170.609 Y189.888 E40.95789
G1 X171.778 Y188.776 E41.03838
G1 X172.710 Y187.794 E41.10593
G1 X173.765 Y186.581 E41.18613
G1 X174.757 Y185.309 E41.26661
G1 X175.684 Y183.986 E41.34720
G1 X176.535 Y182.619 E41.42754
G1 X177.316 Y181.210 E41.50791
G1 X178.017 Y179.772 E41.58772
G1 X178.751 Y178.037 E41.68171
G1 X179.204 Y176.759 E41.74936
G1 X179.674 Y175.219 E41.82969
G1 X180.062 Y173.668 E41.90945
G1 X180.372 Y172.068 E41.99076
G1 X180.593 Y170.489 E42.07030
G1 X180.736 Y168.867 E42.15154
G1 X180.792 Y167.271 E42.23121
G1 X180.799 Y166.998 E42.24484
G1 X180.756 Y165.387 E42.32524
G1 X180.650 Y164.035 E42.39290
G1 X180.456 Y162.449 E42.47261
G1 X180.174 Y160.848 E42.55372
G1 X179.813 Y159.290 E42.63351
G1 X179.363 Y157.726 E42.71470
G1 X178.838 Y156.205 E42.79498
G1 X178.234 Y154.711 E42.87537
G1 X177.557 Y153.260 E42.95526
G1 X176.793 Y151.824 E43.03641
G1 X175.966 Y150.444 E43.11667
G1 X175.061 Y149.108 E43.19718
G1 X174.092 Y147.821 E43.27755
G1 X173.056 Y146.585 E43.35801
G1 X171.960 Y145.411 E43.43814
G1 X171.589 Y145.040 E43.46431
G1 X170.608 Y144.110 E43.53175
G1 X169.381 Y143.062 E43.61226
G1 X168.102 Y142.082 E43.69265
G1 X166.774 Y141.166 E43.77313
G1 X165.399 Y140.325 E43.85355
G1 X163.982 Y139.556 E43.93398
G1 X162.525 Y138.861 E44.01452
G1 X161.036 Y138.243 E44.09495
G1 X159.516 Y137.706 E44.17537
G1 X157.971 Y137.247 E44.25578
G1 X156.402 Y136.870 E44.33629
G1 X154.817 Y136.576 E44.41671
G1 X153.218 Y136.366 E44.49717
G1 X151.611 Y136.240 E44.57759
G1 X149.999 Y136.197 E44.65804
G1 X148.385 Y136.240 E44.73860
G1 X146.778 Y136.366 E44.81902
G1 X145.181 Y136.576 E44.89938
G1 X143.594 Y136.870 E44.97990
G1 X142.025 Y137.247 E45.06041
G1 X140.480 Y137.706 E45.14082
G1 X138.960 Y138.243 E45.22124
G1 X137.471 Y138.861 E45.30167
G1 X136.014 Y139.556 E45.38221
G0 F9000 X136.196 Y139.913
;TYPE:WALL-OUTER
G1 F1800 X134.799 Y140.672 E45.46153
G1 X133.440 Y141.501 E45.54095
G1 X132.129 Y142.405 E45.62040
G1 X130.865 Y143.374 E45.69986
G1 X129.657 Y144.407 E45.77915
G1 X128.502 Y145.502 E45.85856
G1 X127.582 Y146.472 E45.92525
G1 X126.540 Y147.674 E46.00462
G1 X125.559 Y148.928 E46.08405
G1 X124.648 Y150.231 E46.16337
G1 X123.804 Y151.579 E46.24272
G1 X123.032 Y152.973 E46.32222
G1 X122.336 Y154.404 E46.40161
G1 X121.715 Y155.869 E46.48099
G1 X121.170 Y157.364 E46.56038
G1 X120.706 Y158.886 E46.63976
G1 X120.323 Y160.425 E46.71888
G1 X119.973 Y162.243 E46.81125
G1 X119.764 Y163.821 E46.89066
G1 X119.659 Y165.154 E46.95737
G1 X119.604 Y166.738 E47.03645
G1 X119.597 Y166.998 E47.04942
G1 X119.639 Y168.590 E47.12888
G1 X119.744 Y169.923 E47.19559
G1 X119.939 Y171.501 E47.27491
G1 X120.214 Y173.063 E47.35404
G1 X120.261 Y173.319 E47.36702
G1 X120.634 Y174.868 E47.44651
G1 X121.012 Y176.150 E47.51319
G1 X121.531 Y177.653 E47.59252
G1 X122.128 Y179.128 E47.67191
G1 X122.801 Y180.570 E47.75130
G1 X123.548 Y181.974 E47.83064
G1 X124.369 Y183.337 E47.91003
G1 X125.258 Y184.657 E47.98943
G1 X126.218 Y185.929 E48.06893
G1 X127.240 Y187.146 E48.14822
G1 X128.324 Y188.307 E48.22746
G1 X128.686 Y188.669 E48.25300
G1 X129.657 Y189.591 E48.31981
G1 X130.865 Y190.623 E48.39907
G1 X132.129 Y191.594 E48.47859
G1 X133.440 Y192.494 E48.55793
G1 X134.799 Y193.327 E48.63745
G1 X136.196 Y194.086 E48.71677
G1 X137.634 Y194.771 E48.79624
G1 X139.103 Y195.381 E48.87559
G1 X140.603 Y195.912 E48.95498
G1 X142.129 Y196.363 E49.03437
G1 X143.678 Y196.736 E49.11386
G1 X145.244 Y197.024 E49.19329
G1 X146.820 Y197.233 E49.27261
G1 X148.406 Y197.358 E49.35198
G1 X149.999 Y197.400 E49.43148
G1 X151.590 Y197.358 E49.51089
G1 X153.176 Y197.233 E49.59026
G1 X154.754 Y197.024 E49.66967
G1 X156.319 Y196.736 E49.74906
G1 X157.867 Y196.363 E49.82850
G1 X159.393 Y195.912 E49.90789
G1 X160.893 Y195.381 E49.98727
G1 X162.362 Y194.771 E50.06663
G1 X163.800 Y194.086 E50.14610
G1 X165.199 Y193.327 E50.22550
G1 X166.556 Y192.494 E50.30494
G1 X167.867 Y191.594 E50.38428
G1 X169.129 Y190.623 E50.46372
G1 X170.341 Y189.591 E50.54314
G1 X171.495 Y188.493 E50.62261
G1 X172.414 Y187.525 E50.68920
G1 X173.456 Y186.326 E50.76845
G1 X174.435 Y185.071 E50.84786
G1 X175.350 Y183.765 E50.92742
G1 X176.190 Y182.416 E51.00670
G1 X176.961 Y181.025 E51.08604
G1 X177.657 Y179.598 E51.16525
G1 X178.378 Y177.894 E51.25756
G1 X178.824 Y176.634 E51.32425
G1 X179.289 Y175.112 E51.40364
G1 X179.673 Y173.573 E51.48278
G1 X179.977 Y172.004 E51.56251
G1 X180.232 Y170.178 E51.65450
G1 X180.337 Y168.844 E51.72126
G1 X180.392 Y167.258 E51.80043
G1 X180.399 Y166.998 E51.81340
G1 X180.357 Y165.408 E51.89276
G1 X180.252 Y164.075 E51.95947
G1 X180.059 Y162.500 E52.03863
G1 X180.025 Y162.242 E52.05162
G1 X179.782 Y160.929 E52.11823
G1 X179.424 Y159.383 E52.19740
G1 X178.982 Y157.848 E52.27710
G1 X178.463 Y156.345 E52.35643
G1 X177.867 Y154.870 E52.43580
G1 X177.196 Y153.431 E52.51501
G1 X176.446 Y152.022 E52.59464
G1 X175.629 Y150.659 E52.67392
G1 X174.736 Y149.341 E52.75335
G1 X173.779 Y148.070 E52.83273
G1 X172.756 Y146.850 E52.91216
G1 X171.672 Y145.689 E52.99140
G1 X171.310 Y145.327 E53.01694
G1 X170.341 Y144.407 E53.08361
G1 X169.129 Y143.373 E53.16309
G1 X167.867 Y142.405 E53.24244
G1 X166.556 Y141.501 E53.32189
G1 X165.199 Y140.672 E53.40122
G1 X163.800 Y139.913 E53.48063
G1 X162.362 Y139.226 E53.56014
G1 X160.893 Y138.616 E53.63949
G1 X159.393 Y138.087 E53.71885
G1 X157.867 Y137.634 E53.79826
G1 X156.319 Y137.261 E53.87770
G1 X154.754 Y136.971 E53.95711
G1 X153.176 Y136.764 E54.03651
G1 X151.590 Y136.639 E54.11588
G1 X149.999 Y136.597 E54.19529
G1 X148.406 Y136.639 E54.27479
G1 X146.820 Y136.764 E54.35416
G1 X145.244 Y136.971 E54.43346
G1 X143.677 Y137.261 E54.51297
G1 X142.129 Y137.634 E54.59241
G1 X140.603 Y138.087 E54.67182
G1 X139.103 Y138.616 E54.75118
G1 X137.634 Y139.226 E54.83053
G1 X136.196 Y139.913 E54.91004
G0 F9000 X136.072 Y139.640
G0 X131.895 Y142.082
G0 X109.999 Y157.050
G0 X109.699 Y157.061
G1 F1800 X109.699 Y99.512 E57.78117
G1 X109.757 Y98.604 E57.82657
G1 X109.924 Y97.764 E57.86929
G1 X110.210 Y96.914 E57.91404
G1 X110.612 Y96.093 E57.95964
G1 X111.088 Y95.381 E58.00237
G1 X111.686 Y94.697 E58.04770
G1 X112.360 Y94.103 E58.09252
G1 X113.101 Y93.607 E58.13701
G1 X113.895 Y93.216 E58.18116
G1 X114.737 Y92.931 E58.22551
G1 X115.607 Y92.756 E58.26978
G1 X116.512 Y92.699 E58.31502
G1 X183.487 Y92.699 E61.65642
G1 X184.392 Y92.756 E61.70166
G1 X185.259 Y92.931 E61.74579
G1 X186.095 Y93.214 E61.78982
G1 X186.904 Y93.611 E61.83478
G1 X187.638 Y94.103 E61.87887
G1 X188.307 Y94.691 E61.92330
G1 X188.894 Y95.359 E61.96767
G1 X189.375 Y96.081 E62.01095
G1 X189.781 Y96.898 E62.05647
G1 X190.065 Y97.736 E62.10061
G1 X190.235 Y98.594 E62.14425
G1 X190.300 Y99.499 E62.18951
G1 X190.300 Y157.053 E65.06089
G1 X189.750 Y170.301 E65.72241
G1 X189.345 Y173.556 E65.88605
G1 X188.667 Y176.790 E66.05091
G1 X187.726 Y179.956 E66.21569
G1 X186.531 Y183.015 E66.37953
G1 X185.078 Y185.988 E66.54462
G1 X183.393 Y188.816 E66.70886
G1 X181.472 Y191.506 E66.87377
G1 X179.347 Y194.015 E67.03781
G1 X177.021 Y196.341 E67.20192
G1 X174.498 Y198.477 E67.36685
G1 X171.815 Y200.393 E67.53133
G1 X168.988 Y202.078 E67.69552
G1 X166.016 Y203.531 E67.86057
G1 X162.956 Y204.724 E68.02442
G1 X159.790 Y205.668 E68.18925
G1 X156.557 Y206.345 E68.35404
G1 X153.299 Y206.751 E68.51784
G1 X149.999 Y206.887 E68.68262
G1 X146.697 Y206.750 E68.84750
G1 X143.442 Y206.344 E69.01115
G1 X140.208 Y205.667 E69.17599
G1 X137.039 Y204.722 E69.34097
G1 X133.983 Y203.531 E69.50460
G1 X131.009 Y202.076 E69.66978
G1 X128.182 Y200.392 E69.83395
G1 X125.499 Y198.476 E69.99843
G1 X122.976 Y196.340 E70.16336
G1 X120.657 Y194.021 E70.32698
G1 X118.517 Y191.494 E70.49218
G1 X116.602 Y188.810 E70.65668
G1 X114.920 Y185.987 E70.82062
G1 X113.467 Y183.016 E70.98562
G1 X112.274 Y179.955 E71.14952
G1 X111.330 Y176.789 E71.31435
G1 X110.653 Y173.555 E71.47919
G1 X110.247 Y170.300 E71.64284
G1 X109.699 Y157.061 E72.30390
G0 F9000 X110.238 Y156.907
;TYPE:SKIN
G1 F1800 X119.098 Y165.767 E72.92902
G0 F9000 X119.117 Y165.220
G1 F1800 X110.238 Y156.342 E73.55545
G0 F9000 X110.238 Y155.776
G1 F1800 X119.157 Y164.695 E74.18473
G0 F9000 X119.203 Y164.175
G1 F1800 X110.238 Y155.210 E74.81726
G0 F9000 X110.238 Y154.644
G1 F1800 X119.248 Y163.654 E75.45297
G0 F9000 X119.307 Y163.147
G1 F1800 X110.238 Y154.079 E76.09280
G0 F9000 X110.238 Y153.513
G1 F1800 X119.373 Y162.648 E76.73732
