;Generated with Cura_SteamEngine 15.01
; Default start code
G28 ; Home extruder
G1 Z15 F100
M107 ; Turn off fan
G90 ; Absolute positioning
M82 ; Extruder in absolute mode
M190 S50
; Activate all used extruder
M104 T0 S210
G92 E0 ; Reset extruder position
; Wait for all used extruders to reach temperature
M109 T0 S210
;Layer count: 131
;LAYER:0
M107
G0 F9000 X126.293 Y85.231 Z0.300
G0 X126.193 Y86.630
;TYPE:SKIRT
G1 F1800 X126.293 Y85.231 E0.06997
G1 X127.697 Y83.934 E0.16533
G1 X128.506 Y83.558 E0.20984
G1 X129.212 Y83.364 E0.24637
G1 X130.207 Y83.308 E0.29609
G1 X131.478 Y83.306 E0.35950
G1 X152.449 Y83.307 E1.40575
G1 X153.509 Y83.306 E1.45863
G1 X166.248 Y83.306 E2.09418
G1 X167.044 Y83.320 E2.13390
G1 X167.615 Y83.333 E2.16240
G1 X167.854 Y83.333 E2.17432
G1 X168.838 Y83.488 E2.22402
G1 X169.863 Y83.832 E2.27796
G1 X171.593 Y85.217 E2.38852
G1 X171.545 Y86.805 E2.46778
G1 X171.667 Y118.181 E4.03315
G1 X171.667 Y181.568 E7.19554
G1 X171.545 Y213.262 E8.77677
G1 X171.545 Y214.771 E8.85205
G1 X169.967 Y216.100 E8.95498
G1 X169.081 Y216.448 E9.00247
G1 X168.452 Y216.584 E9.03458
G1 X167.843 Y216.660 E9.06520
G1 X166.541 Y216.691 E9.13017
G1 X166.234 Y216.693 E9.14549
G1 X165.164 Y216.694 E9.19887
G1 X144.195 Y216.693 E10.24502
G1 X143.134 Y216.694 E10.29795
G1 X130.351 Y216.694 E10.93570
G1 X129.591 Y216.660 E10.97365
G1 X129.034 Y216.611 E11.00155
G1 X127.793 Y216.158 E11.06746
G1 X126.202 Y214.675 E11.17597
G1 X126.152 Y202.590 E11.77890
G1 X126.164 Y199.155 E11.95027
G1 X126.163 Y186.216 E12.59580
G1 X126.164 Y185.080 E12.65248
G1 X126.163 Y172.133 E13.29841
G1 X126.164 Y170.997 E13.35508
G1 X126.163 Y158.049 E14.00106
G1 X126.164 Y156.913 E14.05773
G1 X126.163 Y143.966 E14.70366
G1 X126.164 Y142.830 E14.76034
G1 X126.163 Y129.883 E15.40627
G1 X126.164 Y128.747 E15.46294
G1 X126.163 Y115.799 E16.10892
G1 X126.164 Y114.663 E16.16560
G1 X126.163 Y101.716 E16.81152
G1 X126.164 Y100.580 E16.86820
G1 X126.153 Y97.221 E17.03578
G1 X126.193 Y86.630 E17.56417
G1 F2400 E13.56417
G0 F9000 X129.992 Y87.126
;TYPE:WALL-INNER
G1 F2400 E17.56417
G1 F1800 X131.482 Y87.106 E17.63852
G1 X166.211 Y87.106 E19.37115
G1 X166.966 Y87.119 E19.40882
G1 X167.552 Y87.132 E19.43807
G1 X167.747 Y87.163 E19.44792
G1 X167.867 Y118.187 E20.99572
G1 X167.867 Y181.560 E24.15742
G1 X167.747 Y212.843 E25.71814
G1 X167.565 Y212.866 E25.72729
G1 X166.478 Y212.891 E25.78154
G1 X130.428 Y212.894 E27.58008
G1 X129.994 Y212.874 E27.60176
G1 X129.952 Y202.591 E28.11478
G1 X129.964 Y199.167 E28.28561
G1 X129.964 Y100.582 E33.20403
G1 X129.953 Y97.224 E33.37156
G1 X129.992 Y87.126 E33.87536
G0 F9000 X130.311 Y86.708
;TYPE:WALL-OUTER
G1 F1800 X166.218 Y86.706 E35.66677
G1 X166.975 Y86.719 E35.70454
G1 X167.583 Y86.733 E35.73488
G1 X168.026 Y86.802 E35.75725
G1 X168.145 Y86.842 E35.76351
G1 X168.267 Y181.561 E40.48907
G1 X168.145 Y213.163 E42.06571
G1 X168.098 Y213.182 E42.06824
G1 X167.873 Y213.230 E42.07971
G1 X167.595 Y213.265 E42.09369
G1 X166.487 Y213.291 E42.14899
G1 X130.432 Y213.294 E43.94778
G1 X129.811 Y213.266 E43.97879
G1 X129.779 Y213.263 E43.98040
G1 X129.605 Y213.200 E43.98963
G1 X129.596 Y213.191 E43.99026
G1 X129.552 Y202.590 E44.51915
G1 X129.564 Y100.583 E49.60830
G1 X129.553 Y97.223 E49.77594
G1 X129.593 Y86.812 E50.29535
G1 X129.615 Y86.792 E50.29683
G1 X129.678 Y86.763 E50.30029
G1 X129.764 Y86.739 E50.30474
G1 X130.311 Y86.708 E50.33208
G0 F9000 X130.538 Y87.264
;TYPE:SKIN
G1 F1800 X167.607 Y124.332 E52.94746
G0 F9000 X167.607 Y123.767
G1 F1800 X131.104 Y87.264 E55.52294
G0 F9000 X131.669 Y87.263
G1 F1800 X167.607 Y123.201 E58.05856
G0 F9000 X167.607 Y122.635
G1 F1800 X132.235 Y87.263 E60.55425
G0 F9000 X132.801 Y87.263
G1 F1800 X167.607 Y122.069 E63.01000
G0 F9000 X167.607 Y121.504
G1 F1800 X133.365 Y87.262 E65.42596
G0 F9000 X133.931 Y87.262
G1 F1800 X167.607 Y120.938 E67.80198
G0 F9000 X167.607 Y120.372
G1 F1800 X134.496 Y87.261 E70.13814
G0 F9000 X135.062 Y87.261
G1 F1800 X167.607 Y119.807 E72.43440
G0 F9000 X167.607 Y119.241
G1 F1800 X135.628 Y87.261 E74.69073
G0 F9000 X136.193 Y87.261
G1 F1800 X167.607 Y118.675 E76.90716
G0 F9000 X167.607 Y118.110
G1 F1800 X136.758 Y87.261 E79.08372
G0 F9000 X137.324 Y87.261
G1 F1800 X167.607 Y117.544 E81.22035
G0 F9000 X167.607 Y116.978
G1 F1800 X137.889 Y87.260 E83.31712
G0 F9000 X138.455 Y87.260
G1 F1800 X167.607 Y116.413 E85.37398
G0 F9000 X167.607 Y115.847
G1 F1800 X139.020 Y87.259 E87.39098
G0 F9000 X139.585 Y87.259
G1 F1800 X167.607 Y115.281 E89.36809
G0 F9000 X167.607 Y114.716
G1 F1800 X140.151 Y87.259 E91.30529
G0 F9000 X140.716 Y87.259
G1 F1800 X167.607 Y114.150 E93.20260
G0 F9000 X167.607 Y113.584
G1 F1800 X141.282 Y87.259 E95.05997
G0 F9000 X141.847 Y87.258
G1 F1800 X167.607 Y113.018 E96.87748
G0 F9000 X167.607 Y112.453
G1 F1800 X142.412 Y87.258 E98.65512
G0 F9000 X142.978 Y87.258
G1 F1800 X167.607 Y111.887 E100.39283
G0 F9000 X167.607 Y111.321
G1 F1800 X143.543 Y87.257 E102.09067
G0 F9000 X144.109 Y87.257
G1 F1800 X167.607 Y110.756 E103.74862
G0 F9000 X167.607 Y110.190
G1 F1800 X144.674 Y87.256 E105.36670
G0 F9000 X145.239 Y87.256
G1 F1800 X167.607 Y109.624 E106.94488
G0 F9000 X167.607 Y109.059
G1 F1800 X145.805 Y87.256 E108.48317
G0 F9000 X146.370 Y87.256
G1 F1800 X167.607 Y108.493 E109.98155
G0 F9000 X167.607 Y107.927
G1 F1800 X146.936 Y87.256 E111.44000
G0 F9000 X147.501 Y87.255
G1 F1800 X167.607 Y107.362 E112.85863
G0 F9000 X167.607 Y106.796
G1 F1800 X148.066 Y87.255 E114.23735
G0 F9000 X148.632 Y87.255
G1 F1800 X167.607 Y106.230 E115.57614
G0 F9000 X167.607 Y105.665
G1 F1800 X149.197 Y87.254 E116.87510
G0 F9000 X149.763 Y87.254
G1 F1800 X167.607 Y105.099 E118.13412
G0 F9000 X167.607 Y104.533
G1 F1800 X150.328 Y87.254 E119.35325
G0 F9000 X150.893 Y87.254
G1 F1800 X167.607 Y103.968 E120.53251
G0 F9000 X167.607 Y103.402
G1 F1800 X151.459 Y87.254 E121.67184
G0 F9000 X152.024 Y87.253
G1 F1800 X167.607 Y102.836 E122.77131
G0 F9000 X167.607 Y102.270
G1 F1800 X152.590 Y87.253 E123.83084
G0 F9000 X153.155 Y87.253
G1 F1800 X167.607 Y101.705 E124.85051
G0 F9000 X167.607 Y101.139
G1 F1800 X153.720 Y87.252 E125.83031
G0 F9000 X154.286 Y87.252
G1 F1800 X167.607 Y100.573 E126.77018
G0 F9000 X167.607 Y100.008
G1 F1800 X154.851 Y87.252 E127.67018
G0 F9000 X155.417 Y87.252
G1 F1800 X167.607 Y99.442 E128.53025
G0 F9000 X167.607 Y98.876
G1 F1800 X155.982 Y87.252 E129.35042
G0 F9000 X156.547 Y87.251
G1 F1800 X167.607 Y98.311 E130.13077
G0 F9000 X167.607 Y97.745
G1 F1800 X157.113 Y87.251 E130.87117
G0 F9000 X157.678 Y87.250
G1 F1800 X167.607 Y97.179 E131.57172
G0 F9000 X167.607 Y96.614
G1 F1800 X158.244 Y87.250 E132.23236
G0 F9000 X158.809 Y87.250
G1 F1800 X167.607 Y96.048 E132.85311
G0 F9000 X167.607 Y95.482
G1 F1800 X159.374 Y87.249 E133.43399
G0 F9000 X159.940 Y87.249
G1 F1800 X167.607 Y94.917 E133.97498
G0 F9000 X167.607 Y94.351
G1 F1800 X160.505 Y87.249 E134.47606
G0 F9000 X161.071 Y87.249
G1 F1800 X167.607 Y93.785 E134.93721
G0 F9000 X167.607 Y93.220
G1 F1800 X161.636 Y87.249 E135.35850
G0 F9000 X162.201 Y87.248
G1 F1800 X167.607 Y92.654 E135.73992
G0 F9000 X167.607 Y92.088
G1 F1800 X162.767 Y87.248 E136.08141
G0 F9000 X163.332 Y87.247
G1 F1800 X167.607 Y91.522 E136.38303
G0 F9000 X167.607 Y90.957
G1 F1800 X163.898 Y87.247 E136.64476
G0 F9000 X164.463 Y87.247
G1 F1800 X167.607 Y90.391 E136.86658
G0 F9000 X167.607 Y89.825
G1 F1800 X165.028 Y87.247 E137.04851
G0 F9000 X165.594 Y87.247
G1 F1800 X167.607 Y89.260 E137.19054
G0 F9000 X167.607 Y88.694
G1 F1800 X166.160 Y87.247 E137.29263
G0 F9000 X166.735 Y87.256
G1 F1800 X167.607 Y88.128 E137.35416
G0 F9000 X167.607 Y87.563
G1 F1800 X167.312 Y87.267 E137.37501
G0 F9000 X130.130 Y87.421
G1 F1800 X167.607 Y124.898 E140.01921
G0 F9000 X167.607 Y125.464
G1 F1800 X130.130 Y87.986 E142.66345
G0 F9000 X130.130 Y88.552
G1 F1800 X167.607 Y126.029 E145.30766
G0 F9000 X167.607 Y126.595
G1 F1800 X130.130 Y89.118 E147.95186
G0 F9000 X130.130 Y89.683
G1 F1800 X167.607 Y127.161 E150.59610
G0 F9000 X167.607 Y127.726
G1 F1800 X130.130 Y90.249 E153.24031
G0 F9000 X130.130 Y90.815
G1 F1800 X167.607 Y128.292 E155.88451
G0 F9000 X167.607 Y128.858
G1 F1800 X130.130 Y91.380 E158.52875
G0 F9000 X130.130 Y91.946
G1 F1800 X167.607 Y129.423 E161.17295
G0 F9000 X167.607 Y129.989
G1 F1800 X130.130 Y92.512 E163.81716
G0 F9000 X130.130 Y93.077
G1 F1800 X167.607 Y130.555 E166.46140
G0 F9000 X167.607 Y131.120
G1 F1800 X130.130 Y93.643 E169.10560
G0 F9000 X130.130 Y94.209
G1 F1800 X167.607 Y131.686 E171.74981
G0 F9000 X167.607 Y132.252
G1 F1800 X130.130 Y94.774 E174.39405
G0 F9000 X130.130 Y95.340
G1 F1800 X167.607 Y132.817 E177.03825
G0 F9000 X167.607 Y133.383
G1 F1800 X130.130 Y95.906 E179.68246
G0 F9000 X130.130 Y96.471
G1 F1800 X167.607 Y133.949 E182.32670
G0 F9000 X167.607 Y134.515
G1 F1800 X130.130 Y97.037 E184.97094
G0 F9000 X130.130 Y97.603
G1 F1800 X167.607 Y135.080 E187.61514
G0 F9000 X167.607 Y135.646
G1 F1800 X130.130 Y98.169 E190.25935
G0 F9000 X130.130 Y98.734
G1 F1800 X167.607 Y136.212 E192.90359
G0 F9000 X167.607 Y136.777
G1 F1800 X130.130 Y99.300 E195.54779
G0 F9000 X130.130 Y99.866
G1 F1800 X167.607 Y137.343 E198.19200
G0 F9000 X167.607 Y137.909
G1 F1800 X130.130 Y100.431 E200.83624
G0 F9000 X130.130 Y100.997
G1 F1800 X167.607 Y138.474 E203.48044
G0 F9000 X167.607 Y139.040
G1 F1800 X130.130 Y101.563 E206.12465
G0 F9000 X130.130 Y102.128
G1 F1800 X167.607 Y139.606 E208.76889
G0 F9000 X167.607 Y140.171
G1 F1800 X130.130 Y102.694 E211.41309
G0 F9000 X130.130 Y103.260
G1 F1800 X167.607 Y140.737 E214.05730
G0 F9000 X167.607 Y141.303
G1 F1800 X130.130 Y103.825 E216.70154
G0 F9000 X130.130 Y104.391
G1 F1800 X167.607 Y141.868 E219.34574
G0 F9000 X167.607 Y142.434
G1 F1800 X130.130 Y104.957 E221.98995
G0 F9000 X130.130 Y105.522
G1 F1800 X167.607 Y143.000 E224.63419
G0 F9000 X167.607 Y143.566
G1 F1800 X130.130 Y106.088 E227.27843
G0 F9000 X130.130 Y106.654
G1 F1800 X167.607 Y144.131 E229.92263
G0 F9000 X167.607 Y144.697
G1 F1800 X130.130 Y107.220 E232.56684
G0 F9000 X130.130 Y107.785
G1 F1800 X167.607 Y145.263 E235.21108
G0 F9000 X167.607 Y145.828
G1 F1800 X130.130 Y108.351 E237.85528
G0 F9000 X130.130 Y108.917
G1 F1800 X167.607 Y146.394 E240.49949
G0 F9000 X167.607 Y146.960
G1 F1800 X130.130 Y109.482 E243.14373
G0 F9000 X130.130 Y110.048
G1 F1800 X167.607 Y147.525 E245.78793
G0 F9000 X167.607 Y148.091
G1 F1800 X130.130 Y110.614 E248.43214
G0 F9000 X130.130 Y111.179
G1 F1800 X167.607 Y148.657 E251.07638
G0 F9000 X167.607 Y149.222
G1 F1800 X130.130 Y111.745 E253.72058
G0 F9000 X130.130 Y112.311
G1 F1800 X167.607 Y149.788 E256.36479
G0 F9000 X167.608 Y150.354
G1 F1800 X130.130 Y112.876 E259.00906
G0 F9000 X130.130 Y113.442
G1 F1800 X167.608 Y150.920 E261.65334
G0 F9000 X167.608 Y151.486
G1 F1800 X130.130 Y114.008 E264.29761
G0 F9000 X130.130 Y114.573
G1 F1800 X167.608 Y152.051 E266.94189
G0 F9000 X167.608 Y152.617
G1 F1800 X130.130 Y115.139 E269.58616
G0 F9000 X130.130 Y115.705
G1 F1800 X167.608 Y153.183 E272.23044
G0 F9000 X167.608 Y153.749
G1 F1800 X130.130 Y116.270 E274.87475
G0 F9000 X130.130 Y116.836
G1 F1800 X167.608 Y154.314 E277.51902
G0 F9000 X167.608 Y154.880
G1 F1800 X130.130 Y117.402 E280.16330
G0 F9000 X130.130 Y117.968
G1 F1800 X167.608 Y155.446 E282.80757
G0 F9000 X167.608 Y156.011
G1 F1800 X130.130 Y118.533 E285.45185
G0 F9000 X130.130 Y119.100
G1 F1800 X167.608 Y156.577 E288.09609
G0 F9000 X167.608 Y157.143
G1 F1800 X130.130 Y119.665 E290.74036
G0 F9000 X130.130 Y120.231
G1 F1800 X167.608 Y157.708 E293.38460
G0 F9000 X167.608 Y158.274
G1 F1800 X130.130 Y120.797 E296.02884
G0 F9000 X130.130 Y121.362
G1 F1800 X167.608 Y158.840 E298.67312
G0 F9000 X167.608 Y159.405
G1 F1800 X130.130 Y121.928 E301.31736
G0 F9000 X130.130 Y122.494
G1 F1800 X167.608 Y159.971 E303.96160
G0 F9000 X167.608 Y160.537
G1 F1800 X130.130 Y123.059 E306.60588
G0 F9000 X130.130 Y123.625
G1 F1800 X167.608 Y161.102 E309.25012
G0 F9000 X167.608 Y161.668
G1 F1800 X130.130 Y124.191 E311.89436
G0 F9000 X130.130 Y124.756
G1 F1800 X167.608 Y162.234 E314.53863
G0 F9000 X167.608 Y162.800
G1 F1800 X130.130 Y125.322 E317.18291
G0 F9000 X130.130 Y125.888
G1 F1800 X167.608 Y163.365 E319.82715
G0 F9000 X167.608 Y163.931
G1 F1800 X130.130 Y126.454 E322.47139
G0 F9000 X130.130 Y127.019
G1 F1800 X167.608 Y164.497 E325.11566
G0 F9000 X167.608 Y165.062
G1 F1800 X130.130 Y127.585 E327.75990
G0 F9000 X130.130 Y128.151
G1 F1800 X167.608 Y165.628 E330.40414
G0 F9000 X167.608 Y166.194
G1 F1800 X130.130 Y128.716 E333.04842
G0 F9000 X130.130 Y129.282
G1 F1800 X167.608 Y166.759 E335.69266
G0 F9000 X167.608 Y167.325
G1 F1800 X130.130 Y129.848 E338.33690
G0 F9000 X130.130 Y130.413
G1 F1800 X167.608 Y167.891 E340.98117
G0 F9000 X167.608 Y168.456
G1 F1800 X130.130 Y130.979 E343.62541
G0 F9000 X130.130 Y131.545
G1 F1800 X167.608 Y169.022 E346.26965
G0 F9000 X167.608 Y169.588
G1 F1800 X130.130 Y132.110 E348.91393
G0 F9000 X130.130 Y132.676
G1 F1800 X167.608 Y170.153 E351.55817
G0 F9000 X167.608 Y170.719
G1 F1800 X130.130 Y133.242 E354.20241
G0 F9000 X130.130 Y133.807
G1 F1800 X167.608 Y171.285 E356.84668
G0 F9000 X167.608 Y171.850
G1 F1800 X130.130 Y134.373 E359.49092
G0 F9000 X130.130 Y134.939
G1 F1800 X167.608 Y172.416 E362.13516
G0 F9000 X167.608 Y172.982
G1 F1800 X130.130 Y135.504 E364.77944
G0 F9000 X130.130 Y136.070
G1 F1800 X167.608 Y173.548 E367.42371
G0 F9000 X167.608 Y174.113
G1 F1800 X130.130 Y136.636 E370.06795
G0 F9000 X130.130 Y137.202
G1 F1800 X167.608 Y174.679 E372.71219
G0 F9000 X167.608 Y175.245
G1 F1800 X130.130 Y137.767 E375.35647
G0 F9000 X130.130 Y138.333
G1 F1800 X167.608 Y175.810 E378.00071
G0 F9000 X167.608 Y176.376
G1 F1800 X130.130 Y138.899 E380.64495
G0 F9000 X130.130 Y139.464
G1 F1800 X167.608 Y176.942 E383.28922
G0 F9000 X167.608 Y177.507
G1 F1800 X130.130 Y140.030 E385.93346
G0 F9000 X130.130 Y140.596
G1 F1800 X167.608 Y178.073 E388.57770
G0 F9000 X167.608 Y178.639
G1 F1800 X130.130 Y141.161 E391.22198
G0 F9000 X130.130 Y141.727
G1 F1800 X167.608 Y179.204 E393.86622
G0 F9000 X167.608 Y179.770
G1 F1800 X130.130 Y142.293 E396.51046
G0 F9000 X130.130 Y142.858
G1 F1800 X167.608 Y180.336 E399.15474
G0 F9000 X167.608 Y180.901
G1 F1800 X130.130 Y143.424 E401.79898
G0 F9000 X130.130 Y143.990
G1 F1800 X167.608 Y181.467 E404.44322
G0 F9000 X167.608 Y182.033
G1 F1800 X130.130 Y144.555 E407.08749
G0 F9000 X130.130 Y145.121
G1 F1800 X167.608 Y182.599 E409.73177
G0 F9000 X167.608 Y183.164
G1 F1800 X130.130 Y145.687 E412.37601
G0 F9000 X130.130 Y146.253
G1 F1800 X167.608 Y183.730 E415.02025
G0 F9000 X167.608 Y184.296
G1 F1800 X130.130 Y146.818 E417.66452
G0 F9000 X130.130 Y147.384
G1 F1800 X167.608 Y184.861 E420.30876
G0 F9000 X167.608 Y185.427
G1 F1800 X130.130 Y147.950 E422.95300
G0 F9000 X130.130 Y148.515
G1 F1800 X167.608 Y185.993 E425.59728
G0 F9000 X167.608 Y186.558
G1 F1800 X130.130 Y149.081 E428.24152
G0 F9000 X130.130 Y149.647
G1 F1800 X167.608 Y187.124 E430.88576
G0 F9000 X167.608 Y187.690
G1 F1800 X130.131 Y150.213 E433.52996
G0 F9000 X130.131 Y150.779
G1 F1800 X167.608 Y188.255 E436.17413
G0 F9000 X167.608 Y188.821
G1 F1800 X130.131 Y151.344 E438.81834
G0 F9000 X130.131 Y151.910
G1 F1800 X167.608 Y189.387 E441.46254
G0 F9000 X167.608 Y189.952
G1 F1800 X130.131 Y152.476 E444.10671
G0 F9000 X130.131 Y153.041
G1 F1800 X167.608 Y190.518 E446.75092
G0 F9000 X167.608 Y191.084
G1 F1800 X130.131 Y153.607 E449.39512
G0 F9000 X130.131 Y154.173
G1 F1800 X167.608 Y191.649 E452.03929
G0 F9000 X167.608 Y192.215
G1 F1800 X130.131 Y154.739 E454.68346
G0 F9000 X130.131 Y155.304
G1 F1800 X167.608 Y192.781 E457.32766
G0 F9000 X167.608 Y193.347
G1 F1800 X130.131 Y155.870 E459.97187
G0 F9000 X130.131 Y156.436
G1 F1800 X167.608 Y193.912 E462.61604
G0 F9000 X167.608 Y194.478
G1 F1800 X130.131 Y157.001 E465.26024
G0 F9000 X130.131 Y157.567
G1 F1800 X167.608 Y195.044 E467.90445
G0 F9000 X167.608 Y195.609
G1 F1800 X130.131 Y158.133 E470.54862
G0 F9000 X130.131 Y158.698
G1 F1800 X167.608 Y196.175 E473.19282
G0 F9000 X167.608 Y196.741
G1 F1800 X130.131 Y159.264 E475.83703
G0 F9000 X130.131 Y159.830
G1 F1800 X167.608 Y197.306 E478.48120
G0 F9000 X167.608 Y197.872
G1 F1800 X130.131 Y160.395 E481.12540
