;Generated with Cura_SteamEngine 15.01
; Default start code
G28 ; Home extruder
G1 Z15 F100
M107 ; Turn off fan
G90 ; Absolute positioning
M82 ; Extruder in absolute mode
M190 S50
; Activate all used extruder
M104 T0 S210
G92 E0 ; Reset extruder position
; Wait for all used extruders to reach temperature
M109 T0 S210
;Layer count: 151
;LAYER:0
M107
G0 F9000 X108.700 Y146.300 Z0.300
;TYPE:SKIRT
G1 F1800 X191.300 Y146.300 E4.12093
G1 X191.300 Y153.700 E4.49012
G1 X108.700 Y153.700 E8.61105
G1 X108.700 Y146.300 E8.98024
G1 F2400 E4.98024
G0 F9000 X112.100 Y149.700
;TYPE:WALL-OUTER
G1 F2400 E8.98024
G1 F1800 X187.900 Y149.700 E12.76191
G1 X187.900 Y150.300 E12.79185
G1 X112.100 Y150.300 E16.57353
G1 X112.100 Y149.700 E16.60346
G0 F9000 X112.239 Y149.857
;TYPE:SKIN
G1 F1800 X112.663 Y149.999 E16.62471
G1 X113.229 Y149.999 E16.64716
G1 X113.795 Y149.999 E16.66961
G1 X114.361 Y149.999 E16.69206
G1 X114.926 Y149.999 E16.71454
G1 X115.492 Y149.999 E16.73698
G1 X116.058 Y149.999 E16.75943
G1 X116.623 Y149.999 E16.78191
G1 X117.189 Y149.999 E16.80436
G1 X117.755 Y149.999 E16.82681
G1 X118.320 Y149.999 E16.84929
G1 X118.886 Y149.999 E16.87174
G1 X119.452 Y149.999 E16.89419
G1 X120.017 Y149.999 E16.91667
G1 X120.583 Y149.999 E16.93912
G1 X121.149 Y149.999 E16.96157
G1 X121.714 Y149.999 E16.98398
G1 X122.280 Y149.999 E17.00643
G1 X122.846 Y149.999 E17.02888
G1 X123.412 Y149.999 E17.05132
G1 X123.977 Y149.999 E17.07380
G1 X124.543 Y149.999 E17.09625
G1 X125.109 Y149.999 E17.11870
G1 X125.674 Y149.999 E17.14118
G1 X126.240 Y149.999 E17.16363
G1 X126.806 Y149.999 E17.18608
G1 X127.371 Y149.999 E17.20856
G1 X127.937 Y149.999 E17.23101
G1 X128.503 Y149.999 E17.25346
G1 X129.068 Y149.999 E17.27594
G1 X129.634 Y149.999 E17.29839
G1 X130.200 Y149.999 E17.32084
G1 X130.765 Y149.999 E17.34325
G1 X131.331 Y149.999 E17.36570
G1 X131.897 Y149.999 E17.38814
G1 X132.462 Y149.999 E17.41055
G1 X133.028 Y149.999 E17.43300
G1 X133.594 Y149.999 E17.45545
G1 X134.160 Y149.999 E17.47790
G1 X134.725 Y149.999 E17.50038
G1 X135.291 Y149.999 E17.52283
G1 X135.857 Y149.999 E17.54528
G1 X136.422 Y149.999 E17.56776
G1 X136.988 Y149.999 E17.59021
G1 X137.554 Y149.999 E17.61266
G1 X138.119 Y149.999 E17.63514
G1 X138.685 Y149.999 E17.65759
G1 X139.251 Y149.999 E17.68004
G1 X139.816 Y149.999 E17.70252
G1 X140.382 Y149.999 E17.72496
G1 X140.948 Y149.999 E17.74741
G1 X141.513 Y149.999 E17.76982
G1 X142.079 Y149.999 E17.79227
G1 X142.645 Y149.999 E17.81472
G1 X143.211 Y149.999 E17.83717
G1 X143.776 Y149.999 E17.85965
G1 X144.342 Y149.999 E17.88210
G1 X144.908 Y149.999 E17.90455
G1 X145.473 Y149.999 E17.92703
G1 X146.039 Y149.999 E17.94948
G1 X146.605 Y149.999 E17.97193
G1 X147.170 Y149.999 E17.99441
G1 X147.736 Y149.999 E18.01686
G1 X148.302 Y149.999 E18.03930
G1 X148.867 Y149.999 E18.06178
G1 X149.433 Y149.999 E18.08423
G1 X149.999 Y149.999 E18.10668
G1 X150.564 Y149.999 E18.12909
G1 X151.130 Y149.999 E18.15154
G1 X151.696 Y149.999 E18.17399
G1 X152.261 Y149.999 E18.19640
G1 X152.827 Y149.999 E18.21885
G1 X153.393 Y149.999 E18.24130
G1 X153.959 Y149.999 E18.26375
G1 X154.524 Y149.999 E18.28623
G1 X155.090 Y149.999 E18.30868
G1 X155.656 Y149.999 E18.33112
G1 X156.221 Y149.999 E18.35360
G1 X156.787 Y149.999 E18.37605
G1 X157.353 Y149.999 E18.39850
G1 X157.918 Y149.999 E18.42098
G1 X158.484 Y149.999 E18.44343
G1 X159.050 Y149.999 E18.46588
G1 X159.615 Y149.999 E18.48836
G1 X160.181 Y149.999 E18.51081
G1 X160.747 Y149.999 E18.53326
G1 X161.312 Y149.999 E18.55567
G1 X161.878 Y149.999 E18.57812
G1 X162.444 Y149.999 E18.60057
G1 X163.009 Y149.999 E18.62298
G1 X163.575 Y149.999 E18.64543
G1 X164.141 Y149.999 E18.66787
G1 X164.707 Y149.999 E18.69032
G1 X165.272 Y149.999 E18.71280
G1 X165.838 Y149.999 E18.73525
G1 X166.404 Y149.999 E18.75770
G1 X166.969 Y149.999 E18.78018
G1 X167.535 Y149.999 E18.80263
G1 X168.101 Y149.999 E18.82508
G1 X168.666 Y149.999 E18.84756
G1 X169.232 Y149.999 E18.87001
G1 X169.798 Y149.999 E18.89246
G1 X170.363 Y149.999 E18.91487
G1 X170.929 Y149.999 E18.93732
G1 X171.495 Y149.999 E18.95977
G1 X172.060 Y149.999 E18.98217
G1 X172.626 Y149.999 E19.00462
G1 X173.192 Y149.999 E19.02707
G1 X173.758 Y149.999 E19.04952
G1 X174.323 Y149.999 E19.07200
G1 X174.889 Y149.999 E19.09445
G1 X175.455 Y149.999 E19.11690
G1 X176.020 Y149.999 E19.13938
G1 X176.586 Y149.999 E19.16183
G1 X177.152 Y149.999 E19.18428
G1 X177.717 Y149.999 E19.20676
G1 X178.283 Y149.999 E19.22921
G1 X178.849 Y149.999 E19.25166
G1 X179.414 Y149.999 E19.27414
G1 X179.980 Y149.999 E19.29659
G1 X180.546 Y149.999 E19.31903
G1 X181.111 Y149.999 E19.34144
G1 X181.677 Y149.999 E19.36389
G1 X182.243 Y149.999 E19.38634
G1 X182.808 Y149.999 E19.40875
G1 X183.374 Y149.999 E19.43120
G1 X183.940 Y149.999 E19.45365
G1 X184.506 Y149.999 E19.47610
G1 X185.071 Y149.999 E19.49858
G1 X185.637 Y149.999 E19.52103
G1 X186.203 Y149.999 E19.54348
G1 X186.768 Y149.999 E19.56596
G1 X187.334 Y149.999 E19.58841
G1 X187.759 Y150.141 E19.61076
;LAYER:1
M106 S63
G0 F9000 X187.900 Y150.300 Z0.500
;TYPE:WALL-OUTER
G1 F1980 X112.100 Y150.300 E22.13188
G1 X112.100 Y149.700 E22.15184
G1 X187.900 Y149.700 E24.67295
G1 X187.900 Y150.300 E24.69291
G0 F9000 X187.591 Y149.839
;TYPE:SKIN
G1 F1980 X187.148 Y149.999 E24.70791
G1 X186.582 Y149.999 E24.72297
G1 X186.017 Y149.999 E24.73800
G1 X185.451 Y149.999 E24.75302
G1 X184.885 Y149.999 E24.76808
G1 X184.320 Y149.999 E24.78311
G1 X183.754 Y149.999 E24.79812
G1 X183.188 Y149.999 E24.81318
G1 X182.623 Y149.999 E24.82822
G1 X182.057 Y149.999 E24.84323
G1 X181.491 Y149.999 E24.85829
G1 X180.926 Y149.999 E24.87332
G1 X180.360 Y149.999 E24.88834
G1 X179.794 Y149.999 E24.90335
G1 X179.228 Y149.999 E24.91841
G1 X178.663 Y149.999 E24.93344
G1 X178.097 Y149.999 E24.94846
G1 X177.531 Y149.999 E24.96352
G1 X176.966 Y149.999 E24.97855
G1 X176.400 Y149.999 E24.99356
G1 X175.834 Y149.999 E25.00862
G1 X175.269 Y149.999 E25.02366
G1 X174.703 Y149.999 E25.03867
G1 X174.137 Y149.999 E25.05373
G1 X173.572 Y149.999 E25.06877
G1 X173.006 Y149.999 E25.08378
G1 X172.440 Y149.999 E25.09884
G1 X171.875 Y149.999 E25.11387
G1 X171.309 Y149.999 E25.12889
G1 X170.743 Y149.999 E25.14395
G1 X170.178 Y149.999 E25.15898
G1 X169.612 Y149.999 E25.17399
G1 X169.046 Y149.999 E25.18901
G1 X168.480 Y149.999 E25.20407
G1 X167.915 Y149.999 E25.21910
G1 X167.349 Y149.999 E25.23411
G1 X166.783 Y149.999 E25.24917
G1 X166.218 Y149.999 E25.26421
G1 X165.652 Y149.999 E25.27922
G1 X165.086 Y149.999 E25.29428
G1 X164.521 Y149.999 E25.30931
G1 X163.955 Y149.999 E25.32433
G1 X163.389 Y149.999 E25.33939
G1 X162.824 Y149.999 E25.35442
G1 X162.258 Y149.999 E25.36943
G1 X161.692 Y149.999 E25.38449
G1 X161.127 Y149.999 E25.39953
G1 X160.561 Y149.999 E25.41454
G1 X159.995 Y149.999 E25.42955
G1 X159.429 Y149.999 E25.44461
G1 X158.864 Y149.999 E25.45965
G1 X158.298 Y149.999 E25.47466
G1 X157.732 Y149.999 E25.48972
G1 X157.167 Y149.999 E25.50475
G1 X156.601 Y149.999 E25.51977
G1 X156.035 Y149.999 E25.53483
G1 X155.470 Y149.999 E25.54986
G1 X154.904 Y149.999 E25.56487
G1 X154.338 Y149.999 E25.57993
G1 X153.773 Y149.999 E25.59497
G1 X153.207 Y149.999 E25.60998
G1 X152.641 Y149.999 E25.62504
G1 X152.076 Y149.999 E25.64007
G1 X151.510 Y149.999 E25.65509
G1 X150.944 Y149.999 E25.67015
G1 X150.379 Y149.999 E25.68518
G1 X149.813 Y149.999 E25.70019
G1 X149.247 Y149.999 E25.71521
G1 X148.681 Y149.999 E25.73027
G1 X148.116 Y149.999 E25.74530
G1 X147.550 Y149.999 E25.76031
G1 X146.984 Y149.999 E25.77537
G1 X146.419 Y149.999 E25.79041
G1 X145.853 Y149.999 E25.80542
G1 X145.287 Y149.999 E25.82048
G1 X144.722 Y149.999 E25.83552
G1 X144.156 Y149.999 E25.85053
G1 X143.590 Y149.999 E25.86559
G1 X143.025 Y149.999 E25.88062
G1 X142.459 Y149.999 E25.89564
G1 X141.893 Y149.999 E25.91070
G1 X141.328 Y149.999 E25.92573
G1 X140.762 Y149.999 E25.94074
G1 X140.196 Y149.999 E25.95580
G1 X139.630 Y149.999 E25.97086
G1 X139.065 Y149.999 E25.98590
G1 X138.499 Y149.999 E26.00091
G1 X137.933 Y149.999 E26.01597
G1 X137.368 Y149.999 E26.03100
G1 X136.802 Y149.999 E26.04602
G1 X136.236 Y149.999 E26.06108
G1 X135.671 Y149.999 E26.07611
G1 X135.105 Y149.999 E26.09112
G1 X134.539 Y149.999 E26.10618
G1 X133.974 Y149.999 E26.12122
G1 X133.408 Y149.999 E26.13623
G1 X132.842 Y149.999 E26.15129
G1 X132.277 Y149.999 E26.16632
G1 X131.711 Y149.999 E26.18134
G1 X131.145 Y149.999 E26.19640
G1 X130.580 Y149.999 E26.21143
G1 X130.014 Y149.999 E26.22644
G1 X129.448 Y149.999 E26.24146
G1 X128.882 Y149.999 E26.25652
G1 X128.317 Y149.999 E26.27155
G1 X127.751 Y149.999 E26.28656
G1 X127.185 Y149.999 E26.30162
G1 X126.620 Y149.999 E26.31666
G1 X126.054 Y149.999 E26.33167
G1 X125.488 Y149.999 E26.34673
G1 X124.923 Y149.999 E26.36176
G1 X124.357 Y149.999 E26.37678
G1 X123.791 Y149.999 E26.39184
G1 X123.226 Y149.999 E26.40687
G1 X122.660 Y149.999 E26.42188
G1 X122.094 Y149.999 E26.43694
G1 X121.529 Y149.999 E26.45198
G1 X120.963 Y149.999 E26.46699
G1 X120.397 Y149.999 E26.48205
G1 X119.832 Y149.999 E26.49708
G1 X119.266 Y149.999 E26.51210
G1 X118.700 Y149.999 E26.52711
G1 X118.134 Y149.999 E26.54217
G1 X117.569 Y149.999 E26.55720
G1 X117.003 Y149.999 E26.57222
G1 X116.437 Y149.999 E26.58728
G1 X115.872 Y149.999 E26.60231
G1 X115.306 Y149.999 E26.61732
G1 X114.740 Y149.999 E26.63239
G1 X114.175 Y149.999 E26.64742
G1 X113.609 Y149.999 E26.66243
G1 X113.043 Y149.999 E26.67749
G1 X112.478 Y149.999 E26.69253
G1 X112.239 Y149.955 E26.70061
;LAYER:2
M106 S127
G0 F9000 X112.100 Y149.700 Z0.700
;TYPE:WALL-OUTER
G1 F2220 X187.900 Y149.700 E29.22173
G1 X187.900 Y150.300 E29.24168
G1 X112.100 Y150.300 E31.76280
G1 X112.100 Y149.700 E31.78276
G0 F9000 X112.239 Y149.857
;TYPE:SKIN
G1 F2220 X112.663 Y149.999 E31.79692
G1 X113.229 Y149.999 E31.81189
G1 X113.795 Y149.999 E31.82685
G1 X114.361 Y149.999 E31.84182
G1 X114.926 Y149.999 E31.85681
G1 X115.492 Y149.999 E31.87177
G1 X116.058 Y149.999 E31.88674
G1 X116.623 Y149.999 E31.90173
G1 X117.189 Y149.999 E31.91669
G1 X117.755 Y149.999 E31.93166
G1 X118.320 Y149.999 E31.94664
G1 X118.886 Y149.999 E31.96161
G1 X119.452 Y149.999 E31.97658
G1 X120.017 Y149.999 E31.99156
G1 X120.583 Y149.999 E32.00653
G1 X121.149 Y149.999 E32.02150
G1 X121.714 Y149.999 E32.03644
G1 X122.280 Y149.999 E32.05140
G1 X122.846 Y149.999 E32.06637
G1 X123.412 Y149.999 E32.08133
G1 X123.977 Y149.999 E32.09632
G1 X124.543 Y149.999 E32.11129
G1 X125.109 Y149.999 E32.12625
G1 X125.674 Y149.999 E32.14124
G1 X126.240 Y149.999 E32.15620
G1 X126.806 Y149.999 E32.17117
G1 X127.371 Y149.999 E32.18616
G1 X127.937 Y149.999 E32.20112
G1 X128.503 Y149.999 E32.21609
G1 X129.068 Y149.999 E32.23108
G1 X129.634 Y149.999 E32.24604
G1 X130.200 Y149.999 E32.26101
G1 X130.765 Y149.999 E32.27595
G1 X131.331 Y149.999 E32.29091
G1 X131.897 Y149.999 E32.30588
G1 X132.462 Y149.999 E32.32082
G1 X133.028 Y149.999 E32.33579
G1 X133.594 Y149.999 E32.35075
G1 X134.160 Y149.999 E32.36572
G1 X134.725 Y149.999 E32.38070
G1 X135.291 Y149.999 E32.39567
G1 X135.857 Y149.999 E32.41064
G1 X136.422 Y149.999 E32.42562
G1 X136.988 Y149.999 E32.44059
G1 X137.554 Y149.999 E32.45556
G1 X138.119 Y149.999 E32.47054
G1 X138.685 Y149.999 E32.48551
G1 X139.251 Y149.999 E32.50047
G1 X139.816 Y149.999 E32.51546
G1 X140.382 Y149.999 E32.53043
G1 X140.948 Y149.999 E32.54539
G1 X141.513 Y149.999 E32.56033
G1 X142.079 Y149.999 E32.57530
G1 X142.645 Y149.999 E32.59026
G1 X143.211 Y149.999 E32.60523
G1 X143.776 Y149.999 E32.62022
G1 X144.342 Y149.999 E32.63518
G1 X144.908 Y149.999 E32.65015
G1 X145.473 Y149.999 E32.66514
G1 X146.039 Y149.999 E32.68010
G1 X146.605 Y149.999 E32.69507
G1 X147.170 Y149.999 E32.71005
G1 X147.736 Y149.999 E32.72502
G1 X148.302 Y149.999 E32.73999
G1 X148.867 Y149.999 E32.75497
G1 X149.433 Y149.999 E32.76994
G1 X149.999 Y149.999 E32.78491
G1 X150.564 Y149.999 E32.79985
G1 X151.130 Y149.999 E32.81481
G1 X151.696 Y149.999 E32.82978
G1 X152.261 Y149.999 E32.84472
G1 X152.827 Y149.999 E32.85968
G1 X153.393 Y149.999 E32.87465
G1 X153.959 Y149.999 E32.88962
G1 X154.524 Y149.999 E32.90460
G1 X155.090 Y149.999 E32.91957
G1 X155.656 Y149.999 E32.93453
G1 X156.221 Y149.999 E32.94952
G1 X156.787 Y149.999 E32.96449
G1 X157.353 Y149.999 E32.97945
G1 X157.918 Y149.999 E32.99444
G1 X158.484 Y149.999 E33.00941
G1 X159.050 Y149.999 E33.02437
G1 X159.615 Y149.999 E33.03936
G1 X160.181 Y149.999 E33.05432
G1 X160.747 Y149.999 E33.06929
G1 X161.312 Y149.999 E33.08423
G1 X161.878 Y149.999 E33.09920
G1 X162.444 Y149.999 E33.11416
G1 X163.009 Y149.999 E33.12910
G1 X163.575 Y149.999 E33.14407
G1 X164.141 Y149.999 E33.15903
G1 X164.707 Y149.999 E33.17400
G1 X165.272 Y149.999 E33.18899
G1 X165.838 Y149.999 E33.20395
G1 X166.404 Y149.999 E33.21892
G1 X166.969 Y149.999 E33.23391
G1 X167.535 Y149.999 E33.24887
G1 X168.101 Y149.999 E33.26384
G1 X168.666 Y149.999 E33.27882
G1 X169.232 Y149.999 E33.29379
G1 X169.798 Y149.999 E33.30876
G1 X170.363 Y149.999 E33.32370
G1 X170.929 Y149.999 E33.33866
G1 X171.495 Y149.999 E33.35363
G1 X172.060 Y149.999 E33.36857
G1 X172.626 Y149.999 E33.38353
G1 X173.192 Y149.999 E33.39850
G1 X173.758 Y149.999 E33.41347
G1 X174.323 Y149.999 E33.42845
G1 X174.889 Y149.999 E33.44342
G1 X175.455 Y149.999 E33.45838
G1 X176.020 Y149.999 E33.47337
G1 X176.586 Y149.999 E33.48834
G1 X177.152 Y149.999 E33.50330
G1 X177.717 Y149.999 E33.51829
G1 X178.283 Y149.999 E33.53326
G1 X178.849 Y149.999 E33.54822
G1 X179.414 Y149.999 E33.56321
G1 X179.980 Y149.999 E33.57817
G1 X180.546 Y149.999 E33.59314
G1 X181.111 Y149.999 E33.60808
G1 X181.677 Y149.999 E33.62305
G1 X182.243 Y149.999 E33.63801
G1 X182.808 Y149.999 E33.65295
G1 X183.374 Y149.999 E33.66792
G1 X183.940 Y149.999 E33.68288
G1 X184.506 Y149.999 E33.69785
G1 X185.071 Y149.999 E33.71284
G1 X185.637 Y149.999 E33.72780
G1 X186.203 Y149.999 E33.74277
G1 X186.768 Y149.999 E33.75776
G1 X187.334 Y149.999 E33.77272
G1 X187.759 Y150.141 E33.78763
;LAYER:3
M106 S142
G0 F9000 X187.900 Y150.300 Z0.900
;TYPE:WALL-OUTER
G1 F2220 X112.100 Y150.300 E36.30874
G1 X112.100 Y149.700 E36.32870
G1 X187.900 Y149.700 E38.84982
G1 X187.900 Y150.300 E38.86977
G0 F9000 X187.759 Y149.881
;TYPE:FILL
G1 F3720 X187.177 Y149.999 E38.88286
G1 X186.251 Y149.999 E38.89787
G1 X185.325 Y149.999 E38.91289
G1 X184.398 Y149.999 E38.92792
G1 X183.472 Y149.999 E38.94293
G1 X182.546 Y149.999 E38.95795
G1 X181.620 Y149.999 E38.97296
G1 X180.693 Y149.999 E38.98799
G1 X179.767 Y149.999 E39.00301
G1 X178.841 Y149.999 E39.01802
G1 X177.914 Y149.999 E39.03305
G1 X176.988 Y149.999 E39.04807
G1 X176.062 Y149.999 E39.06308
G1 X175.135 Y149.999 E39.07811
G1 X174.209 Y149.999 E39.09313
G1 X173.283 Y149.999 E39.10814
G1 X172.356 Y149.999 E39.12317
G1 X171.430 Y149.999 E39.13819
G1 X170.504 Y149.999 E39.15320
G1 X169.577 Y149.999 E39.16823
G1 X168.651 Y149.999 E39.18325
G1 X167.725 Y149.999 E39.19826
G1 X166.799 Y149.999 E39.21327
G1 X165.872 Y149.999 E39.22830
G1 X164.946 Y149.999 E39.24332
G1 X164.020 Y149.999 E39.25833
G1 X163.093 Y149.999 E39.27336
G1 X162.167 Y149.999 E39.28838
G1 X161.241 Y149.999 E39.30339
G1 X160.314 Y149.999 E39.31842
G1 X159.388 Y149.999 E39.33344
G1 X158.462 Y149.999 E39.34845
G1 X157.535 Y149.999 E39.36348
G1 X156.609 Y149.999 E39.37850
G1 X155.683 Y149.999 E39.39351
G1 X154.757 Y149.999 E39.40853
G1 X153.830 Y149.999 E39.42356
G1 X152.904 Y149.999 E39.43857
G1 X151.978 Y149.999 E39.45359
G1 X151.051 Y149.999 E39.46862
G1 X150.125 Y149.999 E39.48363
G1 X149.199 Y149.999 E39.49865
G1 X148.272 Y149.999 E39.51368
G1 X147.346 Y149.999 E39.52869
G1 X146.420 Y149.999 E39.54371
G1 X145.493 Y149.999 E39.55874
G1 X144.567 Y149.999 E39.57375
G1 X143.641 Y149.999 E39.58877
G1 X142.715 Y149.999 E39.60378
G1 X141.788 Y149.999 E39.61881
G1 X140.862 Y149.999 E39.63382
G1 X139.936 Y149.999 E39.64884
G1 X139.009 Y149.999 E39.66387
G1 X138.083 Y149.999 E39.67888
G1 X137.157 Y149.999 E39.69390
G1 X136.230 Y149.999 E39.70893
G1 X135.304 Y149.999 E39.72394
G1 X134.378 Y149.999 E39.73896
G1 X133.451 Y149.999 E39.75399
G1 X132.525 Y149.999 E39.76900
G1 X131.599 Y149.999 E39.78402
G1 X130.672 Y149.999 E39.79905
G1 X129.746 Y149.999 E39.81406
G1 X128.820 Y149.999 E39.82908
G1 X127.894 Y149.999 E39.84409
