;Generated with Cura_SteamEngine 15.01
; Default start code
G28 ; Home extruder
G1 Z15 F100
M107 ; Turn off fan
G90 ; Absolute positioning
M82 ; Extruder in absolute mode
M190 S50
; Activate all used extruder
M104 T0 S210
G92 E0 ; Reset extruder position
; Wait for all used extruders to reach temperature
M109 T0 S210
;Layer count: 58
;LAYER:0
M107
G0 F9000 X81.050 Y144.900 Z0.300
;TYPE:SKIRT
G1 F1800 X100.250 Y144.900 E0.95789
G1 X100.250 Y155.100 E1.46677
G1 X81.050 Y155.100 E2.42466
G1 X81.050 Y144.900 E2.93354
G0 F9000 X81.450 Y145.300
G1 F1800 X99.850 Y145.300 E3.85152
G1 X99.850 Y154.700 E4.32049
G1 X81.450 Y154.700 E5.23847
G1 X81.450 Y145.300 E5.70744
G0 F9000 X199.750 Y144.900
G1 F1800 X218.950 Y144.900 E6.66533
G1 X218.950 Y155.100 E7.17421
G1 X199.750 Y155.100 E8.13210
G1 X199.750 Y144.900 E8.64098
G0 F9000 X200.150 Y145.300
G1 F1800 X218.550 Y145.300 E9.55896
G1 X218.550 Y154.700 E10.02793
G1 X200.150 Y154.700 E10.94591
G1 X200.150 Y145.300 E11.41488
G1 F2400 E7.41488
G0 F9000 X96.050 Y149.100
;TYPE:WALL-INNER
G1 F2400 E11.41488
G1 F1800 X96.050 Y150.900 E11.50468
G1 X85.250 Y150.900 E12.04349
G1 X85.250 Y149.100 E12.13330
G1 X96.050 Y149.100 E12.67211
G0 F9000 X96.450 Y148.700
;TYPE:WALL-OUTER
G1 F1800 X96.450 Y151.300 E12.80183
G1 X84.850 Y151.300 E13.38055
G1 X84.850 Y148.700 E13.51027
G1 X96.450 Y148.700 E14.08899
G0 F9000 X95.910 Y149.367
;TYPE:SKIN
G1 F1800 X95.782 Y149.239 E14.09802
G0 F9000 X95.216 Y149.239
G1 F1800 X95.910 Y149.933 E14.14699
G0 F9000 X95.910 Y150.499
G1 F1800 X94.651 Y149.239 E14.23585
G0 F9000 X94.085 Y149.239
G1 F1800 X95.605 Y150.759 E14.34310
G0 F9000 X95.039 Y150.759
G1 F1800 X93.519 Y149.239 E14.45034
G0 F9000 X92.954 Y149.239
G1 F1800 X94.473 Y150.759 E14.55755
G0 F9000 X93.908 Y150.759
G1 F1800 X92.388 Y149.239 E14.66480
G0 F9000 X91.822 Y149.239
G1 F1800 X93.342 Y150.759 E14.77204
G0 F9000 X92.776 Y150.759
G1 F1800 X91.257 Y149.239 E14.87925
G0 F9000 X90.691 Y149.239
G1 F1800 X92.210 Y150.759 E14.98646
G0 F9000 X91.645 Y150.759
G1 F1800 X90.125 Y149.239 E15.09370
G0 F9000 X89.560 Y149.239
G1 F1800 X91.079 Y150.759 E15.20091
G0 F9000 X90.513 Y150.759
G1 F1800 X88.994 Y149.239 E15.30812
G0 F9000 X88.428 Y149.239
G1 F1800 X89.948 Y150.759 E15.41536
G0 F9000 X89.382 Y150.759
G1 F1800 X87.862 Y149.239 E15.52261
G0 F9000 X87.297 Y149.239
G1 F1800 X88.816 Y150.759 E15.62982
G0 F9000 X88.251 Y150.759
G1 F1800 X86.731 Y149.239 E15.73706
G0 F9000 X86.165 Y149.239
G1 F1800 X87.685 Y150.759 E15.84431
G0 F9000 X87.119 Y150.759
G1 F1800 X85.600 Y149.239 E15.95151
G0 F9000 X85.390 Y149.595
G1 F1800 X86.554 Y150.759 E16.03364
G0 F9000 X85.988 Y150.759
G1 F1800 X85.390 Y150.161 E16.07583
G1 F2400 E12.07583
G0 F9000 X203.950 Y150.900
;TYPE:WALL-INNER
G1 F2400 E16.07583
G1 F1800 X203.950 Y149.100 E16.16564
G1 X214.750 Y149.100 E16.70445
G1 X214.750 Y150.900 E16.79425
G1 X203.950 Y150.900 E17.33307
G0 F9000 X203.550 Y151.300
;TYPE:WALL-OUTER
G1 F1800 X203.550 Y148.700 E17.46278
G1 X215.150 Y148.700 E18.04151
G1 X215.150 Y151.300 E18.17122
G1 X203.550 Y151.300 E18.74995
G0 F9000 X204.216 Y150.759
;TYPE:SKIN
G1 F1800 X204.089 Y150.632 E18.75891
G0 F9000 X204.089 Y150.066
G1 F1800 X204.782 Y150.759 E18.80780
G0 F9000 X205.348 Y150.759
G1 F1800 X204.089 Y149.500 E18.89663
G0 F9000 X204.394 Y149.240
G1 F1800 X205.913 Y150.759 E19.00381
G0 F9000 X206.479 Y150.759
G1 F1800 X204.960 Y149.240 E19.11098
G0 F9000 X205.526 Y149.240
G1 F1800 X207.045 Y150.759 E19.21815
G0 F9000 X207.610 Y150.759
G1 F1800 X206.091 Y149.240 E19.32533
G0 F9000 X206.657 Y149.240
G1 F1800 X208.176 Y150.759 E19.43250
G0 F9000 X208.742 Y150.759
G1 F1800 X207.223 Y149.240 E19.53967
G0 F9000 X207.788 Y149.240
G1 F1800 X209.307 Y150.759 E19.64685
G0 F9000 X209.873 Y150.759
G1 F1800 X208.354 Y149.240 E19.75402
G0 F9000 X208.920 Y149.240
G1 F1800 X210.439 Y150.759 E19.86120
G0 F9000 X211.004 Y150.759
G1 F1800 X209.486 Y149.240 E19.96833
G0 F9000 X210.051 Y149.240
G1 F1800 X211.570 Y150.759 E20.07551
G0 F9000 X212.136 Y150.759
G1 F1800 X210.617 Y149.240 E20.18268
G0 F9000 X211.183 Y149.240
G1 F1800 X212.701 Y150.759 E20.28982
G0 F9000 X213.267 Y150.759
G1 F1800 X211.748 Y149.240 E20.39699
G0 F9000 X212.314 Y149.240
G1 F1800 X213.833 Y150.759 E20.50417
G0 F9000 X214.399 Y150.759
G1 F1800 X212.880 Y149.240 E20.61134
G0 F9000 X213.445 Y149.240
G1 F1800 X214.609 Y150.403 E20.69343
G0 F9000 X214.609 Y149.838
G1 F1800 X214.011 Y149.240 E20.73562
;LAYER:1
M106 S63
G1 F2400 E16.73562
G0 F9000 X96.050 Y149.100 Z0.500
;TYPE:WALL-INNER
G1 F2400 E20.73562
G1 F2220 X96.050 Y150.900 E20.79549
G1 X85.250 Y150.900 E21.15470
G1 X85.250 Y149.100 E21.21457
G1 X96.050 Y149.100 E21.57378
G0 F9000 X96.450 Y148.700
;TYPE:WALL-OUTER
G1 F1980 X96.450 Y151.300 E21.66026
G1 X84.850 Y151.300 E22.04607
G1 X84.850 Y148.700 E22.13255
G1 X96.450 Y148.700 E22.51837
G0 F9000 X95.909 Y149.314
;TYPE:SKIN
G1 F1980 X94.465 Y150.759 E22.58631
G0 F9000 X95.030 Y150.759
G1 F1980 X95.909 Y149.880 E22.62766
G0 F9000 X95.909 Y150.446
G1 F1980 X95.596 Y150.759 E22.64238
G0 F9000 X95.419 Y149.239
G1 F1980 X93.899 Y150.759 E22.71388
G0 F9000 X93.333 Y150.759
G1 F1980 X94.854 Y149.239 E22.78540
G0 F9000 X94.288 Y149.239
G1 F1980 X92.768 Y150.759 E22.85689
G0 F9000 X92.202 Y150.759
G1 F1980 X93.722 Y149.239 E22.92839
G0 F9000 X93.157 Y149.239
G1 F1980 X91.636 Y150.759 E22.99991
G0 F9000 X91.071 Y150.759
G1 F1980 X92.591 Y149.239 E23.07140
G0 F9000 X92.025 Y149.239
G1 F1980 X90.505 Y150.759 E23.14290
G0 F9000 X89.939 Y150.759
G1 F1980 X91.460 Y149.239 E23.21442
G0 F9000 X90.894 Y149.239
G1 F1980 X89.374 Y150.759 E23.28592
G0 F9000 X88.808 Y150.759
G1 F1980 X90.328 Y149.239 E23.35741
G0 F9000 X89.762 Y149.239
G1 F1980 X88.242 Y150.759 E23.42891
G0 F9000 X87.676 Y150.759
G1 F1980 X89.197 Y149.239 E23.50043
G0 F9000 X88.631 Y149.239
G1 F1980 X87.111 Y150.759 E23.57192
G0 F9000 X86.545 Y150.759
G1 F1980 X88.065 Y149.239 E23.64342
G0 F9000 X87.500 Y149.239
G1 F1980 X85.979 Y150.759 E23.71494
G0 F9000 X85.414 Y150.759
G1 F1980 X86.934 Y149.239 E23.78644
G0 F9000 X86.368 Y149.239
G1 F1980 X85.390 Y150.217 E23.83244
G0 F9000 X85.390 Y149.652
G1 F1980 X85.803 Y149.239 E23.85186
G1 F2400 E19.85186
G0 F9000 X203.950 Y149.100
;TYPE:WALL-INNER
G1 F2400 E23.85186
G1 F2220 X214.750 Y149.100 E24.21107
G1 X214.750 Y150.900 E24.27094
G1 X203.950 Y150.900 E24.63015
G1 X203.950 Y149.100 E24.69002
G0 F9000 X203.550 Y148.700
;TYPE:WALL-OUTER
G1 F1980 X215.150 Y148.700 E25.07584
G1 X215.150 Y151.300 E25.16231
G1 X203.550 Y151.300 E25.54813
G1 X203.550 Y148.700 E25.63461
G0 F9000 X204.089 Y149.746
;TYPE:SKIN
G1 F1980 X204.596 Y149.239 E25.65846
G0 F9000 X205.162 Y149.239
G1 F1980 X204.089 Y150.312 E25.70893
G0 F9000 X204.207 Y150.760
G1 F1980 X205.727 Y149.239 E25.78045
G0 F9000 X206.293 Y149.239
G1 F1980 X204.773 Y150.760 E25.85197
G0 F9000 X205.338 Y150.760
G1 F1980 X206.859 Y149.239 E25.92351
G0 F9000 X207.424 Y149.239
G1 F1980 X205.904 Y150.760 E25.99503
G0 F9000 X206.470 Y150.760
G1 F1980 X207.990 Y149.239 E26.06655
G0 F9000 X208.556 Y149.239
G1 F1980 X207.035 Y150.760 E26.13809
G0 F9000 X207.601 Y150.760
G1 F1980 X209.121 Y149.239 E26.20961
G0 F9000 X209.687 Y149.239
G1 F1980 X208.167 Y150.760 E26.28113
G0 F9000 X208.732 Y150.760
G1 F1980 X210.253 Y149.239 E26.35267
G0 F9000 X210.818 Y149.239
G1 F1980 X209.298 Y150.760 E26.42419
G0 F9000 X209.864 Y150.760
G1 F1980 X211.384 Y149.239 E26.49571
G0 F9000 X211.950 Y149.239
G1 F1980 X210.430 Y150.760 E26.56723
G0 F9000 X210.995 Y150.760
G1 F1980 X212.515 Y149.239 E26.63875
G0 F9000 X213.081 Y149.239
G1 F1980 X211.561 Y150.760 E26.71027
G0 F9000 X212.127 Y150.760
G1 F1980 X213.647 Y149.239 E26.78179
G0 F9000 X214.213 Y149.239
G1 F1980 X212.692 Y150.760 E26.85333
G0 F9000 X213.258 Y150.760
G1 F1980 X214.609 Y149.409 E26.91688
G0 F9000 X214.609 Y149.975
G1 F1980 X213.824 Y150.760 E26.95381
G0 F9000 X214.389 Y150.760
G1 F1980 X214.609 Y150.540 E26.96415
;LAYER:2
M106 S127
G1 F2400 E22.96415
G0 F9000 X96.050 Y150.900 Z0.700
;TYPE:WALL-INNER
G1 F2400 E26.96415
G1 F2700 X85.250 Y150.900 E27.32336
G1 X85.250 Y149.100 E27.38323
G1 X96.050 Y149.100 E27.74244
G1 X96.050 Y150.900 E27.80231
G0 F9000 X96.450 Y151.300
;TYPE:WALL-OUTER
G1 F2220 X84.850 Y151.300 E28.18813
G1 X84.850 Y148.700 E28.27460
G1 X96.450 Y148.700 E28.66042
G1 X96.450 Y151.300 E28.74690
G0 F9000 X95.910 Y150.499
;TYPE:SKIN
G1 F2220 X94.651 Y149.239 E28.80614
G0 F9000 X95.216 Y149.239
G1 F2220 X95.910 Y149.933 E28.83878
G0 F9000 X95.910 Y149.367
G1 F2220 X95.782 Y149.239 E28.84480
G0 F9000 X95.605 Y150.759
G1 F2220 X94.085 Y149.239 E28.91630
G0 F9000 X93.519 Y149.239
G1 F2220 X95.039 Y150.759 E28.98780
G0 F9000 X94.473 Y150.759
G1 F2220 X92.954 Y149.239 E29.05927
G0 F9000 X92.388 Y149.239
G1 F2220 X93.908 Y150.759 E29.13077
G0 F9000 X93.342 Y150.759
G1 F2220 X91.822 Y149.239 E29.20226
G0 F9000 X91.257 Y149.239
G1 F2220 X92.776 Y150.759 E29.27373
G0 F9000 X92.210 Y150.759
G1 F2220 X90.691 Y149.239 E29.34521
G0 F9000 X90.125 Y149.239
G1 F2220 X91.645 Y150.759 E29.41670
G0 F9000 X91.079 Y150.759
G1 F2220 X89.560 Y149.239 E29.48818
G0 F9000 X88.994 Y149.239
G1 F2220 X90.513 Y150.759 E29.55965
G0 F9000 X89.948 Y150.759
G1 F2220 X88.428 Y149.239 E29.63114
G0 F9000 X87.862 Y149.239
G1 F2220 X89.382 Y150.759 E29.70264
G0 F9000 X88.816 Y150.759
G1 F2220 X87.297 Y149.239 E29.77411
G0 F9000 X86.731 Y149.239
G1 F2220 X88.251 Y150.759 E29.84561
G0 F9000 X87.685 Y150.759
G1 F2220 X86.165 Y149.239 E29.91711
G0 F9000 X85.600 Y149.239
G1 F2220 X87.119 Y150.759 E29.98858
G0 F9000 X86.554 Y150.759
G1 F2220 X85.390 Y149.595 E30.04333
G0 F9000 X85.390 Y150.161
G1 F2220 X85.988 Y150.759 E30.07146
G1 F2400 E26.07146
G0 F9000 X203.950 Y150.900
;TYPE:WALL-INNER
G1 F2400 E30.07146
G1 F2700 X203.950 Y149.100 E30.13133
G1 X214.750 Y149.100 E30.49053
G1 X214.750 Y150.900 E30.55040
G1 X203.950 Y150.900 E30.90961
G0 F9000 X203.550 Y151.300
;TYPE:WALL-OUTER
G1 F2220 X203.550 Y148.700 E30.99609
G1 X215.150 Y148.700 E31.38191
G1 X215.150 Y151.300 E31.46838
G1 X203.550 Y151.300 E31.85420
G0 F9000 X204.216 Y150.759
;TYPE:SKIN
G1 F2220 X204.089 Y150.632 E31.86017
G0 F9000 X204.089 Y150.066
G1 F2220 X204.782 Y150.759 E31.89277
G0 F9000 X205.348 Y150.759
G1 F2220 X204.089 Y149.500 E31.95199
G0 F9000 X204.394 Y149.240
G1 F2220 X205.913 Y150.759 E32.02344
G0 F9000 X206.479 Y150.759
G1 F2220 X204.960 Y149.240 E32.09489
G0 F9000 X205.526 Y149.240
G1 F2220 X207.045 Y150.759 E32.16634
G0 F9000 X207.610 Y150.759
G1 F2220 X206.091 Y149.240 E32.23779
G0 F9000 X206.657 Y149.240
G1 F2220 X208.176 Y150.759 E32.30924
G0 F9000 X208.742 Y150.759
G1 F2220 X207.223 Y149.240 E32.38068
G0 F9000 X207.788 Y149.240
G1 F2220 X209.307 Y150.759 E32.45213
G0 F9000 X209.873 Y150.759
G1 F2220 X208.354 Y149.240 E32.52358
G0 F9000 X208.920 Y149.240
G1 F2220 X210.439 Y150.759 E32.59503
G0 F9000 X211.004 Y150.759
G1 F2220 X209.486 Y149.240 E32.66646
G0 F9000 X210.051 Y149.240
G1 F2220 X211.570 Y150.759 E32.73791
G0 F9000 X212.136 Y150.759
G1 F2220 X210.617 Y149.240 E32.80936
G0 F9000 X211.183 Y149.240
G1 F2220 X212.701 Y150.759 E32.88078
G0 F9000 X213.267 Y150.759
G1 F2220 X211.748 Y149.240 E32.95223
G0 F9000 X212.314 Y149.240
G1 F2220 X213.833 Y150.759 E33.02368
G0 F9000 X214.399 Y150.759
G1 F2220 X212.880 Y149.240 E33.09513
G0 F9000 X213.445 Y149.240
G1 F2220 X214.609 Y150.403 E33.14986
G0 F9000 X214.609 Y149.838
G1 F2220 X214.011 Y149.240 E33.17798
;LAYER:3
M106 S140
G1 F2400 E29.17798
G0 F9000 X96.050 Y149.100 Z0.900
;TYPE:WALL-INNER
G1 F2400 E33.17798
G1 F2940 X96.050 Y150.900 E33.23785
G1 X85.250 Y150.900 E33.59706
G1 X85.250 Y149.100 E33.65693
G1 X96.050 Y149.100 E34.01614
G0 F9000 X96.450 Y148.700
;TYPE:WALL-OUTER
G1 F2280 X96.450 Y151.300 E34.10262
G1 X84.850 Y151.300 E34.48843
G1 X84.850 Y148.700 E34.57491
G1 X96.450 Y148.700 E34.96073
G0 F9000 X95.770 Y149.239
;TYPE:FILL
G1 F3780 X94.250 Y150.759 E35.03222
G0 F9000 X95.176 Y150.759
G1 F3780 X95.909 Y150.026 E35.06670
G0 F9000 X94.844 Y149.239
G1 F3780 X93.323 Y150.759 E35.13822
G0 F9000 X92.397 Y150.759
G1 F3780 X93.917 Y149.239 E35.20972
G0 F9000 X92.991 Y149.239
G1 F3780 X91.471 Y150.759 E35.28121
G0 F9000 X90.545 Y150.759
G1 F3780 X92.065 Y149.239 E35.35271
G0 F9000 X91.138 Y149.239
G1 F3780 X89.618 Y150.759 E35.42421
G0 F9000 X88.692 Y150.759
G1 F3780 X90.212 Y149.239 E35.49570
G0 F9000 X89.286 Y149.239
G1 F3780 X87.766 Y150.759 E35.56720
G0 F9000 X86.839 Y150.759
G1 F3780 X88.360 Y149.239 E35.63872
G0 F9000 X87.433 Y149.239
G1 F3780 X85.913 Y150.759 E35.71021
G0 F9000 X85.390 Y150.356
G1 F3780 X86.507 Y149.239 E35.76275
G0 F9000 X85.581 Y149.239
G1 F3780 X85.390 Y149.430 E35.77174
G1 F2400 E31.77174
G0 F9000 X203.950 Y149.100
;TYPE:WALL-INNER
G1 F2400 E35.77174
G1 F2940 X214.750 Y149.100 E36.13095
G1 X214.750 Y150.900 E36.19082
G1 X203.950 Y150.900 E36.55003
G1 X203.950 Y149.100 E36.60989
G0 F9000 X203.550 Y148.700
;TYPE:WALL-OUTER
G1 F2280 X215.150 Y148.700 E36.99571
G1 X215.150 Y151.300 E37.08219
G1 X203.550 Y151.300 E37.46801
G1 X203.550 Y148.700 E37.55448
G0 F9000 X204.089 Y149.298
;TYPE:FILL
G1 F3780 X204.148 Y149.239 E37.55726
G0 F9000 X205.074 Y149.239
G1 F3780 X204.089 Y150.224 E37.60359
G0 F9000 X204.480 Y150.760
G1 F3780 X206.000 Y149.239 E37.67511
G0 F9000 X206.927 Y149.239
G1 F3780 X205.406 Y150.760 E37.74665
G0 F9000 X206.333 Y150.760
G1 F3780 X207.853 Y149.239 E37.81817
G0 F9000 X208.779 Y149.239
G1 F3780 X207.259 Y150.760 E37.88969
G0 F9000 X208.185 Y150.760
G1 F3780 X209.705 Y149.239 E37.96121
G0 F9000 X210.632 Y149.239
G1 F3780 X209.111 Y150.760 E38.03275
G0 F9000 X210.038 Y150.760
G1 F3780 X211.558 Y149.239 E38.10427
G0 F9000 X212.484 Y149.239
G1 F3780 X210.964 Y150.760 E38.17579
G0 F9000 X211.890 Y150.760
G1 F3780 X213.411 Y149.239 E38.24734
G0 F9000 X214.337 Y149.239
G1 F3780 X212.817 Y150.760 E38.31886
G0 F9000 X213.743 Y150.760
G1 F3780 X214.609 Y149.894 E38.35959
;LAYER:4
M106 S127
G1 F2400 E34.35959
G0 F9000 X96.050 Y149.100 Z1.100
;TYPE:WALL-INNER
G1 F2400 E38.35959
G1 F3600 X96.050 Y150.900 E38.41946
G1 X85.250 Y150.900 E38.77867
G1 X85.250 Y149.100 E38.83854
G1 X96.050 Y149.100 E39.19774
G0 F9000 X96.450 Y148.700
;TYPE:WALL-OUTER
G1 F2700 X96.450 Y151.300 E39.28422
G1 X84.850 Y151.300 E39.67004
G1 X84.850 Y148.700 E39.75651
G1 X96.450 Y148.700 E40.14233
G0 F9000 X95.910 Y149.367
;TYPE:SKIN
G1 F2700 X95.782 Y149.239 E40.14835
G0 F9000 X95.216 Y149.239
G1 F2700 X95.910 Y149.933 E40.18100
G0 F9000 X95.910 Y150.499
G1 F2700 X94.651 Y149.239 E40.24024
G0 F9000 X94.085 Y149.239
G1 F2700 X95.605 Y150.759 E40.31174
G0 F9000 X95.039 Y150.759
G1 F2700 X93.519 Y149.239 E40.38323
G0 F9000 X92.954 Y149.239
G1 F2700 X94.473 Y150.759 E40.45470
G0 F9000 X93.908 Y150.759
G1 F2700 X92.388 Y149.239 E40.52620
G0 F9000 X91.822 Y149.239
G1 F2700 X93.342 Y150.759 E40.59770
G0 F9000 X92.776 Y150.759
G1 F2700 X91.257 Y149.239 E40.66917
G0 F9000 X90.691 Y149.239
G1 F2700 X92.210 Y150.759 E40.74064
G0 F9000 X91.645 Y150.759
G1 F2700 X90.125 Y149.239 E40.81214
G0 F9000 X89.560 Y149.239
G1 F2700 X91.079 Y150.759 E40.88361
G0 F9000 X90.513 Y150.759
G1 F2700 X88.994 Y149.239 E40.95508
G0 F9000 X88.428 Y149.239
G1 F2700 X89.948 Y150.759 E41.02658
G0 F9000 X89.382 Y150.759
G1 F2700 X87.862 Y149.239 E41.09808
G0 F9000 X87.297 Y149.239
G1 F2700 X88.816 Y150.759 E41.16955
G0 F9000 X88.251 Y150.759
G1 F2700 X86.731 Y149.239 E41.24104
G0 F9000 X86.165 Y149.239
G1 F2700 X87.685 Y150.759 E41.31254
G0 F9000 X87.119 Y150.759
G1 F2700 X85.600 Y149.239 E41.38401
G0 F9000 X85.390 Y149.595
G1 F2700 X86.554 Y150.759 E41.43876
G0 F9000 X85.988 Y150.759
G1 F2700 X85.390 Y150.161 E41.46689
G1 F2400 E37.46689
G0 F9000 X203.950 Y150.900
;TYPE:WALL-INNER
G1 F2400 E41.46689
G1 F3600 X203.950 Y149.100 E41.52676
G1 X214.750 Y149.100 E41.88597
G1 X214.750 Y150.900 E41.94584
G1 X203.950 Y150.900 E42.30505
G0 F9000 X203.550 Y151.300
;TYPE:WALL-OUTER
G1 F2700 X203.550 Y148.700 E42.39152
G1 X215.150 Y148.700 E42.77734
G1 X215.150 Y151.300 E42.86382
G1 X203.550 Y151.300 E43.24964
G0 F9000 X204.216 Y150.759
;TYPE:SKIN
G1 F2700 X204.089 Y150.632 E43.25561
G0 F9000 X204.089 Y150.066
