;Generated with Cura_SteamEngine 15.01
; Default start code
G28 ; Home extruder
G1 Z15 F100
M107 ; Turn off fan
G90 ; Absolute positioning
M82 ; Extruder in absolute mode
M190 S50
; Activate all used extruder
M104 T0 S210
G92 E0 ; Reset extruder position
; Wait for all used extruders to reach temperature
M109 T0 S210
;Layer count: 35
;LAYER:0
M107
G0 F9000 X140.294 Y141.794 Z0.300
;TYPE:SKIRT
G1 F1800 X140.848 Y141.275 E0.03787
G1 X141.437 Y140.792 E0.07588
G1 X142.051 Y140.352 E0.11356
G1 X142.697 Y139.949 E0.15155
G1 X143.367 Y139.593 E0.18940
G1 X144.057 Y139.279 E0.22722
G1 X144.770 Y139.011 E0.26522
G1 X145.495 Y138.791 E0.30302
G1 X146.236 Y138.618 E0.34098
G1 X146.984 Y138.495 E0.37880
G1 X147.774 Y138.416 E0.41841
G1 X149.037 Y138.400 E0.48143
G1 X151.642 Y138.400 E0.61139
G1 X152.407 Y138.433 E0.64959
G1 X153.163 Y138.518 E0.68755
G1 X153.910 Y138.650 E0.72539
G1 X154.649 Y138.833 E0.76338
G1 X155.372 Y139.062 E0.80121
G1 X156.082 Y139.341 E0.83927
G1 X156.767 Y139.663 E0.87703
G1 X157.431 Y140.029 E0.91486
G1 X158.070 Y140.438 E0.95271
G1 X158.661 Y140.873 E0.98932
G1 X159.152 Y141.276 E1.02101
G1 X159.705 Y141.794 E1.05882
G1 X160.224 Y142.348 E1.09669
G1 X160.707 Y142.937 E1.13469
G1 X161.147 Y143.551 E1.17238
G1 X161.550 Y144.197 E1.21036
G1 X161.906 Y144.867 E1.24822
G1 X162.220 Y145.557 E1.28604
G1 X162.488 Y146.270 E1.32404
G1 X162.708 Y146.995 E1.36184
G1 X162.881 Y147.736 E1.39980
G1 X163.004 Y148.484 E1.43762
G1 X163.079 Y149.239 E1.47547
G1 X163.104 Y150.000 E1.51346
G1 X163.079 Y150.761 E1.55145
G1 X163.004 Y151.515 E1.58925
G1 X162.881 Y152.263 E1.62707
G1 X162.708 Y153.004 E1.66503
G1 X162.488 Y153.729 E1.70283
G1 X162.220 Y154.442 E1.74083
G1 X161.906 Y155.132 E1.77865
G1 X161.550 Y155.802 E1.81650
G1 X161.147 Y156.448 E1.85449
G1 X160.707 Y157.062 E1.89218
G1 X160.224 Y157.651 E1.93018
G1 X159.705 Y158.205 E1.96805
G1 X159.151 Y158.724 E2.00592
G1 X158.562 Y159.207 E2.04393
G1 X157.948 Y159.647 E2.08161
G1 X157.302 Y160.050 E2.11960
G1 X156.632 Y160.406 E2.15745
G1 X155.942 Y160.720 E2.19527
G1 X155.229 Y160.988 E2.23327
G1 X154.504 Y161.208 E2.27107
G1 X153.763 Y161.381 E2.30904
G1 X153.015 Y161.504 E2.34685
G1 X152.227 Y161.583 E2.38637
G1 X150.964 Y161.600 E2.44938
G1 X148.354 Y161.600 E2.57960
G1 X147.589 Y161.566 E2.61780
G1 X146.836 Y161.481 E2.65561
G1 X146.089 Y161.349 E2.69345
G1 X145.350 Y161.166 E2.73143
G1 X144.627 Y160.937 E2.76927
G1 X143.917 Y160.658 E2.80733
G1 X143.232 Y160.336 E2.84509
G1 X142.568 Y159.970 E2.88292
G1 X141.929 Y159.561 E2.92077
G1 X141.338 Y159.126 E2.95738
G1 X140.847 Y158.723 E2.98907
G1 X140.294 Y158.205 E3.02687
G1 X139.775 Y157.651 E3.06475
G1 X139.292 Y157.062 E3.10275
G1 X138.852 Y156.448 E3.14043
G1 X138.449 Y155.802 E3.17842
G1 X138.093 Y155.132 E3.21627
G1 X137.779 Y154.442 E3.25409
G1 X137.511 Y153.729 E3.29209
G1 X137.291 Y153.004 E3.32989
G1 X137.118 Y152.263 E3.36786
G1 X136.995 Y151.515 E3.40568
G1 X136.920 Y150.761 E3.44348
G1 X136.895 Y150.000 E3.48146
G1 X136.920 Y149.239 E3.51945
G1 X136.995 Y148.484 E3.55730
G1 X137.118 Y147.736 E3.59512
G1 X137.291 Y146.995 E3.63309
G1 X137.511 Y146.270 E3.67089
G1 X137.779 Y145.557 E3.70889
G1 X138.093 Y144.867 E3.74671
G1 X138.449 Y144.197 E3.78456
G1 X138.852 Y143.551 E3.82255
G1 X139.292 Y142.937 E3.86023
G1 X139.775 Y142.348 E3.89823
G1 X140.294 Y141.794 E3.93611
G0 F9000 X140.577 Y142.077
G1 F1800 X141.112 Y141.576 E3.97267
G1 X141.680 Y141.110 E4.00933
G1 X142.274 Y140.685 E4.04577
G1 X142.897 Y140.296 E4.08241
G1 X143.544 Y139.952 E4.11897
G1 X144.211 Y139.648 E4.15554
G1 X144.899 Y139.390 E4.19220
G1 X145.599 Y139.177 E4.22870
G1 X146.314 Y139.011 E4.26532
G1 X147.036 Y138.892 E4.30183
G1 X147.796 Y138.816 E4.33993
G1 X149.039 Y138.800 E4.40195
G1 X151.633 Y138.800 E4.53137
G1 X152.376 Y138.832 E4.56847
G1 X153.106 Y138.915 E4.60513
G1 X153.827 Y139.042 E4.64165
G1 X154.540 Y139.219 E4.67830
G1 X155.238 Y139.440 E4.71483
G1 X155.924 Y139.708 E4.75157
G1 X156.585 Y140.020 E4.78804
G1 X157.226 Y140.372 E4.82452
G1 X157.843 Y140.768 E4.86110
G1 X158.416 Y141.189 E4.89657
G1 X158.888 Y141.576 E4.92702
G1 X159.422 Y142.077 E4.96356
G1 X159.923 Y142.612 E5.00012
G1 X160.389 Y143.180 E5.03678
G1 X160.814 Y143.774 E5.07322
G1 X161.203 Y144.397 E5.10986
G1 X161.547 Y145.044 E5.14642
G1 X161.851 Y145.711 E5.18299
G1 X162.109 Y146.399 E5.21965
G1 X162.322 Y147.099 E5.25615
G1 X162.488 Y147.814 E5.29277
G1 X162.607 Y148.536 E5.32928
G1 X162.680 Y149.265 E5.36583
G1 X162.704 Y150.000 E5.40252
G1 X162.680 Y150.734 E5.43916
G1 X162.607 Y151.463 E5.47571
G1 X162.488 Y152.185 E5.51222
G1 X162.322 Y152.900 E5.54884
G1 X162.109 Y153.600 E5.58534
G1 X161.851 Y154.288 E5.62200
G1 X161.547 Y154.955 E5.65857
G1 X161.203 Y155.602 E5.69513
G1 X160.814 Y156.225 E5.73177
G1 X160.389 Y156.819 E5.76821
G1 X159.923 Y157.387 E5.80486
G1 X159.422 Y157.922 E5.84143
G1 X158.887 Y158.423 E5.87800
G1 X158.319 Y158.889 E5.91465
G1 X157.725 Y159.314 E5.95109
G1 X157.102 Y159.703 E5.98773
G1 X156.455 Y160.047 E6.02429
G1 X155.788 Y160.351 E6.06086
G1 X155.100 Y160.609 E6.09752
G1 X154.400 Y160.822 E6.13402
G1 X153.685 Y160.988 E6.17064
G1 X152.963 Y161.107 E6.20715
G1 X152.204 Y161.183 E6.24521
G1 X150.961 Y161.200 E6.30723
G1 X148.363 Y161.200 E6.43684
G1 X147.620 Y161.167 E6.47395
G1 X146.893 Y161.084 E6.51045
G1 X146.172 Y160.957 E6.54698
G1 X145.459 Y160.780 E6.58363
G1 X144.761 Y160.559 E6.62015
G1 X144.075 Y160.291 E6.65690
G1 X143.414 Y159.979 E6.69336
G1 X142.773 Y159.627 E6.72985
G1 X142.156 Y159.231 E6.76643
G1 X141.583 Y158.810 E6.80190
G1 X141.111 Y158.423 E6.83235
G1 X140.577 Y157.922 E6.86888
G1 X140.076 Y157.387 E6.90545
G1 X139.610 Y156.819 E6.94210
G1 X139.185 Y156.225 E6.97854
G1 X138.796 Y155.602 E7.01519
G1 X138.452 Y154.955 E7.05174
G1 X138.148 Y154.288 E7.08831
G1 X137.890 Y153.600 E7.12497
G1 X137.677 Y152.900 E7.16148
G1 X137.511 Y152.185 E7.19810
G1 X137.392 Y151.463 E7.23460
G1 X137.319 Y150.734 E7.27115
G1 X137.295 Y150.000 E7.30779
G1 X137.319 Y149.265 E7.34448
G1 X137.392 Y148.536 E7.38103
G1 X137.511 Y147.814 E7.41754
G1 X137.677 Y147.099 E7.45416
G1 X137.890 Y146.399 E7.49067
G1 X138.148 Y145.711 E7.52732
G1 X138.452 Y145.044 E7.56389
G1 X138.796 Y144.397 E7.60045
G1 X139.185 Y143.774 E7.63710
G1 X139.610 Y143.180 E7.67353
G1 X140.076 Y142.612 E7.71019
G1 X140.577 Y142.077 E7.74676
G1 F2400 E3.74676
G0 F9000 X143.265 Y144.765
;TYPE:WALL-INNER
G1 F2400 E7.74676
G1 F1800 X143.621 Y144.432 E7.77108
G1 X143.991 Y144.129 E7.79493
G1 X144.796 Y143.590 E7.84327
G1 X145.658 Y143.164 E7.89124
G1 X146.127 Y142.988 E7.91623
G1 X147.051 Y142.740 E7.96396
G1 X147.532 Y142.661 E7.98828
G1 X148.009 Y142.614 E8.01219
G1 X149.068 Y142.600 E8.06503
G1 X151.562 Y142.600 E8.18946
G1 X152.076 Y142.622 E8.21512
G1 X152.558 Y142.677 E8.23933
G1 X153.502 Y142.876 E8.28746
G1 X153.964 Y143.022 E8.31163
G1 X154.426 Y143.203 E8.33639
G1 X154.855 Y143.405 E8.36004
G1 X155.284 Y143.641 E8.38447
G1 X155.687 Y143.900 E8.40837
G1 X156.385 Y144.439 E8.45237
G1 X156.734 Y144.765 E8.47619
G1 X157.067 Y145.121 E8.50051
G1 X157.370 Y145.491 E8.52437
G1 X157.909 Y146.296 E8.57271
G1 X158.335 Y147.158 E8.62068
G1 X158.508 Y147.619 E8.64524
G1 X158.650 Y148.084 E8.66950
G1 X158.759 Y148.551 E8.69342
G1 X158.838 Y149.032 E8.71774
G1 X158.886 Y149.511 E8.74176
G1 X158.901 Y150.000 E8.76617
G1 X158.886 Y150.488 E8.79052
G1 X158.838 Y150.967 E8.81454
G1 X158.759 Y151.448 E8.83886
G1 X158.511 Y152.372 E8.88659
G1 X158.335 Y152.841 E8.91158
G1 X157.909 Y153.703 E8.95955
G1 X157.370 Y154.508 E9.00789
G1 X157.067 Y154.878 E9.03175
G1 X156.734 Y155.234 E9.05607
G1 X156.378 Y155.567 E9.08038
G1 X156.008 Y155.870 E9.10424
G1 X155.203 Y156.409 E9.15258
G1 X154.341 Y156.835 E9.20055
G1 X153.872 Y157.011 E9.22554
G1 X152.948 Y157.259 E9.27327
G1 X152.467 Y157.338 E9.29759
G1 X151.990 Y157.385 E9.32150
G1 X150.931 Y157.400 E9.37434
G1 X148.439 Y157.400 E9.49867
G1 X147.923 Y157.377 E9.52444
G1 X147.441 Y157.322 E9.54864
G1 X146.497 Y157.123 E9.59677
G1 X146.035 Y156.977 E9.62094
G1 X145.573 Y156.796 E9.64570
G1 X145.144 Y156.594 E9.66935
G1 X144.715 Y156.358 E9.69378
G1 X144.312 Y156.099 E9.71768
G1 X143.614 Y155.560 E9.76168
G1 X143.265 Y155.234 E9.78551
G1 X142.932 Y154.878 E9.80983
G1 X142.629 Y154.508 E9.83369
G1 X142.090 Y153.703 E9.88202
G1 X141.664 Y152.841 E9.92999
G1 X141.488 Y152.372 E9.95498
G1 X141.240 Y151.448 E10.00271
G1 X141.161 Y150.967 E10.02703
G1 X141.113 Y150.488 E10.05105
G1 X141.098 Y150.000 E10.07540
G1 X141.113 Y149.511 E10.09981
G1 X141.161 Y149.032 E10.12383
G1 X141.240 Y148.551 E10.14815
G1 X141.349 Y148.084 E10.17207
G1 X141.491 Y147.619 E10.19633
G1 X141.857 Y146.735 E10.24406
G1 X142.090 Y146.296 E10.26886
G1 X142.629 Y145.491 E10.31719
G1 X142.932 Y145.121 E10.34105
G1 X143.265 Y144.765 E10.36537
G0 F9000 X146.806 Y148.307
G1 F1800 X146.510 Y148.670 E10.38874
G1 X146.288 Y149.083 E10.41213
G1 X146.152 Y149.533 E10.43558
G1 X146.106 Y150.000 E10.45900
G1 X146.152 Y150.466 E10.48236
G1 X146.288 Y150.916 E10.50581
G1 X146.502 Y151.315 E10.52840
G1 X146.659 Y151.529 E10.54164
G1 X146.992 Y151.858 E10.56500
G1 X147.383 Y152.117 E10.58839
G1 X147.792 Y152.284 E10.61043
G1 X148.032 Y152.345 E10.62279
G1 X148.267 Y152.380 E10.63464
G1 X148.529 Y152.391 E10.64773
G1 X148.982 Y152.345 E10.67044
G1 X149.430 Y152.204 E10.69387
G1 X149.839 Y151.982 E10.71709
G1 X150.062 Y151.799 E10.73148
G1 X150.426 Y152.038 E10.75321
G1 X150.828 Y152.203 E10.77489
G1 X151.275 Y152.292 E10.79763
G1 X151.529 Y152.303 E10.81031
G1 X151.948 Y152.259 E10.83133
G1 X152.180 Y152.200 E10.84327
G1 X152.409 Y152.117 E10.85542
G1 X152.779 Y151.915 E10.87645
G1 X152.982 Y151.764 E10.88908
G1 X153.273 Y151.471 E10.90968
G1 X153.424 Y151.266 E10.92238
G1 X153.630 Y150.882 E10.94412
G1 X153.760 Y150.449 E10.96668
G1 X153.805 Y150.000 E10.98919
G1 X153.760 Y149.550 E11.01175
G1 X153.634 Y149.131 E11.03358
G1 X153.524 Y148.900 E11.04635
G1 X153.281 Y148.535 E11.06822
G1 X152.950 Y148.208 E11.09144
G1 X152.573 Y147.961 E11.11392
G1 X152.171 Y147.796 E11.13560
G1 X151.724 Y147.707 E11.15834
G1 X151.471 Y147.696 E11.17097
G1 X151.051 Y147.740 E11.19204
G1 X150.819 Y147.799 E11.20399
G1 X150.590 Y147.882 E11.21614
G1 X150.220 Y148.084 E11.23717
G1 X150.066 Y148.199 E11.24676
G1 X150.007 Y148.141 E11.25089
G1 X149.616 Y147.882 E11.27428
G1 X149.207 Y147.715 E11.29632
G1 X148.967 Y147.654 E11.30868
G1 X148.732 Y147.619 E11.32053
G1 X148.471 Y147.608 E11.33357
G1 X148.017 Y147.654 E11.35633
G1 X147.569 Y147.795 E11.37976
G1 X147.160 Y148.017 E11.40298
G1 X146.806 Y148.307 E11.42581
G0 F9000 X147.091 Y148.591
;TYPE:WALL-OUTER
G1 F1800 X146.844 Y148.893 E11.44528
G1 X146.659 Y149.237 E11.46476
G1 X146.546 Y149.611 E11.48425
G1 X146.508 Y150.000 E11.50375
G1 X146.546 Y150.388 E11.52320
G1 X146.659 Y150.762 E11.54270
G1 X146.841 Y151.101 E11.56189
G1 X146.963 Y151.267 E11.57217
G1 X147.245 Y151.546 E11.59196
G1 X147.571 Y151.762 E11.61147
G1 X147.917 Y151.903 E11.63011
G1 X148.111 Y151.952 E11.64009
G1 X148.305 Y151.981 E11.64988
G1 X148.517 Y151.990 E11.66047
G1 X148.901 Y151.951 E11.67972
G1 X149.273 Y151.834 E11.69918
G1 X149.615 Y151.649 E11.71858
G1 X149.908 Y151.408 E11.73750
G1 X150.057 Y151.225 E11.74928
G1 X150.159 Y151.349 E11.75729
G1 X150.305 Y151.481 E11.76711
G1 X150.613 Y151.683 E11.78548
G1 X150.953 Y151.822 E11.80381
G1 X151.128 Y151.865 E11.81280
G1 X151.314 Y151.893 E11.82218
G1 X151.517 Y151.902 E11.83232
G1 X151.877 Y151.864 E11.85038
G1 X152.244 Y151.752 E11.86953
G1 X152.562 Y151.578 E11.88761
G1 X152.719 Y151.461 E11.89738
G1 X152.968 Y151.210 E11.91502
G1 X153.085 Y151.052 E11.92483
G1 X153.259 Y150.728 E11.94317
G1 X153.366 Y150.371 E11.96177
G1 X153.403 Y150.000 E11.98037
G1 X153.366 Y149.628 E11.99902
G1 X153.260 Y149.276 E12.01736
G1 X153.175 Y149.098 E12.02720
G1 X152.971 Y148.791 E12.04559
G1 X152.697 Y148.521 E12.06478
G1 X152.386 Y148.316 E12.08337
G1 X152.046 Y148.177 E12.10169
G1 X151.871 Y148.134 E12.11068
G1 X151.685 Y148.106 E12.12007
G1 X151.483 Y148.097 E12.13015
G1 X151.122 Y148.135 E12.14826
G1 X150.755 Y148.247 E12.16741
G1 X150.437 Y148.421 E12.18549
G1 X150.280 Y148.538 E12.19526
G1 X150.057 Y148.762 E12.21103
G1 X149.754 Y148.453 E12.23262
G1 X149.428 Y148.237 E12.25213
G1 X149.082 Y148.096 E12.27077
G1 X148.888 Y148.047 E12.28075
G1 X148.694 Y148.018 E12.29054
G1 X148.483 Y148.009 E12.30108
G1 X148.098 Y148.048 E12.32038
G1 X147.726 Y148.165 E12.33984
G1 X147.384 Y148.350 E12.35924
G1 X147.091 Y148.591 E12.37816
G0 F9000 X146.901 Y148.359
G0 X143.199 Y144.691
G0 X142.983 Y144.483
G1 F1800 X143.350 Y144.138 E12.40329
G1 X143.755 Y143.806 E12.42942
G1 X144.160 Y143.516 E12.45427
G1 X144.597 Y143.243 E12.47998
G1 X145.054 Y143.000 E12.50580
G1 X145.520 Y142.788 E12.53134
G1 X145.992 Y142.611 E12.55649
G1 X146.473 Y142.465 E12.58157
G1 X146.983 Y142.346 E12.60770
G1 X147.987 Y142.214 E12.65822
G1 X149.063 Y142.200 E12.71191
G1 X151.556 Y142.200 E12.83628
G1 X152.110 Y142.224 E12.86395
G1 X152.622 Y142.282 E12.88965
G1 X153.125 Y142.370 E12.91513
G1 X153.611 Y142.491 E12.94012
G1 X154.110 Y142.649 E12.96623
G1 X154.576 Y142.832 E12.99121
G1 X155.046 Y143.053 E13.01712
G1 X155.485 Y143.295 E13.04213
G1 X155.922 Y143.575 E13.06802
G1 X156.325 Y143.872 E13.09300
G1 X156.649 Y144.138 E13.11391
G1 X157.016 Y144.483 E13.13904
G1 X157.361 Y144.850 E13.16417
G1 X157.693 Y145.255 E13.19030
G1 X157.983 Y145.660 E13.21515
G1 X158.253 Y146.092 E13.24056
G1 X158.499 Y146.554 E13.26668
G1 X158.711 Y147.020 E13.29222
G1 X158.890 Y147.497 E13.31764
G1 X159.034 Y147.973 E13.34245
G1 X159.153 Y148.483 E13.36858
G1 X159.285 Y149.482 E13.41885
G1 X159.302 Y149.994 E13.44441
G1 X159.285 Y150.511 E13.47021
G1 X159.234 Y151.024 E13.49593
G1 X159.034 Y152.026 E13.54691
G1 X158.890 Y152.502 E13.57172
G1 X158.711 Y152.979 E13.59714
G1 X158.499 Y153.445 E13.62268
G1 X158.256 Y153.902 E13.64850
G1 X157.984 Y154.337 E13.67410
G1 X157.693 Y154.744 E13.69906
G1 X157.364 Y155.146 E13.72498
G1 X157.016 Y155.516 E13.75032
G1 X156.649 Y155.861 E13.77545
G1 X156.245 Y156.192 E13.80150
G1 X155.839 Y156.483 E13.82642
G1 X155.402 Y156.756 E13.85213
G1 X154.945 Y156.999 E13.87795
G1 X154.480 Y157.210 E13.90343
G1 X154.007 Y157.388 E13.92864
G1 X153.526 Y157.534 E13.95372
G1 X153.016 Y157.653 E13.97985
G1 X152.012 Y157.785 E14.03037
G1 X150.936 Y157.800 E14.08406
G1 X148.443 Y157.800 E14.20843
G1 X147.890 Y157.775 E14.23605
G1 X147.377 Y157.717 E14.26181
G1 X146.874 Y157.629 E14.28728
G1 X146.388 Y157.508 E14.31227
G1 X145.889 Y157.350 E14.33838
G1 X145.423 Y157.167 E14.36336
G1 X144.953 Y156.946 E14.38927
G1 X144.514 Y156.704 E14.41428
G1 X144.077 Y156.424 E14.44017
G1 X143.674 Y156.127 E14.46515
G1 X143.350 Y155.861 E14.48606
G1 X142.983 Y155.516 E14.51119
G1 X142.635 Y155.146 E14.53654
G1 X142.306 Y154.744 E14.56245
G1 X142.015 Y154.337 E14.58741
G1 X141.743 Y153.902 E14.61301
G1 X141.500 Y153.445 E14.63883
G1 X141.288 Y152.979 E14.66437
G1 X141.109 Y152.502 E14.68979
G1 X140.965 Y152.026 E14.71460
G1 X140.846 Y151.516 E14.74073
G1 X140.714 Y150.511 E14.79130
G1 X140.697 Y150.006 E14.81651
G1 X140.714 Y149.482 E14.84267
G1 X140.765 Y148.975 E14.86809
G1 X140.965 Y147.973 E14.91906
G1 X141.109 Y147.497 E14.94387
G1 X141.288 Y147.020 E14.96929
G1 X141.500 Y146.554 E14.99483
G1 X141.746 Y146.092 E15.02095
G1 X142.016 Y145.660 E15.04636
G1 X142.306 Y145.255 E15.07121
G1 X142.638 Y144.850 E15.09734
G1 X142.983 Y144.483 E15.12247
G0 F9000 X143.409 Y144.823
;TYPE:SKIN
G1 F1800 X146.752 Y148.167 E15.35837
G0 F9000 X146.491 Y148.471
G1 F1800 X143.131 Y145.111 E15.59544
G0 F9000 X142.870 Y145.415
G1 F1800 X146.272 Y148.817 E15.83547
G0 F9000 X146.101 Y149.212
G1 F1800 X142.629 Y145.740 E16.08044
G0 F9000 X142.401 Y146.078
G1 F1800 X145.997 Y149.674 E16.33415
G0 F9000 X145.989 Y150.231
G1 F1800 X142.180 Y146.422 E16.60290
G0 F9000 X141.984 Y146.792
G1 F1800 X146.157 Y150.965 E16.89733
G0 F9000 X147.511 Y152.319
G1 F1800 X152.395 Y157.203 E17.24192
G0 F9000 X152.884 Y157.126
G1 F1800 X148.276 Y152.519 E17.56700
G0 F9000 X148.824 Y152.501
