;Generated with Cura_SteamEngine 15.01
; Default start code
G28 X0 Y0 Z0; Home extruder
G1 Z15 F100
M107 ; Turn off fan
G90 ; Absolute positioning
M82 ; Extruder in absolute mode
M190 S115
; Activate all used extruder
M104 T0 S215
G92 E0 ; Reset extruder position
; Wait for all used extruders to reach temperature
M109 T0 S215
;Layer count: 50
;LAYER:0
M107
G0 F9000 X106.186 Y96.298 Z0.300
;TYPE:SKIRT
G1 F1800 X124.186 Y96.298 E0.89802
G1 X124.186 Y114.298 E1.79605
G1 X106.186 Y114.298 E2.69407
G1 X106.186 Y96.298 E3.59209
G0 F9000 X106.586 Y96.698
G1 F1800 X123.786 Y96.698 E4.45021
G1 X123.786 Y113.898 E5.30832
G1 X106.586 Y113.898 E6.16643
G1 X106.586 Y96.698 E7.02454
G0 F9000 X106.986 Y97.098
G1 F1800 X123.386 Y97.098 E7.84274
G1 X123.386 Y113.498 E8.66094
G1 X106.986 Y113.498 E9.47914
G1 X106.986 Y97.098 E10.29734
G1 F2400 E6.29734
G0 F9000 X110.786 Y100.898
;TYPE:WALL-INNER
G1 F2400 E10.29734
G1 F1800 X119.586 Y100.898 E10.73637
G1 X119.586 Y109.698 E11.17541
G1 X110.786 Y109.698 E11.61444
G1 X110.786 Y100.898 E12.05347
G0 F9000 X110.386 Y100.498
;TYPE:WALL-OUTER
G1 F1800 X119.986 Y100.498 E12.53242
G1 X119.986 Y110.098 E13.01136
G1 X110.386 Y110.098 E13.49031
G1 X110.386 Y100.498 E13.96926
G0 F9000 X110.937 Y101.038
;TYPE:SKIN
G1 F1800 X119.445 Y109.545 E14.56951
G0 F9000 X118.891 Y109.557
G1 F1800 X110.925 Y101.591 E15.13155
G0 F9000 X110.925 Y102.157
G1 F1800 X118.325 Y109.557 E15.65366
G0 F9000 X117.760 Y109.557
G1 F1800 X110.925 Y102.722 E16.13591
G0 F9000 X110.925 Y103.288
G1 F1800 X117.194 Y109.557 E16.57822
G0 F9000 X116.628 Y109.557
G1 F1800 X110.925 Y103.854 E16.98060
G0 F9000 X110.925 Y104.419
G1 F1800 X116.063 Y109.557 E17.34311
G0 F9000 X115.497 Y109.557
G1 F1800 X110.925 Y104.985 E17.66569
G0 F9000 X110.925 Y105.551
G1 F1800 X114.931 Y109.557 E17.94833
G0 F9000 X114.366 Y109.557
G1 F1800 X110.925 Y106.116 E18.19112
G0 F9000 X110.925 Y106.682
G1 F1800 X113.800 Y109.557 E18.39396
G0 F9000 X113.234 Y109.557
G1 F1800 X110.925 Y107.248 E18.55687
G0 F9000 X110.925 Y107.813
G1 F1800 X112.668 Y109.557 E18.67989
G0 F9000 X112.103 Y109.557
G1 F1800 X110.925 Y108.379 E18.76300
G0 F9000 X110.925 Y108.945
G1 F1800 X111.537 Y109.557 E18.80618
G0 F9000 X119.445 Y108.980
G1 F1800 X111.503 Y101.038 E19.36653
G0 F9000 X112.069 Y101.038
G1 F1800 X119.445 Y108.414 E19.88695
G0 F9000 X119.445 Y107.848
G1 F1800 X112.635 Y101.038 E20.36743
G0 F9000 X113.200 Y101.038
G1 F1800 X119.445 Y107.282 E20.80802
G0 F9000 X119.445 Y106.717
G1 F1800 X113.766 Y101.038 E21.20870
G0 F9000 X114.332 Y101.038
G1 F1800 X119.445 Y106.151 E21.56945
G0 F9000 X119.445 Y105.585
G1 F1800 X114.897 Y101.038 E21.89030
G0 F9000 X115.463 Y101.038
G1 F1800 X119.445 Y105.020 E22.17125
G0 F9000 X119.445 Y104.454
G1 F1800 X116.029 Y101.038 E22.41227
G0 F9000 X116.594 Y101.038
G1 F1800 X119.445 Y103.888 E22.61339
G0 F9000 X119.445 Y103.323
G1 F1800 X117.160 Y101.038 E22.77461
G0 F9000 X117.726 Y101.038
G1 F1800 X119.445 Y102.757 E22.89589
G0 F9000 X119.445 Y102.191
G1 F1800 X118.291 Y101.038 E22.97728
G0 F9000 X118.857 Y101.038
G1 F1800 X119.445 Y101.626 E23.01876
;LAYER:1
G0 F9000 X119.586 Y100.898 Z0.500
;TYPE:WALL-INNER
G1 F2220 X119.586 Y109.698 E23.31145
G1 X110.786 Y109.698 E23.60414
G1 X110.786 Y100.898 E23.89683
G1 X119.586 Y100.898 E24.18952
G0 F9000 X119.986 Y100.498
;TYPE:WALL-OUTER
G1 F1980 X119.986 Y110.098 E24.50882
G1 X110.386 Y110.098 E24.82811
G1 X110.386 Y100.498 E25.14741
G1 X119.986 Y100.498 E25.46671
G0 F9000 X119.296 Y101.037
;TYPE:SKIN
G1 F1980 X110.925 Y109.409 E25.86048
G0 F9000 X111.341 Y109.558
G1 F1980 X119.445 Y101.454 E26.24167
G0 F9000 X119.445 Y102.020
G1 F1980 X111.907 Y109.558 E26.59623
G0 F9000 X112.473 Y109.558
G1 F1980 X119.445 Y102.586 E26.92417
G0 F9000 X119.445 Y103.152
G1 F1980 X113.038 Y109.558 E27.22551
G0 F9000 X113.604 Y109.558
G1 F1980 X119.445 Y103.717 E27.50026
G0 F9000 X119.445 Y104.283
G1 F1980 X114.170 Y109.558 E27.74838
G0 F9000 X114.735 Y109.558
G1 F1980 X119.445 Y104.849 E27.96990
G0 F9000 X119.445 Y105.414
G1 F1980 X115.301 Y109.558 E28.16482
G0 F9000 X115.867 Y109.558
G1 F1980 X119.445 Y105.980 E28.33312
G0 F9000 X119.445 Y106.546
G1 F1980 X116.432 Y109.558 E28.47481
G0 F9000 X116.998 Y109.558
G1 F1980 X119.445 Y107.111 E28.58991
G0 F9000 X119.445 Y107.677
G1 F1980 X117.564 Y109.558 E28.67839
G0 F9000 X118.129 Y109.558
G1 F1980 X119.445 Y108.243 E28.74027
G0 F9000 X119.445 Y108.808
G1 F1980 X118.695 Y109.558 E28.77555
G0 F9000 X119.261 Y109.558
G1 F1980 X119.445 Y109.374 E28.78420
G0 F9000 X118.731 Y101.037
G1 F1980 X110.925 Y108.843 E29.15137
G0 F9000 X110.925 Y108.277
G1 F1980 X118.165 Y101.037 E29.49192
G0 F9000 X117.599 Y101.037
G1 F1980 X110.925 Y107.712 E29.80587
G0 F9000 X110.925 Y107.146
G1 F1980 X117.033 Y101.037 E30.09319
G0 F9000 X116.468 Y101.037
G1 F1980 X110.925 Y106.580 E30.35392
G0 F9000 X110.925 Y106.015
G1 F1980 X115.902 Y101.037 E30.58804
G0 F9000 X115.336 Y101.037
G1 F1980 X110.925 Y105.449 E30.79555
G0 F9000 X110.925 Y104.883
G1 F1980 X114.771 Y101.037 E30.97645
G0 F9000 X114.205 Y101.037
G1 F1980 X110.925 Y104.318 E31.13076
G0 F9000 X110.925 Y103.752
G1 F1980 X113.639 Y101.037 E31.25844
G0 F9000 X113.074 Y101.037
G1 F1980 X110.925 Y103.186 E31.35952
G0 F9000 X110.925 Y102.620
G1 F1980 X112.508 Y101.037 E31.43398
G0 F9000 X111.942 Y101.037
G1 F1980 X110.925 Y102.055 E31.48184
G0 F9000 X110.925 Y101.489
G1 F1980 X111.377 Y101.037 E31.50310
;LAYER:2
G0 F9000 X110.786 Y100.898 Z0.700
;TYPE:WALL-INNER
G1 F2700 X119.586 Y100.898 E31.79579
G1 X119.586 Y109.698 E32.08848
G1 X110.786 Y109.698 E32.38117
G1 X110.786 Y100.898 E32.67386
G0 F9000 X110.386 Y100.498
;TYPE:WALL-OUTER
G1 F2220 X119.986 Y100.498 E32.99315
G1 X119.986 Y110.098 E33.31245
G1 X110.386 Y110.098 E33.63175
G1 X110.386 Y100.498 E33.95105
G0 F9000 X110.937 Y101.038
;TYPE:SKIN
G1 F2220 X119.445 Y109.545 E34.35121
G0 F9000 X118.891 Y109.557
G1 F2220 X110.925 Y101.591 E34.72591
G0 F9000 X110.925 Y102.157
G1 F2220 X118.325 Y109.557 E35.07398
G0 F9000 X117.760 Y109.557
G1 F2220 X110.925 Y102.722 E35.39548
G0 F9000 X110.925 Y103.288
G1 F2220 X117.194 Y109.557 E35.69035
G0 F9000 X116.628 Y109.557
G1 F2220 X110.925 Y103.854 E35.95861
G0 F9000 X110.925 Y104.419
G1 F2220 X116.063 Y109.557 E36.20028
G0 F9000 X115.497 Y109.557
G1 F2220 X110.925 Y104.985 E36.41533
G0 F9000 X110.925 Y105.551
G1 F2220 X114.931 Y109.557 E36.60376
G0 F9000 X114.366 Y109.557
G1 F2220 X110.925 Y106.116 E36.76562
G0 F9000 X110.925 Y106.682
G1 F2220 X113.800 Y109.557 E36.90085
G0 F9000 X113.234 Y109.557
G1 F2220 X110.925 Y107.248 E37.00946
G0 F9000 X110.925 Y107.813
G1 F2220 X112.668 Y109.557 E37.09147
G0 F9000 X112.103 Y109.557
G1 F2220 X110.925 Y108.379 E37.14688
G0 F9000 X110.925 Y108.945
G1 F2220 X111.537 Y109.557 E37.17566
G0 F9000 X119.445 Y108.980
G1 F2220 X111.503 Y101.038 E37.54923
G0 F9000 X112.069 Y101.038
G1 F2220 X119.445 Y108.414 E37.89617
G0 F9000 X119.445 Y107.848
G1 F2220 X112.635 Y101.038 E38.21650
G0 F9000 X113.200 Y101.038
G1 F2220 X119.445 Y107.282 E38.51022
G0 F9000 X119.445 Y106.717
G1 F2220 X113.766 Y101.038 E38.77734
G0 F9000 X114.332 Y101.038
G1 F2220 X119.445 Y106.151 E39.01784
G0 F9000 X119.445 Y105.585
G1 F2220 X114.897 Y101.038 E39.23174
G0 F9000 X115.463 Y101.038
G1 F2220 X119.445 Y105.020 E39.41904
G0 F9000 X119.445 Y104.454
G1 F2220 X116.029 Y101.038 E39.57972
G0 F9000 X116.594 Y101.038
G1 F2220 X119.445 Y103.888 E39.71380
G0 F9000 X119.445 Y103.323
G1 F2220 X117.160 Y101.038 E39.82128
G0 F9000 X117.726 Y101.038
G1 F2220 X119.445 Y102.757 E39.90214
G0 F9000 X119.445 Y102.191
G1 F2220 X118.291 Y101.038 E39.95639
G0 F9000 X118.857 Y101.038
G1 F2220 X119.445 Y101.626 E39.98405
;LAYER:3
G0 F9000 X119.586 Y100.898 Z0.900
;TYPE:WALL-INNER
G1 F1560 X119.586 Y109.698 E40.27674
G1 X110.786 Y109.698 E40.56943
G1 X110.786 Y100.898 E40.86212
G1 X119.586 Y100.898 E41.15481
G0 F9000 X119.986 Y100.498
;TYPE:WALL-OUTER
G1 F1200 X119.986 Y110.098 E41.47410
G1 X110.386 Y110.098 E41.79340
G1 X110.386 Y100.498 E42.11270
G1 X119.986 Y100.498 E42.43200
G0 F9000 X119.686 Y100.708
G0 X118.582 Y101.037
;TYPE:FILL
G1 F1980 X110.925 Y108.695 E42.79218
G0 F9000 X111.947 Y109.558
G1 F1980 X119.445 Y102.060 E43.14486
G0 F9000 X119.445 Y103.945
G1 F1980 X113.832 Y109.558 E43.40888
G0 F9000 X115.717 Y109.558
G1 F1980 X119.445 Y105.830 E43.58424
G0 F9000 X119.445 Y107.715
G1 F1980 X117.602 Y109.558 E43.67093
G0 F9000 X110.925 Y106.809
G1 F1980 X116.697 Y101.037 E43.94242
G0 F9000 X114.812 Y101.037
G1 F1980 X110.925 Y104.924 E44.12526
G0 F9000 X110.925 Y103.039
G1 F1980 X112.927 Y101.037 E44.21942
G0 F9000 X111.041 Y101.037
G1 F1980 X110.925 Y101.154 E44.22490
;LAYER:4
G0 F9000 X110.786 Y100.898 Z1.100
;TYPE:WALL-INNER
G1 F1500 X119.586 Y100.898 E44.51759
G1 X119.586 Y109.698 E44.81028
G1 X110.786 Y109.698 E45.10297
G1 X110.786 Y100.898 E45.39566
G0 F9000 X110.386 Y100.498
;TYPE:WALL-OUTER
G1 F1140 X119.986 Y100.498 E45.71496
G1 X119.986 Y110.098 E46.03425
G1 X110.386 Y110.098 E46.35355
G1 X110.386 Y100.498 E46.67285
G0 F9000 X111.406 Y101.038
;TYPE:FILL
G1 F2040 X119.445 Y109.077 E47.05098
G0 F9000 X118.040 Y109.557
G1 F2040 X110.925 Y102.442 E47.38565
G0 F9000 X110.925 Y104.327
G1 F2040 X116.155 Y109.557 E47.63165
G0 F9000 X114.269 Y109.557
G1 F2040 X110.925 Y106.213 E47.78894
G0 F9000 X110.925 Y108.098
G1 F2040 X112.384 Y109.557 E47.85757
G0 F9000 X119.445 Y107.192
G1 F2040 X113.291 Y101.038 E48.14703
G0 F9000 X115.176 Y101.038
G1 F2040 X119.445 Y105.307 E48.34783
G0 F9000 X119.445 Y103.422
G1 F2040 X117.061 Y101.038 E48.45997
G0 F9000 X118.946 Y101.038
G1 F2040 X119.445 Y101.536 E48.48342
;LAYER:5
G0 F9000 X119.586 Y100.898 Z1.300
;TYPE:WALL-INNER
G1 F1500 X119.586 Y109.698 E48.77611
G1 X110.786 Y109.698 E49.06880
G1 X110.786 Y100.898 E49.36149
G1 X119.586 Y100.898 E49.65417
G0 F9000 X119.986 Y100.498
;TYPE:WALL-OUTER
G1 F1140 X119.986 Y110.098 E49.97347
G1 X110.386 Y110.098 E50.29277
G1 X110.386 Y100.498 E50.61207
G1 X119.986 Y100.498 E50.93136
G0 F9000 X119.686 Y100.708
G0 X118.582 Y101.037
;TYPE:FILL
G1 F2040 X110.925 Y108.695 E51.29155
G0 F9000 X111.947 Y109.558
G1 F2040 X119.445 Y102.060 E51.64423
G0 F9000 X119.445 Y103.945
G1 F2040 X113.832 Y109.558 E51.90825
G0 F9000 X115.717 Y109.558
G1 F2040 X119.445 Y105.830 E52.08360
G0 F9000 X119.445 Y107.715
G1 F2040 X117.602 Y109.558 E52.17029
G0 F9000 X110.925 Y106.809
G1 F2040 X116.697 Y101.037 E52.44179
G0 F9000 X114.812 Y101.037
G1 F2040 X110.925 Y104.924 E52.62462
G0 F9000 X110.925 Y103.039
G1 F2040 X112.927 Y101.037 E52.71879
G0 F9000 X111.041 Y101.037
G1 F2040 X110.925 Y101.154 E52.72427
;LAYER:6
G0 F9000 X110.786 Y100.898 Z1.500
;TYPE:WALL-INNER
G1 F1500 X119.586 Y100.898 E53.01696
G1 X119.586 Y109.698 E53.30965
G1 X110.786 Y109.698 E53.60234
G1 X110.786 Y100.898 E53.89503
G0 F9000 X110.386 Y100.498
;TYPE:WALL-OUTER
G1 F1140 X119.986 Y100.498 E54.21432
G1 X119.986 Y110.098 E54.53362
G1 X110.386 Y110.098 E54.85292
G1 X110.386 Y100.498 E55.17222
G0 F9000 X111.406 Y101.038
;TYPE:FILL
G1 F2040 X119.445 Y109.077 E55.55035
G0 F9000 X118.040 Y109.557
G1 F2040 X110.925 Y102.442 E55.88501
G0 F9000 X110.925 Y104.327
G1 F2040 X116.155 Y109.557 E56.13102
G0 F9000 X114.269 Y109.557
G1 F2040 X110.925 Y106.213 E56.28831
G0 F9000 X110.925 Y108.098
G1 F2040 X112.384 Y109.557 E56.35694
G0 F9000 X119.445 Y107.192
G1 F2040 X113.291 Y101.038 E56.64640
G0 F9000 X115.176 Y101.038
G1 F2040 X119.445 Y105.307 E56.84720
G0 F9000 X119.445 Y103.422
G1 F2040 X117.061 Y101.038 E56.95934
G0 F9000 X118.946 Y101.038
G1 F2040 X119.445 Y101.536 E56.98279
;LAYER:7
G0 F9000 X119.586 Y100.898 Z1.700
;TYPE:WALL-INNER
G1 F1500 X119.586 Y109.698 E57.27548
G1 X110.786 Y109.698 E57.56816
G1 X110.786 Y100.898 E57.86085
G1 X119.586 Y100.898 E58.15354
G0 F9000 X119.986 Y100.498
;TYPE:WALL-OUTER
G1 F1140 X119.986 Y110.098 E58.47284
G1 X110.386 Y110.098 E58.79214
G1 X110.386 Y100.498 E59.11143
G1 X119.986 Y100.498 E59.43073
G0 F9000 X119.686 Y100.708
G0 X118.582 Y101.037
;TYPE:FILL
G1 F2040 X110.925 Y108.695 E59.79092
G0 F9000 X111.947 Y109.558
G1 F2040 X119.445 Y102.060 E60.14360
G0 F9000 X119.445 Y103.945
G1 F2040 X113.832 Y109.558 E60.40762
G0 F9000 X115.717 Y109.558
G1 F2040 X119.445 Y105.830 E60.58297
G0 F9000 X119.445 Y107.715
G1 F2040 X117.602 Y109.558 E60.66966
G0 F9000 X110.925 Y106.809
G1 F2040 X116.697 Y101.037 E60.94116
G0 F9000 X114.812 Y101.037
G1 F2040 X110.925 Y104.924 E61.12399
G0 F9000 X110.925 Y103.039
G1 F2040 X112.927 Y101.037 E61.21816
G0 F9000 X111.041 Y101.037
G1 F2040 X110.925 Y101.154 E61.22364
;LAYER:8
G0 F9000 X110.786 Y100.898 Z1.900
;TYPE:WALL-INNER
G1 F1500 X119.586 Y100.898 E61.51633
G1 X119.586 Y109.698 E61.80902
G1 X110.786 Y109.698 E62.10171
G1 X110.786 Y100.898 E62.39440
G0 F9000 X110.386 Y100.498
;TYPE:WALL-OUTER
G1 F1140 X119.986 Y100.498 E62.71369
G1 X119.986 Y110.098 E63.03299
G1 X110.386 Y110.098 E63.35229
G1 X110.386 Y100.498 E63.67158
G0 F9000 X111.406 Y101.038
;TYPE:FILL
G1 F2040 X119.445 Y109.077 E64.04971
G0 F9000 X118.040 Y109.557
G1 F2040 X110.925 Y102.442 E64.38438
G0 F9000 X110.925 Y104.327
G1 F2040 X116.155 Y109.557 E64.63039
G0 F9000 X114.269 Y109.557
G1 F2040 X110.925 Y106.213 E64.78768
G0 F9000 X110.925 Y108.098
G1 F2040 X112.384 Y109.557 E64.85630
G0 F9000 X119.445 Y107.192
G1 F2040 X113.291 Y101.038 E65.14577
G0 F9000 X115.176 Y101.038
G1 F2040 X119.445 Y105.307 E65.34657
G0 F9000 X119.445 Y103.422
G1 F2040 X117.061 Y101.038 E65.45871
G0 F9000 X118.946 Y101.038
G1 F2040 X119.445 Y101.536 E65.48215
;LAYER:9
G0 F9000 X119.586 Y100.898 Z2.100
;TYPE:WALL-INNER
G1 F1500 X119.586 Y109.698 E65.77484
G1 X110.786 Y109.698 E66.06753
G1 X110.786 Y100.898 E66.36022
G1 X119.586 Y100.898 E66.65291
G0 F9000 X119.986 Y100.498
;TYPE:WALL-OUTER
G1 F1140 X119.986 Y110.098 E66.97221
G1 X110.386 Y110.098 E67.29151
G1 X110.386 Y100.498 E67.61080
G1 X119.986 Y100.498 E67.93010
G0 F9000 X119.686 Y100.708
G0 X118.582 Y101.037
;TYPE:FILL
G1 F2040 X110.925 Y108.695 E68.29029
G0 F9000 X111.947 Y109.558
G1 F2040 X119.445 Y102.060 E68.64297
G0 F9000 X119.445 Y103.945
G1 F2040 X113.832 Y109.558 E68.90699
G0 F9000 X115.717 Y109.558
G1 F2040 X119.445 Y105.830 E69.08234
G0 F9000 X119.445 Y107.715
G1 F2040 X117.602 Y109.558 E69.16903
G0 F9000 X110.925 Y106.809
G1 F2040 X116.697 Y101.037 E69.44053
G0 F9000 X114.812 Y101.037
G1 F2040 X110.925 Y104.924 E69.62336
G0 F9000 X110.925 Y103.039
G1 F2040 X112.927 Y101.037 E69.71753
G0 F9000 X111.041 Y101.037
G1 F2040 X110.925 Y101.154 E69.72301
;LAYER:10
G0 F9000 X110.786 Y100.898 Z2.300
;TYPE:WALL-INNER
G1 F1500 X119.586 Y100.898 E70.01570
G1 X119.586 Y109.698 E70.30839
G1 X110.786 Y109.698 E70.60107
G1 X110.786 Y100.898 E70.89376
G0 F9000 X110.386 Y100.498
;TYPE:WALL-OUTER
G1 F1140 X119.986 Y100.498 E71.21306
G1 X119.986 Y110.098 E71.53236
G1 X110.386 Y110.098 E71.85166
G1 X110.386 Y100.498 E72.17095
G0 F9000 X111.406 Y101.038
;TYPE:FILL
G1 F2040 X119.445 Y109.077 E72.54908
G0 F9000 X118.040 Y109.557
G1 F2040 X110.925 Y102.442 E72.88375
G0 F9000 X110.925 Y104.327
G1 F2040 X116.155 Y109.557 E73.12975
G0 F9000 X114.269 Y109.557
G1 F2040 X110.925 Y106.213 E73.28704
G0 F9000 X110.925 Y108.098
G1 F2040 X112.384 Y109.557 E73.35567
G0 F9000 X119.445 Y107.192
G1 F2040 X113.291 Y101.038 E73.64514
G0 F9000 X115.176 Y101.038
G1 F2040 X119.445 Y105.307 E73.84594
G0 F9000 X119.445 Y103.422
G1 F2040 X117.061 Y101.038 E73.95807
G0 F9000 X118.946 Y101.038
G1 F2040 X119.445 Y101.536 E73.98152
;LAYER:11
G0 F9000 X119.586 Y100.898 Z2.500
;TYPE:WALL-INNER
G1 F1500 X119.586 Y109.698 E74.27421
G1 X110.786 Y109.698 E74.56690
G1 X110.786 Y100.898 E74.85959
G1 X119.586 Y100.898 E75.15228
G0 F9000 X119.986 Y100.498
;TYPE:WALL-OUTER
G1 F1140 X119.986 Y110.098 E75.47158
G1 X110.386 Y110.098 E75.79087
G1 X110.386 Y100.498 E76.11017
G1 X119.986 Y100.498 E76.42947
G0 F9000 X119.686 Y100.708
G0 X118.582 Y101.037
;TYPE:FILL
G1 F2040 X110.925 Y108.695 E76.78965
G0 F9000 X111.947 Y109.558
G1 F2040 X119.445 Y102.060 E77.14234
G0 F9000 X119.445 Y103.945
G1 F2040 X113.832 Y109.558 E77.40635
G0 F9000 X115.717 Y109.558
G1 F2040 X119.445 Y105.830 E77.58171
G0 F9000 X119.445 Y107.715
